; generated by PrusaSlicer 2.9.3 on 2025-12-30 at 00:53:20 UTC


;
;
; 

; external perimeters extrusion width = 0.45mm
; perimeters extrusion width = 0.45mm
; infill extrusion width = 0.45mm
; solid infill extrusion width = 0.45mm
; top infill extrusion width = 0.40mm
; first layer extrusion width = 0.42mm

M73 P0 R2
M73 Q0 S2
M201 X1000 Y1000 Z200 E5000 ; sets maximum accelerations, mm/sec^2
M203 X200 Y200 Z12 E120 ; sets maximum feedrates, mm / sec
M204 S1250 T1250 ; sets acceleration (S) and retract acceleration (R), mm/sec^2
M205 X8.00 Y8.00 Z0.40 E4.50 ; sets the jerk limits, mm/sec
M205 S0 T0 ; sets the minimum extruding and travel feed rate, mm/sec

; printing object stativ-plate-ring.stl id:0 copy 0
; stop printing object stativ-plate-ring.stl id:0 copy 0

;TYPE:Custom
M862.3 P "MK3S" ; printer model check
M862.1 P0.4 ; nozzle diameter check
M115 U3.14.1 ; tell printer latest fw version
G90 ; use absolute coordinates
M83 ; extruder relative mode
M104 S240 ; set extruder temp
M140 S85 ; set bed temp
M190 S85 ; wait for bed temp
M109 S240 ; wait for extruder temp
G28 W ; home all without mesh bed level
G80 X116.878 Y96.8784 W16.2432 H16.2432 ; mesh bed levelling

G1 Z0.2 F720
G1 Y-3 F1000 ; go outside print area
G92 E0
G1 X60 E9 F1000 ; intro line
G1 X100 E12.5 F1000 ; intro line
M73 P2 R2
M73 Q2 S2

G92 E0
M221 S95

; Don't change E values below. Excessive value can damage the printer.

M907 E538 ; set extruder motor current
G21 ; set units to millimeters
G90 ; use absolute coordinates
M83 ; use relative distances for extrusion

M900 K0.08 ; Filament gcode LA 1.5
M900 K45 ; Filament gcode LA 1.0




M107
;LAYER_CHANGE
;Z:0.2
;HEIGHT:0.2
G1 E-1 F2100
M73 P4 R2
M73 Q4 S2
G1 Z.4 F720
G1 X118.446 Y100.523 F10800
G1 Z.2 F720
M73 P5 R2
M73 Q5 S2
G1 E1 F2100
M204 S800
;TYPE:Skirt/Brim
;WIDTH:0.42
G1 F1050
G1 X119.553 Y99.227 E.05344
G1 X120.557 Y98.425 E.04029
G1 X121.604 Y97.826 E.03782
G1 X122.329 Y97.526 E.0246
G1 X123.987 Y97.128 E.05346
G1 X125.27 Y97.069 E.04027
M73 Q6 S2
G1 X126.469 Y97.2 E.03782
G1 X127.232 Y97.383 E.0246
G1 X128.396 Y97.826 E.03905
G1 X129.85 Y98.717 E.05347
G1 X130.773 Y99.553 E.03905
M73 P6 R2
G1 X131.554 Y100.524 E.03907
G1 X131.964 Y101.193 E.0246
G1 X132.474 Y102.329 E.03904
G1 X132.8 Y103.531 E.03905
G1 X132.934 Y105.231 E.05347
G1 X132.872 Y106.013 E.0246
G1 X132.644 Y107.118 E.03538
G1 X132.174 Y108.396 E.04269
G1 X131.283 Y109.85 E.05347
G1 X130.447 Y110.773 E.03905
G1 X129.476 Y111.554 E.03907
G1 X128.396 Y112.174 E.03905
G1 X127.671 Y112.474 E.0246
M73 Q7 S2
G1 X126.013 Y112.872 E.05346
G1 X124.769 Y112.934 E.03905
G1 X123.531 Y112.8 E.03904
G1 X122.768 Y112.617 E.0246
G1 X121.604 Y112.174 E.03905
M73 P7 R2
G1 X120.15 Y111.283 E.05347
G1 X119.227 Y110.447 E.03905
G1 X118.446 Y109.476 E.03907
G1 X118.036 Y108.807 E.0246
G1 X117.526 Y107.671 E.03904
G1 X117.2 Y106.469 E.03905
G1 X117.066 Y104.769 E.05347
G1 X117.128 Y103.987 E.0246
G1 X117.383 Y102.768 E.03905
G1 X117.826 Y101.604 E.03905
G1 X118.416 Y100.576 E.03716
M204 S1000
G1 X118.742 Y100.764 F10800
M204 S800
G1 F1050
G1 X118.767 Y100.721 E.00156
G1 X119.798 Y99.514 E.04977
G1 X120.754 Y98.747 E.03843
G1 X121.748 Y98.175 E.03596
M73 Q8 S2
G1 X122.473 Y97.874 E.02461
G1 X124.017 Y97.504 E.04978
G1 X125.24 Y97.445 E.03839
G1 X126.381 Y97.567 E.03598
M73 P8 R2
G1 X127.144 Y97.75 E.0246
G1 X128.252 Y98.175 E.03721
G1 X129.605 Y99.004 E.04975
G1 X130.486 Y99.798 E.03719
G1 X131.233 Y100.721 E.03723
G1 X131.643 Y101.39 E.0246
G1 X132.126 Y102.473 E.03718
G1 X132.433 Y103.619 E.0372
G1 X132.558 Y105.201 E.04976
G1 X132.496 Y105.983 E.0246
G1 X132.277 Y107.03 E.03354
G1 X131.825 Y108.252 E.04085
G1 X130.996 Y109.605 E.04975
G1 X130.202 Y110.486 E.03719
G1 X129.279 Y111.233 E.03723
M73 Q9 S2
G1 X128.252 Y111.825 E.03717
M73 P8 R1
G1 X127.527 Y112.126 E.02461
G1 X125.984 Y112.496 E.04975
G1 X124.799 Y112.558 E.03721
G1 X123.619 Y112.433 E.03721
M73 P9 R1
G1 X122.856 Y112.25 E.0246
M73 Q9 S1
G1 X121.748 Y111.825 E.03721
G1 X120.395 Y110.996 E.04975
G1 X119.514 Y110.202 E.03719
G1 X118.767 Y109.279 E.03723
G1 X118.357 Y108.61 E.0246
G1 X117.874 Y107.527 E.03718
G1 X117.567 Y106.381 E.0372
G1 X117.442 Y104.799 E.04976
G1 X117.504 Y104.017 E.0246
G1 X117.75 Y102.856 E.03721
G1 X118.175 Y101.748 E.03721
G1 X118.712 Y100.816 E.03373
M204 S1000
G1 X119.038 Y101.005 F10800
M204 S800
G1 F1050
G1 X119.089 Y100.918 E.00316
G1 X120.043 Y99.8 E.04608
M73 Q10 S1
G1 X120.951 Y99.068 E.03657
G1 X121.892 Y98.523 E.0341
G1 X122.617 Y98.223 E.0246
G1 X124.046 Y97.88 E.04608
G1 X125.211 Y97.821 E.03657
M73 P10 R1
G1 X126.293 Y97.933 E.03411
G1 X127.056 Y98.117 E.02461
G1 X128.107 Y98.523 E.03533
G1 X129.36 Y99.291 E.04608
G1 X130.2 Y100.043 E.03535
G1 X130.911 Y100.918 E.03535
G1 X131.321 Y101.587 E.0246
G1 X131.777 Y102.617 E.03532
G1 X132.067 Y103.707 E.03537
G1 X132.182 Y105.172 E.04608
G1 X132.12 Y105.954 E.0246
G1 X131.911 Y106.942 E.03166
G1 X131.477 Y108.108 E.03901
G1 X130.709 Y109.36 E.04605
G1 X129.957 Y110.2 E.03535
G1 X129.082 Y110.911 E.03535
M73 Q11 S1
G1 X128.108 Y111.477 E.03532
G1 X127.383 Y111.777 E.0246
G1 X125.954 Y112.12 E.04608
G1 X124.828 Y112.182 E.03536
M73 P11 R1
G1 X123.707 Y112.067 E.03533
G1 X122.944 Y111.883 E.02461
G1 X121.893 Y111.477 E.03533
G1 X120.64 Y110.709 E.04608
G1 X119.8 Y109.957 E.03535
G1 X119.291 Y109.36 E.0246
G1 X118.699 Y108.447 E.03412
G1 X118.223 Y107.383 E.03655
G1 X117.933 Y106.293 E.03537
G1 X117.818 Y104.828 E.04608
G1 X117.88 Y104.046 E.0246
G1 X118.117 Y102.944 E.03534
G1 X118.523 Y101.892 E.03536
G1 X119.008 Y101.057 E.03028
M204 S1000
;WIPE_START
G1 F8640
G1 X119.038 Y101.005 E-.01386
G1 X119.089 Y100.918 E-.02329
G1 X120.043 Y99.8 E-.33936
G1 X120.951 Y99.068 E-.26931
G1 X121.892 Y98.523 E-.25109
M73 Q12 S1
G1 X122.305 Y98.352 E-.10309
;WIPE_END
G1 Z.4 F720
; printing object stativ-plate-ring.stl id:0 copy 0
G1 X128.718 Y105.001 F10800
G1 Z.2 F720
M73 P12 R1
G1 E1 F2100
M204 S800
;TYPE:Perimeter
;WIDTH:0.510586
G1 F1050
G1 X128.651 Y105.578 E.02259
G1 X128.555 Y106.106 E.02087
G1 X128.294 Y106.678 E.02445
G1 X128.04 Y107.15 E.02084
G1 X127.612 Y107.615 E.02458
G1 X127.226 Y107.984 E.02077
G1 X126.678 Y108.294 E.02448
G1 X126.195 Y108.526 E.02084
G1 X125.578 Y108.651 E.02448
G1 X125.047 Y108.723 E.02084
G1 X124.422 Y108.651 E.02446
G1 X123.894 Y108.555 E.02087
G1 X123.322 Y108.294 E.02445
G1 X122.85 Y108.04 E.02084
G1 X122.386 Y107.614 E.02449
;WIDTH:0.510587
G1 X122.016 Y107.226 E.02085
G1 X121.706 Y106.678 E.02448
G1 X121.474 Y106.195 E.02084
G1 X121.349 Y105.578 E.02448
G1 X121.277 Y105.047 E.02084
G1 X121.349 Y104.422 E.02446
G1 X121.445 Y103.894 E.02087
G1 X121.706 Y103.322 E.02445
G1 X121.96 Y102.85 E.02084
;WIDTH:0.510419
G1 X122.386 Y102.386 E.02449
G1 X122.776 Y102.014 E.02095
;WIDTH:0.510586
G1 X123.322 Y101.706 E.02438
G1 X123.805 Y101.474 E.02084
G1 X124.42 Y101.349 E.0244
M73 Q13 S1
G1 X124.956 Y101.277 E.02103
G1 X125.578 Y101.349 E.02435
G1 X126.106 Y101.445 E.02087
G1 X126.678 Y101.706 E.02445
G1 X127.15 Y101.96 E.02084
G1 X127.614 Y102.386 E.02449
G1 X127.984 Y102.774 E.02085
G1 X128.294 Y103.322 E.02448
G1 X128.526 Y103.805 E.02084
M73 P13 R1
G1 X128.651 Y104.422 E.02448
G1 X128.721 Y104.941 E.02036
M204 S1000
G1 X128.31 Y105.001 F10800
M204 S800
;TYPE:External perimeter
;WIDTH:0.419999
G1 F1050
G1 X128.234 Y105.512 E.0162
G1 X128.155 Y106.009 E.01578
G1 X127.688 Y106.935 E.03252
G1 X126.959 Y107.671 E.03248
G1 X126.038 Y108.145 E.03248
G1 X125.015 Y108.312 E.0325
G1 X123.991 Y108.155 E.03248
G1 X123.065 Y107.688 E.03252
G1 X122.685 Y107.315 E.0167
G1 X122.329 Y106.959 E.01579
G1 X121.855 Y106.038 E.03248
G1 X121.688 Y105.015 E.0325
G1 X121.845 Y103.991 E.03248
G1 X122.083 Y103.514 E.01671
G1 X122.312 Y103.065 E.0158
G1 X123.042 Y102.329 E.0325
G1 X123.962 Y101.855 E.03245
G1 X124.986 Y101.688 E.03253
G1 X125.512 Y101.766 E.01667
M73 Q14 S1
G1 X126.009 Y101.845 E.01578
G1 X126.935 Y102.312 E.03252
G1 X127.671 Y103.041 E.03248
G1 X128.145 Y103.962 E.03248
G1 X128.305 Y104.941 E.0311
M204 S1000
;WIPE_START
G1 F8640
M73 P14 R1
G1 X128.31 Y105.001 E-.0139
G1 X128.234 Y105.512 E-.11929
G1 X128.155 Y106.009 E-.1162
G1 X127.688 Y106.935 E-.23947
G1 X126.959 Y107.671 E-.2392
G1 X126.038 Y108.145 E-.23917
G1 X125.898 Y108.168 E-.03277
;WIPE_END
G1 Z.4 F720
G1 X124.974 Y100.848 F10800
G1 Z.2 F720
G1 E1 F2100
M204 S800
;TYPE:Perimeter
;WIDTH:0.510584
G1 F1050
G1 X125.147 Y100.837 E.00674
G1 X125.669 Y100.891 E.02041
G1 X126.426 Y101.086 E.0304
G1 X126.907 Y101.299 E.02046
G1 X127.566 Y101.718 E.03037
G1 X127.957 Y102.069 E.02043
G1 X128.454 Y102.672 E.03039
G1 X128.718 Y103.126 E.02042
G1 X129.005 Y103.853 E.03039
G1 X129.115 Y104.367 E.02044
G1 X129.173 Y105.018 E.02542
;WIDTH:0.491381
G1 X129.163 Y105.147 E.00482
;WIDTH:0.510584
G1 X129.109 Y105.669 E.02041
G1 X128.914 Y106.426 E.0304
G1 X128.701 Y106.907 E.02046
G1 X128.281 Y107.564 E.03032
G1 X127.93 Y107.958 E.02052
M73 Q15 S1
G1 X127.328 Y108.454 E.03033
G1 X126.874 Y108.718 E.02042
G1 X126.147 Y109.005 E.03039
G1 X125.633 Y109.115 E.02044
G1 X124.853 Y109.163 E.03039
G1 X124.331 Y109.109 E.02041
G1 X123.574 Y108.914 E.0304
G1 X123.093 Y108.701 E.02046
M73 P15 R1
G1 X122.434 Y108.282 E.03037
G1 X122.043 Y107.931 E.02043
G1 X121.546 Y107.328 E.03039
G1 X121.282 Y106.874 E.02042
G1 X120.995 Y106.147 E.03039
G1 X120.885 Y105.633 E.02044
G1 X120.837 Y104.853 E.03039
G1 X120.891 Y104.331 E.02041
G1 X121.086 Y103.574 E.0304
G1 X121.299 Y103.093 E.02046
G1 X121.719 Y102.436 E.03032
;WIDTH:0.510419
G1 X122.07 Y102.042 E.02051
G1 X122.672 Y101.546 E.03032
;WIDTH:0.510584
G1 X123.126 Y101.282 E.02042
G1 X123.853 Y100.995 E.03039
G1 X124.366 Y100.885 E.0204
G1 X124.914 Y100.851 E.02135
M204 S1000
G1 X125.006 Y100.433 F10800
M204 S800
;TYPE:External perimeter
;WIDTH:0.419999
G1 F1050
G1 X125.179 Y100.425 E.00543
G1 X125.768 Y100.48 E.01855
G1 X126.584 Y100.705 E.02654
G1 X127.127 Y100.938 E.01853
G1 X127.834 Y101.404 E.02655
G1 X128.278 Y101.795 E.01855
G1 X128.806 Y102.456 E.02653
G1 X129.108 Y102.964 E.01853
G1 X129.406 Y103.757 E.02656
G1 X129.536 Y104.334 E.01854
M73 Q16 S1
G1 X129.585 Y105.05 E.0225
G1 X129.52 Y105.768 E.0226
G1 X129.295 Y106.584 E.02654
G1 X129.062 Y107.127 E.01853
G1 X128.596 Y107.83 E.02644
G1 X128.204 Y108.28 E.01871
G1 X127.544 Y108.806 E.02646
M73 P16 R1
G1 X127.036 Y109.108 E.01853
G1 X126.243 Y109.406 E.02656
G1 X125.666 Y109.536 E.01854
G1 X124.821 Y109.575 E.02652
G1 X124.232 Y109.52 E.01855
G1 X123.416 Y109.295 E.02654
G1 X122.873 Y109.062 E.01853
G1 X122.166 Y108.596 E.02655
G1 X121.722 Y108.205 E.01855
G1 X121.194 Y107.544 E.02653
G1 X120.892 Y107.036 E.01853
G1 X120.594 Y106.243 E.02656
G1 X120.464 Y105.666 E.01854
G1 X120.425 Y104.821 E.02652
G1 X120.48 Y104.232 E.01855
G1 X120.705 Y103.416 E.02654
G1 X120.938 Y102.873 E.01853
G1 X121.404 Y102.17 E.02644
G1 X121.797 Y101.72 E.01873
G1 X122.456 Y101.194 E.02644
G1 X122.964 Y100.892 E.01853
G1 X123.757 Y100.594 E.02656
G1 X124.335 Y100.464 E.01858
G1 X124.946 Y100.436 E.01918
M204 S1000
;LAYER_CHANGE
;Z:0.4
;HEIGHT:0.2
;BEFORE_LAYER_CHANGE
G92 E0.0
;0.4


;WIPE_START
G1 F8640
M73 Q17 S1
G1 X125.006 Y100.433 E-.01387
G1 X125.179 Y100.425 E-.03999
G1 X125.768 Y100.48 E-.13659
G1 X126.584 Y100.705 E-.19545
G1 X127.127 Y100.938 E-.13644
G1 X127.834 Y101.404 E-.19552
G1 X128.278 Y101.795 E-.13661
G1 X128.672 Y102.287 E-.14553
;WIPE_END
G1 Z.4 F720
;AFTER_LAYER_CHANGE
;0.4
M140 S90 ; set bed temperature
; stop printing object stativ-plate-ring.stl id:0 copy 0
G1 Z.6
G1 X124.793 Y97.091 F10800
G1 Z.4 F720
M73 P17 R1
G1 E1 F2100
;TYPE:Skirt/Brim
;WIDTH:0.42
G1 F1091
G1 X125.27 Y97.069 E.01497
G1 X126.469 Y97.2 E.03782
G1 X127.232 Y97.383 E.0246
G1 X128.396 Y97.826 E.03905
G1 X129.85 Y98.717 E.05347
G1 X130.773 Y99.553 E.03905
G1 X131.554 Y100.524 E.03907
G1 X131.964 Y101.193 E.0246
G1 X132.474 Y102.329 E.03904
G1 X132.8 Y103.531 E.03905
G1 X132.934 Y105.231 E.05347
G1 X132.872 Y106.013 E.0246
G1 X132.644 Y107.118 E.03538
G1 X132.174 Y108.396 E.04269
G1 X131.283 Y109.85 E.05347
M73 Q18 S1
G1 X130.447 Y110.773 E.03905
G1 X129.476 Y111.554 E.03907
G1 X128.396 Y112.174 E.03905
G1 X127.671 Y112.474 E.0246
M73 P18 R1
G1 X126.013 Y112.872 E.05346
G1 X124.769 Y112.934 E.03905
G1 X123.531 Y112.8 E.03904
G1 X122.768 Y112.617 E.0246
G1 X121.604 Y112.174 E.03905
G1 X120.15 Y111.283 E.05347
G1 X119.227 Y110.447 E.03905
G1 X118.446 Y109.476 E.03907
G1 X118.036 Y108.807 E.0246
G1 X117.526 Y107.671 E.03904
G1 X117.2 Y106.469 E.03905
G1 X117.066 Y104.769 E.05347
G1 X117.128 Y103.987 E.0246
G1 X117.383 Y102.768 E.03905
G1 X117.826 Y101.604 E.03905
M73 Q19 S1
G1 X118.446 Y100.523 E.03907
G1 X119.553 Y99.227 E.05344
G1 X120.557 Y98.425 E.04029
G1 X121.604 Y97.826 E.03782
M73 P19 R1
G1 X122.329 Y97.526 E.0246
G1 X123.987 Y97.128 E.05346
G1 X124.733 Y97.094 E.02341
G1 X124.751 Y97.469 F10800
G1 F1091
G1 X125.24 Y97.445 E.01535
G1 X126.381 Y97.567 E.03598
G1 X127.144 Y97.75 E.0246
G1 X128.252 Y98.175 E.03721
G1 X129.605 Y99.004 E.04975
G1 X130.486 Y99.798 E.03719
G1 X131.233 Y100.721 E.03723
G1 X131.643 Y101.39 E.0246
G1 X132.126 Y102.473 E.03718
G1 X132.433 Y103.619 E.0372
G1 X132.558 Y105.201 E.04976
G1 X132.496 Y105.983 E.0246
G1 X132.277 Y107.03 E.03354
M73 Q20 S1
G1 X131.825 Y108.252 E.04085
G1 X130.996 Y109.605 E.04975
G1 X130.202 Y110.486 E.03719
G1 X129.279 Y111.233 E.03723
M73 P20 R1
G1 X128.252 Y111.825 E.03717
G1 X127.527 Y112.126 E.02461
G1 X125.984 Y112.496 E.04975
G1 X124.799 Y112.558 E.03721
G1 X123.619 Y112.433 E.03721
G1 X122.856 Y112.25 E.0246
G1 X121.748 Y111.825 E.03721
G1 X120.395 Y110.996 E.04975
G1 X119.514 Y110.202 E.03719
G1 X118.767 Y109.279 E.03723
G1 X118.357 Y108.61 E.0246
G1 X117.874 Y107.527 E.03718
G1 X117.567 Y106.381 E.0372
G1 X117.442 Y104.799 E.04976
G1 X117.504 Y104.017 E.0246
G1 X117.75 Y102.856 E.03721
G1 X118.175 Y101.748 E.03721
M73 Q21 S1
G1 X118.767 Y100.721 E.03717
G1 X119.798 Y99.514 E.04977
G1 X120.754 Y98.747 E.03843
M73 P21 R1
G1 X121.748 Y98.175 E.03596
G1 X122.473 Y97.874 E.02461
G1 X124.017 Y97.504 E.04978
G1 X124.691 Y97.472 E.02116
G1 X124.71 Y97.846 F10800
G1 F1091
G1 X125.211 Y97.821 E.01573
G1 X126.293 Y97.933 E.03411
G1 X127.056 Y98.117 E.02461
G1 X128.107 Y98.523 E.03533
G1 X129.36 Y99.291 E.04608
G1 X130.2 Y100.043 E.03535
G1 X130.911 Y100.918 E.03535
G1 X131.321 Y101.587 E.0246
G1 X131.777 Y102.617 E.03532
G1 X132.067 Y103.707 E.03537
G1 X132.182 Y105.172 E.04608
G1 X132.12 Y105.954 E.0246
G1 X131.911 Y106.942 E.03166
G1 X131.477 Y108.108 E.03901
M73 Q22 S1
G1 X130.709 Y109.36 E.04605
G1 X129.957 Y110.2 E.03535
G1 X129.082 Y110.911 E.03535
G1 X128.108 Y111.477 E.03532
M73 P22 R1
G1 X127.383 Y111.777 E.0246
G1 X125.954 Y112.12 E.04608
G1 X124.828 Y112.182 E.03536
G1 X123.707 Y112.067 E.03533
G1 X122.944 Y111.883 E.02461
G1 X121.893 Y111.477 E.03533
G1 X120.64 Y110.709 E.04608
G1 X119.8 Y109.957 E.03535
G1 X119.291 Y109.36 E.0246
G1 X118.699 Y108.447 E.03412
G1 X118.223 Y107.383 E.03655
G1 X117.933 Y106.293 E.03537
G1 X117.818 Y104.828 E.04608
G1 X117.88 Y104.046 E.0246
G1 X118.117 Y102.944 E.03534
G1 X118.523 Y101.892 E.03536
G1 X119.089 Y100.918 E.03532
M73 Q23 S1
G1 X120.043 Y99.8 E.04608
G1 X120.951 Y99.068 E.03657
G1 X121.892 Y98.523 E.0341
G1 X122.617 Y98.223 E.0246
M73 P23 R1
G1 X124.046 Y97.88 E.04608
G1 X124.65 Y97.849 E.01896
;WIPE_START
G1 F8640
G1 X124.71 Y97.846 E-.01387
G1 X125.211 Y97.821 E-.11583
G1 X126.293 Y97.933 E-.25117
G1 X127.056 Y98.117 E-.18123
G1 X128.107 Y98.523 E-.26016
G1 X128.763 Y98.925 E-.17774
;WIPE_END
G1 Z.6 F720
; printing object stativ-plate-ring.stl id:0 copy 0
G1 X128.524 Y105.001 F10800
G1 Z.4 F720
G1 E1 F2100
M204 S800
;TYPE:Perimeter
;WIDTH:0.449999
G1 F1091
G1 X128.453 Y105.547 E.01864
G1 X128.372 Y106.045 E.01708
G1 X128.115 Y106.587 E.0203
G1 X127.884 Y107.036 E.01709
G1 X127.472 Y107.472 E.0203
G1 X127.114 Y107.828 E.01709
G1 X126.137 Y108.343 E.03738
G1 X125.048 Y108.53 E.0374
G1 X124.453 Y108.453 E.02031
G1 X123.955 Y108.372 E.01708
G1 X123.413 Y108.115 E.0203
G1 X122.964 Y107.884 E.01709
G1 X122.528 Y107.472 E.0203
M73 Q24 S1
G1 X122.172 Y107.114 E.01709
