; generated by PrusaSlicer 2.9.0 on 2025-06-01 at 16:51:11 UTC


;
;
; 

; external perimeters extrusion width = 0.45mm
; perimeters extrusion width = 0.45mm
; infill extrusion width = 0.45mm
; solid infill extrusion width = 0.45mm
; top infill extrusion width = 0.40mm
; first layer extrusion width = 0.42mm

M73 P0 R92
M73 Q0 S93
M201 X1000 Y1000 Z200 E5000 ; sets maximum accelerations, mm/sec^2
M203 X200 Y200 Z12 E120 ; sets maximum feedrates, mm / sec
M204 S1250 T1250 ; sets acceleration (S) and retract acceleration (R), mm/sec^2
M205 X8.00 Y8.00 Z0.40 E4.50 ; sets the jerk limits, mm/sec
M205 S0 T0 ; sets the minimum extruding and travel feed rate, mm/sec

; printing object lamp-clamp-thingy.stl id:0 copy 0
; stop printing object lamp-clamp-thingy.stl id:0 copy 0

;TYPE:Custom
M862.3 P "MK3S" ; printer model check
M862.1 P0.4 ; nozzle diameter check
M115 U3.14.1 ; tell printer latest fw version
G90 ; use absolute coordinates
M83 ; extruder relative mode
M104 S215 ; set extruder temp
M140 S60 ; set bed temp
M190 S60 ; wait for bed temp
M109 S215 ; wait for extruder temp
G28 W ; home all without mesh bed level
G80 X100.373 Y91.4229 W49.2542 H27.1542 ; mesh bed levelling

G1 Z0.2 F720
G1 Y-3 F1000 ; go outside print area
G92 E0
G1 X60 E9 F1000 ; intro line
G1 X100 E12.5 F1000 ; intro line

G92 E0
M221 S95

; Don't change E values below. Excessive value can damage the printer.

M907 E538 ; set extruder motor current
G21 ; set units to millimeters
G90 ; use absolute coordinates
M83 ; use relative distances for extrusion

M900 K0.05 ; Filament gcode LA 1.5
M900 K30 ; Filament gcode LA 1.0




M107
;LAYER_CHANGE
;Z:0.2
;HEIGHT:0.2
G1 E-.8 F2100
M73 Q0 S92
G1 Z.6 F720
G1 X100.952 Y92.552 F10800
G1 Z.2 F720
G1 E.8 F2100
M204 S800
;TYPE:Skirt/Brim
;WIDTH:0.42
G1 F1200
G1 X101.985 Y91.749 E.04102
G1 X102.75 Y91.611 E.02437
G1 X147.25 Y91.611 E1.39527
G1 X148.498 Y92.002 E.04101
G1 X149.301 Y93.035 E.04102
G1 X149.439 Y93.8 E.02437
G1 X149.439 Y116.2 E.70234
G1 X149.048 Y117.448 E.04101
G1 X148.015 Y118.251 E.04102
G1 X147.25 Y118.389 E.02437
G1 X102.75 Y118.389 E1.39527
G1 X101.502 Y117.998 E.04101
G1 X100.699 Y116.965 E.04102
G1 X100.561 Y116.2 E.02437
G1 X100.561 Y93.8 E.70234
G1 X100.934 Y92.609 E.03913
M204 S1000
;WIPE_START
G1 F8640
G1 X100.952 Y92.552 E-.0138
G1 X101.985 Y91.749 E-.30211
G1 X102.75 Y91.611 E-.17949
G1 X104.069 Y91.611 E-.3046
;WIPE_END
G1 Z.6 F720
; printing object lamp-clamp-thingy.stl id:0 copy 0
G1 X104.149 Y95.102 F10800
G1 Z.2 F720
G1 E.8 F2100
M204 S800
;TYPE:Perimeter
;WIDTH:0.577957
G1 F1200
G1 X104.225 Y95.082 E.0035
;WIDTH:0.533432
G1 X104.377 Y95.041 E.00642
;WIDTH:0.488907
G1 X104.529 Y95.001 E.00583
;WIDTH:0.444381
G1 X145.471 Y95.001 E1.36671
;WIDTH:0.488907
G1 X145.623 Y95.041 E.00583
;WIDTH:0.533432
G1 X145.775 Y95.082 E.00642
;WIDTH:0.577957
G1 X145.927 Y95.123 E.007
G1 X145.968 Y95.275 E.007
;WIDTH:0.533432
G1 X146.009 Y95.427 E.00642
;WIDTH:0.488907
G1 X146.049 Y95.579 E.00583
;WIDTH:0.444381
G1 X146.049 Y107.421 E.39531
;WIDTH:0.450279
G1 X146.043 Y107.522 E.00343
G1 X145.811 Y107.874 E.01428
;WIDTH:0.419999
G1 X145.471 Y107.987 E.01123
G1 X104.529 Y107.987 E1.28371
G1 X104.189 Y107.874 E.01123
;WIDTH:0.45028
G1 X103.957 Y107.522 E.01428
G1 X103.951 Y107.421 E.00343
;WIDTH:0.444381
G1 X103.951 Y95.579 E.39531
;WIDTH:0.488907
G1 X103.991 Y95.427 E.00583
;WIDTH:0.533432
G1 X104.032 Y95.275 E.00642
;WIDTH:0.577957
G1 X104.073 Y95.123 E.007
G1 X104.091 Y95.118 E.00083
M204 S1000
G1 X104.091 Y95.118 F10800
G1 X104.382 Y95.478
M204 S800
;TYPE:External perimeter
;WIDTH:0.419999
G1 F1200
G1 X104.395 Y95.445 E.00111
G1 X104.529 Y95.39 E.00454
G1 X145.471 Y95.39 E1.28371
G1 X145.605 Y95.445 E.00454
G1 X145.66 Y95.579 E.00454
G1 X145.66 Y107.421 E.3713
G1 X145.585 Y107.572 E.00529
G1 X145.471 Y107.61 E.00377
G1 X104.529 Y107.61 E1.28371
G1 X104.415 Y107.572 E.00377
G1 X104.34 Y107.421 E.00529
G1 X104.34 Y95.579 E.3713
G1 X104.359 Y95.533 E.00156
M204 S1000
;WIPE_START
G1 F8640
G1 X104.382 Y95.478 E-.01377
G1 X104.395 Y95.445 E-.00819
G1 X104.529 Y95.39 E-.03345
G1 X107.754 Y95.39 E-.74459
;WIPE_END
G1 Z.6 F720
G1 X146.463 Y115.413 F10800
G1 Z.2 F720
G1 E.8 F2100
M204 S800
;TYPE:Perimeter
G1 F1200
G1 X103.537 Y115.413 E1.34591
G1 X103.537 Y108.2 E.22616
;WIDTH:0.444381
G1 X103.549 Y95.579 E.42131
;WIDTH:0.488907
G1 X103.572 Y95.274 E.01134
;WIDTH:0.533432
G1 X103.594 Y94.97 E.01243
;WIDTH:0.577957
G1 X103.616 Y94.666 E.01356
G1 X104.099 Y94.644 E.02151
;WIDTH:0.533432
G1 X104.314 Y94.622 E.00881
;WIDTH:0.488907
G1 X104.529 Y94.599 E.00802
;WIDTH:0.444381
G1 X145.471 Y94.599 E1.36671
;WIDTH:0.488907
G1 X145.776 Y94.622 E.01134
;WIDTH:0.533432
G1 X146.08 Y94.644 E.01243
;WIDTH:0.577957
G1 X146.384 Y94.666 E.01356
G1 X146.384 Y94.934 E.01192
G1 X146.406 Y95.149 E.00961
;WIDTH:0.533432
G1 X146.428 Y95.364 E.00881
;WIDTH:0.488907
G1 X146.451 Y95.579 E.00802
;WIDTH:0.444381
G1 X146.451 Y107.421 E.39531
;WIDTH:0.450279
G1 X146.463 Y108.2 E.02639
;WIDTH:0.419999
G1 X146.463 Y115.353 E.22428
M204 S1000
G1 X146.84 Y115.79 F10800
M204 S800
;TYPE:External perimeter
G1 F1200
G1 X103.16 Y115.79 E1.36955
G1 X103.16 Y94.21 E.67662
G1 X146.84 Y94.21 E1.36955
G1 X146.84 Y94.934 E.0227
G1 X146.84 Y115.73 E.65204
M204 S1000
;WIPE_START
G1 F8640
G1 X146.84 Y115.79 E-.01385
G1 X143.435 Y115.79 E-.78615
;WIPE_END
G1 Z.6 F720
G1 X146.293 Y108.592 F10800
G1 Z.2 F720
G1 E.8 F2100
M204 S800
;TYPE:Solid infill
;WIDTH:0.423715
G1 F1200
G1 X145.895 Y108.194 E.01782
G1 X145.489 Y108.326 E.01352
G1 X146.124 Y108.961 E.02843
G1 X146.124 Y109.5 E.01707
G1 X144.95 Y108.326 E.05257
G1 X144.412 Y108.326 E.01703
G1 X146.124 Y110.038 E.07666
G1 X146.124 Y110.577 E.01707
G1 X143.873 Y108.326 E.1008
G1 X143.335 Y108.326 E.01703
G1 X146.124 Y111.115 E.12489
G1 X146.124 Y111.654 E.01707
G1 X142.796 Y108.326 E.14902
G1 X142.258 Y108.326 E.01703
G1 X146.124 Y112.192 E.17311
G1 X146.124 Y112.731 E.01707
G1 X141.719 Y108.326 E.19725
G1 X141.181 Y108.326 E.01703
G1 X146.124 Y113.269 E.22134
G1 X146.124 Y113.808 E.01707
G1 X140.642 Y108.326 E.24548
G1 X140.104 Y108.326 E.01703
G1 X146.124 Y114.346 E.26957
G1 X146.124 Y114.885 E.01707
G1 X139.565 Y108.326 E.2937
G1 X139.027 Y108.326 E.01703
G1 X145.774 Y115.074 E.30214
G1 X145.235 Y115.074 E.01707
G1 X138.488 Y108.326 E.30214
G1 X137.949 Y108.326 E.01707
G1 X144.697 Y115.074 E.30217
G1 X144.158 Y115.074 E.01707
G1 X137.411 Y108.326 E.30214
G1 X136.872 Y108.326 E.01707
G1 X143.62 Y115.074 E.30217
G1 X143.081 Y115.074 E.01707
G1 X136.334 Y108.326 E.30214
G1 X135.795 Y108.326 E.01707
G1 X142.542 Y115.074 E.30214
G1 X142.004 Y115.074 E.01703
G1 X135.257 Y108.326 E.30214
G1 X134.718 Y108.326 E.01707
G1 X141.465 Y115.074 E.30214
G1 X140.927 Y115.074 E.01703
G1 X134.18 Y108.326 E.30214
G1 X133.641 Y108.326 E.01707
G1 X140.388 Y115.074 E.30214
G1 X139.85 Y115.074 E.01703
G1 X133.103 Y108.326 E.30214
G1 X132.564 Y108.326 E.01707
G1 X139.311 Y115.074 E.30214
G1 X138.773 Y115.074 E.01703
M73 P0 R91
G1 X132.026 Y108.326 E.30214
G1 X131.487 Y108.326 E.01707
G1 X138.234 Y115.074 E.30214
G1 X137.696 Y115.074 E.01703
G1 X130.949 Y108.326 E.30214
G1 X130.41 Y108.326 E.01707
G1 X137.157 Y115.074 E.30214
G1 X136.619 Y115.074 E.01703
G1 X129.872 Y108.326 E.30214
G1 X129.333 Y108.326 E.01707
G1 X136.08 Y115.074 E.30214
G1 X135.542 Y115.074 E.01703
G1 X128.795 Y108.326 E.30214
G1 X128.256 Y108.326 E.01707
G1 X135.003 Y115.074 E.30214
G1 X134.465 Y115.074 E.01703
G1 X127.718 Y108.326 E.30214
G1 X127.179 Y108.326 E.01707
G1 X133.926 Y115.074 E.30214
G1 X133.388 Y115.074 E.01703
M73 Q1 S92
G1 X126.64 Y108.326 E.30217
G1 X126.102 Y108.326 E.01703
M73 P1 R91
G1 X132.849 Y115.074 E.30214
G1 X132.311 Y115.074 E.01703
G1 X125.563 Y108.326 E.30217
G1 X125.025 Y108.326 E.01703
G1 X131.772 Y115.074 E.30214
G1 X131.233 Y115.074 E.01707
G1 X124.486 Y108.326 E.30214
G1 X123.948 Y108.326 E.01703
G1 X130.695 Y115.074 E.30214
G1 X130.156 Y115.074 E.01707
G1 X123.409 Y108.326 E.30214
G1 X122.871 Y108.326 E.01703
G1 X129.618 Y115.074 E.30214
G1 X129.079 Y115.074 E.01707
G1 X122.332 Y108.326 E.30214
G1 X121.794 Y108.326 E.01703
G1 X128.541 Y115.074 E.30214
G1 X128.002 Y115.074 E.01707
G1 X121.255 Y108.326 E.30214
G1 X120.717 Y108.326 E.01703
G1 X127.464 Y115.074 E.30214
G1 X126.925 Y115.074 E.01707
G1 X120.178 Y108.326 E.30214
G1 X119.64 Y108.326 E.01703
G1 X126.387 Y115.074 E.30214
G1 X125.848 Y115.074 E.01707
G1 X119.101 Y108.326 E.30214
G1 X118.563 Y108.326 E.01703
G1 X125.31 Y115.074 E.30214
G1 X124.771 Y115.074 E.01707
G1 X118.024 Y108.326 E.30214
G1 X117.486 Y108.326 E.01703
M73 Q1 S91
G1 X124.233 Y115.074 E.30214
G1 X123.694 Y115.074 E.01707
G1 X116.947 Y108.326 E.30214
G1 X116.408 Y108.326 E.01707
G1 X123.156 Y115.074 E.30217
G1 X122.617 Y115.074 E.01707
G1 X115.87 Y108.326 E.30214
G1 X115.331 Y108.326 E.01707
G1 X122.079 Y115.074 E.30217
G1 X121.54 Y115.074 E.01707
G1 X114.793 Y108.326 E.30214
G1 X114.254 Y108.326 E.01707
G1 X121.001 Y115.074 E.30214
G1 X120.463 Y115.074 E.01703
G1 X113.716 Y108.326 E.30214
G1 X113.177 Y108.326 E.01707
G1 X119.924 Y115.074 E.30214
G1 X119.386 Y115.074 E.01703
G1 X112.639 Y108.326 E.30214
G1 X112.1 Y108.326 E.01707
G1 X118.847 Y115.074 E.30214
G1 X118.309 Y115.074 E.01703
G1 X111.562 Y108.326 E.30214
G1 X111.023 Y108.326 E.01707
G1 X117.77 Y115.074 E.30214
G1 X117.232 Y115.074 E.01703
G1 X110.485 Y108.326 E.30214
G1 X109.946 Y108.326 E.01707
G1 X116.693 Y115.074 E.30214
G1 X116.155 Y115.074 E.01703
G1 X109.408 Y108.326 E.30214
G1 X108.869 Y108.326 E.01707
G1 X115.616 Y115.074 E.30214
G1 X115.078 Y115.074 E.01703
G1 X108.331 Y108.326 E.30214
G1 X107.792 Y108.326 E.01707
G1 X114.539 Y115.074 E.30214
G1 X114.001 Y115.074 E.01703
G1 X107.254 Y108.326 E.30214
G1 X106.715 Y108.326 E.01707
G1 X113.462 Y115.074 E.30214
G1 X112.924 Y115.074 E.01703
G1 X106.176 Y108.326 E.30217
G1 X105.638 Y108.326 E.01703
G1 X112.385 Y115.074 E.30214
G1 X111.847 Y115.074 E.01703
G1 X105.099 Y108.326 E.30217
G1 X104.561 Y108.326 E.01703
G1 X111.308 Y115.074 E.30214
G1 X110.769 Y115.074 E.01707
G1 X103.877 Y108.182 E.30861
G1 X103.876 Y108.719 E.017
G1 X110.231 Y115.074 E.28457
G1 X109.692 Y115.074 E.01707
G1 X103.876 Y109.258 E.26043
G1 X103.876 Y109.796 E.01703
G1 X109.154 Y115.074 E.23634
G1 X108.615 Y115.074 E.01707
G1 X103.876 Y110.335 E.21221
G1 X103.876 Y110.873 E.01703
G1 X108.077 Y115.074 E.18811
G1 X107.538 Y115.074 E.01707
G1 X103.876 Y111.412 E.16398
G1 X103.876 Y111.95 E.01703
G1 X107 Y115.074 E.13989
G1 X106.461 Y115.074 E.01707
G1 X103.876 Y112.489 E.11575
G1 X103.876 Y113.027 E.01703
G1 X105.923 Y115.074 E.09166
G1 X105.384 Y115.074 E.01707
G1 X103.876 Y113.566 E.06753
G1 X103.876 Y114.104 E.01703
G1 X104.846 Y115.074 E.04344
G1 X104.307 Y115.074 E.01707
G1 X103.707 Y114.473 E.02689
M204 S1000
M106 S84.15
;LAYER_CHANGE
;Z:0.4
;HEIGHT:0.2
;BEFORE_LAYER_CHANGE
G92 E0.0
;0.4


;WIPE_START
G1 F8640
G1 X104.307 Y115.074 E-.19609
G1 X104.846 Y115.074 E-.12446
G1 X103.876 Y114.104 E-.31675
G1 X103.876 Y113.566 E-.12423
G1 X103.994 Y113.684 E-.03847
;WIPE_END
G1 Z.4 F720
;AFTER_LAYER_CHANGE
;0.4
M104 S210 ; set temperature
; stop printing object lamp-clamp-thingy.stl id:0 copy 0
G1 Z.8
G1 X100.561 Y114.473 F10800
G1 Z.4 F720
G1 E.8 F2100
;TYPE:Skirt/Brim
;WIDTH:0.42
G1 F3000
G1 X100.561 Y93.8 E.64819
G1 X100.952 Y92.552 E.04101
G1 X101.985 Y91.749 E.04102
G1 X102.75 Y91.611 E.02437
G1 X147.25 Y91.611 E1.39527
G1 X148.498 Y92.002 E.04101
G1 X149.301 Y93.035 E.04102
G1 X149.439 Y93.8 E.02437
G1 X149.439 Y116.2 E.70234
G1 X149.048 Y117.448 E.04101
G1 X148.015 Y118.251 E.04102
G1 X147.25 Y118.389 E.02437
G1 X102.75 Y118.389 E1.39527
G1 X101.502 Y117.998 E.04101
G1 X100.699 Y116.965 E.04102
G1 X100.561 Y116.2 E.02437
G1 X100.561 Y114.533 E.05227
;WIPE_START
G1 F8640
G1 X100.561 Y114.473 E-.01385
G1 X100.561 Y111.068 E-.78615
;WIPE_END
G1 Z.8 F720
; printing object lamp-clamp-thingy.stl id:0 copy 0
G1 X104.294 Y95.351 F10800
G1 Z.4 F720
G1 E.8 F2100
M204 S800
;TYPE:Perimeter
;WIDTH:0.491095
G1 F3250.396
G1 X104.297 Y95.347 E.00019
;WIDTH:0.492948
G1 F3232.246
G1 X104.375 Y95.283 E.00378
;WIDTH:0.535897
G1 F3198.809
G1 X104.452 Y95.22 E.00408
;WIDTH:0.578846
G1 F3169.187
G1 X104.53 Y95.156 E.0045
;WIDTH:0.621795
G1 F3142.81
G1 X104.608 Y95.093 E.00483
G1 F3136.506
G1 X104.729 Y95.086 E.00583
;WIDTH:0.614381
G1 F3600
G1 X145.271 Y95.086 E1.92644
G1 F3224.638
G1 X145.379 Y95.151 E.00599
;WIDTH:0.573286
G1 F3227.188
G1 X145.487 Y95.216 E.00556
;WIDTH:0.53219
G1 F3230.88
G1 X145.595 Y95.282 E.00515
;WIDTH:0.491095
G1 F3236.148
G1 X145.703 Y95.347 E.0047
G1 F3223.798
G1 X145.768 Y95.455 E.0047
;WIDTH:0.53219
G1 F3196.813
G1 X145.834 Y95.563 E.00515
;WIDTH:0.573286
G1 F3175.208
G1 X145.899 Y95.671 E.00556
;WIDTH:0.614381
G1 F3158.232
G1 X145.964 Y95.779 E.00599
G1 F3600
G1 X145.964 Y107.221 E.54369
;WIDTH:0.621795
G1 X145.958 Y107.342 E.00583
G1 X145.878 Y107.434 E.00587
;WIDTH:0.578846
G1 X145.798 Y107.526 E.00543
;WIDTH:0.535897
G1 X145.718 Y107.618 E.005
;WIDTH:0.492948
G1 X145.638 Y107.71 E.00456
;WIDTH:0.449999
G1 X145.271 Y107.832 E.01309
G1 X104.729 Y107.832 E1.3723
G1 F3314.028
G1 X104.362 Y107.71 E.01309
;WIDTH:0.492948
G1 F3243.685
G1 X104.282 Y107.618 E.00456
;WIDTH:0.535897
G1 F3206.668
G1 X104.202 Y107.526 E.005
;WIDTH:0.578846
G1 F3173.702
G1 X104.122 Y107.434 E.00543
;WIDTH:0.621795
G1 F3144.225
G1 X104.043 Y107.342 E.00584
G1 F3136.461
G1 X104.036 Y107.221 E.00583
;WIDTH:0.614381
G1 F3138.154
G1 X104.036 Y95.779 E.54369
G1 F3233.594
G1 X104.101 Y95.671 E.00599
;WIDTH:0.573286
G1 F3245.739
G1 X104.166 Y95.563 E.00556
;WIDTH:0.53219
G1 F3249.084
G1 X104.232 Y95.455 E.00515
;WIDTH:0.491095
G1 F3250.396
G1 X104.263 Y95.402 E.00229
M204 S1000
G1 X104.263 Y95.402 F10800
G1 X104.582 Y95.641
M204 S800
;TYPE:External perimeter
;WIDTH:0.449999
G1 F2024.387
G1 X104.585 Y95.635 E.00023
G1 F2018.828
G1 X104.729 Y95.575 E.00528
G1 F2017.162
G1 X105.403 Y95.575 E.02281
G1 F2099.996
G1 X144.597 Y95.575 E1.32667
G1 F2045.214
G1 X145.271 Y95.575 E.02281
G1 F2025.893
G1 X145.415 Y95.635 E.00528
G1 F2022.892
G1 X145.475 Y95.779 E.00528
G1 F2032.877
G1 X145.475 Y96.453 E.02281
G1 F2099.996
G1 X145.475 Y107.221 E.36448
G1 F2100
G1 X145.394 Y107.384 E.00616
G1 X145.271 Y107.425 E.00439
G1 F2099.996
G1 X105.403 Y107.425 E1.34948
G1 F2044.733
G1 X104.729 Y107.425 E.02281
G1 F2024.964
G1 X104.606 Y107.384 E.00439
G1 F2019.425
G1 X104.525 Y107.221 E.00616
G1 F2017.154
G1 X104.525 Y96.453 E.36448
G1 F2044.738
G1 X104.525 Y95.779 E.02281
G1 F2024.387
G1 X104.559 Y95.696 E.00304
M204 S1000
;WIPE_START
G1 F8640
G1 X104.582 Y95.641 E-.01377
G1 X104.585 Y95.635 E-.00155
G1 X104.729 Y95.575 E-.03602
G1 X105.403 Y95.575 E-.15563
G1 X107.971 Y95.575 E-.59303
;WIPE_END
G1 Z.8 F720
G1 X146.618 Y115.568 F10800
G1 Z.4 F720
G1 E.8 F2100
M204 S800
;TYPE:Perimeter
G1 F3600
G1 X103.382 Y115.568 E1.46349
G1 F3041.837
G1 X103.382 Y108.2 E.2494
;WIDTH:0.491095
G1 F3035.094
G1 X103.403 Y107.955 E.00916
;WIDTH:0.53219
G1 F3031.753
G1 X103.423 Y107.711 E.00996
;WIDTH:0.573286
G1 F3028.884
G1 X103.444 Y107.466 E.01084
;WIDTH:0.614381
G1 F3026.392
G1 X103.464 Y107.221 E.01168
G1 F3028.471
G1 X103.464 Y95.779 E.54369
G1 F3174.693
G1 X103.444 Y95.576 E.00969
;WIDTH:0.573286
G1 F3155.146
G1 X103.423 Y95.373 E.009
;WIDTH:0.53219
G1 F3132.548
G1 X103.403 Y95.171 E.00826
;WIDTH:0.491095
G1 F3106.408
G1 X103.382 Y94.968 E.00761
;WIDTH:0.449999
G1 F3042.183
G1 X103.382 Y94.432 E.01814
G1 F3020.914
G1 X103.918 Y94.432 E.01814
;WIDTH:0.491095
G1 F3035.149
G1 X104.121 Y94.453 E.00761
;WIDTH:0.53219
G1 F3031.808
G1 X104.323 Y94.473 E.00826
;WIDTH:0.573286
G1 F3028.939
G1 X104.526 Y94.494 E.009
;WIDTH:0.614381
G1 F3026.448
G1 X104.729 Y94.514 E.00969
G1 F3600
G1 X145.271 Y94.514 E1.92644
G1 F3183.186
G1 X145.474 Y94.494 E.00969
;WIDTH:0.573286
G1 F3164.03
G1 X145.677 Y94.473 E.009
;WIDTH:0.53219
G1 F3141.883
G1 X145.879 Y94.453 E.00826
;WIDTH:0.491095
G1 F3116.265
G1 X146.082 Y94.432 E.00761
;WIDTH:0.449999
G1 F3053.324
G1 X146.618 Y94.432 E.01814
G1 F3004.787
G1 X146.618 Y94.968 E.01814
;WIDTH:0.491095
G1 F3000.842
G1 X146.597 Y95.171 E.00761
