;FLAVOR:Marlin
;TIME:6992
;Filament used: 5.91402m
;Layer height: 0.2
;MINX:99.15
;MINY:90.2
;MINZ:0.2
;MAXX:150.85
;MAXY:119.8
;MAXZ:50
;Generated with Cura_SteamEngine main
M82 ;absolute extrusion mode
G21 ; set units to millimeters
G90 ; use absolute positioning
M82 ; absolute extrusion mode
M104 S260.0 ; set extruder temp
M140 S80 ; set bed temp
M190 S80 ; wait for bed temp
M109 S260.0 ; wait for extruder temp
G28 W ; home all without mesh bed level
G80 ; mesh bed leveling
G92 E0.0 ; reset extruder distance position
G1 Y-3.0 F1000.0 ; go outside print area
G1 X60.0 E9.0 F1000.0 ; intro line
G1 X100.0 E21.5 F1000.0 ; intro line
G92 E0.0 ; reset extruder distance position
G92 E0
G92 E0
G1 F2100 E-0.8
;LAYER_COUNT:250
;LAYER:0
M107
G0 F3600 X100.285 Y91.195 Z0.2
;TYPE:SKIRT
G1 F2100 E0
G1 F1800 X100.728 Y90.838 E0.01892
G1 X101.221 Y90.555 E0.03783
G1 X101.692 Y90.371 E0.05465
G1 X102.299 Y90.239 E0.07531
G1 X102.744 Y90.202 E0.09016
G1 X146.595 Y90.2 E1.54865
G1 X147.293 Y90.21 E1.57187
G1 X147.89 Y90.27 E1.59183
G1 X148.44 Y90.416 E1.61075
G1 X148.904 Y90.618 E1.62758
G1 X149.385 Y90.92 E1.64647
G1 X149.858 Y91.339 E1.66749
G1 X150.213 Y91.781 E1.68635
G1 X150.496 Y92.275 E1.70528
G1 X150.697 Y92.806 E1.72417
G1 X150.812 Y93.363 E1.74308
G1 X150.849 Y94.04 E1.76563
G1 X150.85 Y115.509 E2.4797
G1 X150.841 Y116.236 E2.50388
G1 X150.783 Y116.833 E2.52383
G1 X150.637 Y117.383 E2.54275
G1 X150.407 Y117.902 E2.56163
G1 X150.098 Y118.38 E2.58057
G1 X149.717 Y118.803 E2.5995
G1 X149.276 Y119.16 E2.61837
G1 X148.782 Y119.444 E2.63732
G1 X148.251 Y119.645 E2.65621
G1 X147.757 Y119.753 E2.67303
G1 X147.01 Y119.799 E2.69792
G1 X103.411 Y119.8 E4.14803
G1 X102.713 Y119.791 E4.17125
G1 X102.115 Y119.732 E4.19123
G1 X101.565 Y119.586 E4.21016
G1 X101.045 Y119.355 E4.22908
G1 X100.569 Y119.047 E4.24794
G1 X100.146 Y118.666 E4.26687
G1 X99.789 Y118.223 E4.2858
G1 X99.506 Y117.731 E4.30468
G1 X99.304 Y117.199 E4.3236
G1 X99.189 Y116.653 E4.34216
G1 X99.152 Y116.2 E4.35728
G1 X99.15 Y94.426 E5.08148
G1 X99.159 Y93.761 E5.1036
G1 X99.219 Y93.162 E5.12363
G1 X99.365 Y92.614 E5.14249
G1 X99.595 Y92.095 E5.16137
G1 X99.905 Y91.617 E5.18032
G1 X100.285 Y91.195 E5.19921
G0 F3600 X100.539 Y91.504
G1 F1800 X100.93 Y91.183 E5.21603
G1 X101.367 Y90.928 E5.23286
G1 X101.838 Y90.744 E5.24968
G1 X102.332 Y90.638 E5.26648
G1 X102.777 Y90.601 E5.28134
G1 X146.589 Y90.6 E6.73853
G1 X147.287 Y90.61 E6.76175
G1 X147.79 Y90.657 E6.77855
G1 X148.28 Y90.783 E6.79538
G1 X148.744 Y90.985 E6.81221
G1 X149.17 Y91.257 E6.82902
G1 X149.548 Y91.592 E6.84582
G1 X149.868 Y91.983 E6.86262
G1 X150.123 Y92.42 E6.87945
G1 X150.306 Y92.891 E6.89626
G1 X150.413 Y93.385 E6.91307
G1 X150.449 Y94.04 E6.93489
G1 X150.45 Y115.504 E7.64878
G1 X150.441 Y116.231 E7.67297
G1 X150.395 Y116.734 E7.68977
G1 X150.27 Y117.224 E7.70658
G1 X150.069 Y117.688 E7.7234
G1 X149.798 Y118.115 E7.74022
G1 X149.463 Y118.494 E7.75705
G1 X149.073 Y118.815 E7.77385
G1 X148.637 Y119.071 E7.79066
G1 X148.166 Y119.254 E7.80747
G1 X147.672 Y119.362 E7.82429
G1 X147.01 Y119.399 E7.84634
G1 X103.416 Y119.4 E9.29628
G1 X102.718 Y119.391 E9.3195
G1 X102.214 Y119.344 E9.33634
G1 X101.724 Y119.219 E9.35316
G1 X101.26 Y119.018 E9.36998
G1 X100.834 Y118.747 E9.38677
G1 X100.455 Y118.412 E9.40359
G1 X100.134 Y118.021 E9.42042
G1 X99.879 Y117.585 E9.43722
G1 X99.695 Y117.114 E9.45404
G1 X99.588 Y116.62 E9.47085
G1 X99.551 Y116.167 E9.48597
G1 X99.55 Y94.431 E10.20891
G1 X99.559 Y93.766 E10.23103
G1 X99.606 Y93.262 E10.24786
G1 X99.732 Y92.773 E10.26466
G1 X99.933 Y92.309 E10.28148
G1 X100.204 Y91.882 E10.2983
G1 X100.539 Y91.504 E10.3151
G1 F2100 E9.5151
;MESH:lamp-clamp-thingy.stl
G0 F3600 X103.164 Y93.135
G0 X103.164 Y94.214
G0 X145.674 Y94.9
G0 X145.674 Y95.376
;TYPE:WALL-INNER
G1 F2100 E10.3151
G1 F1800 X145.85 Y95.8 E10.33037
G1 X145.85 Y107.285 E10.71236
G1 X145.732 Y107.56 E10.72231
G1 X145.482 Y107.754 E10.73284
G1 X145.25 Y107.8 E10.7407
G1 X104.75 Y107.8 E12.08774
G1 X104.518 Y107.754 E12.09561
G1 X104.269 Y107.56 E12.1061
G1 X104.15 Y107.286 E12.11604
G1 X104.15 Y95.8 E12.49807
G1 X104.325 Y95.375 E12.51335
G1 X104.661 Y95.2 E12.52595
G1 X145.25 Y95.2 E13.87595
G1 X145.674 Y95.376 E13.89122
G0 F3600 X145.674 Y94.9
G0 X146.38 Y115.33
G0 X146.65 Y115.6
G1 F1800 X146.65 Y94.4 E14.59633
G1 X103.352 Y94.402 E16.03643
G1 X103.35 Y115.6 E16.74148
G1 X146.65 Y115.6 E18.18164
G0 F3600 X147.05 Y116
;TYPE:WALL-OUTER
G1 F1800 X147.05 Y94 E18.91336
G1 X102.951 Y94.001 E20.3801
G1 X102.95 Y116 E21.11179
G1 X147.05 Y116 E22.57857
G0 F3600 X147.05 Y115.8
G0 X146.38 Y115.33
G0 X146.15 Y107.32
G0 X145.411 Y107.32
G1 F1800 X145.309 Y107.4 E22.58288
G1 X104.691 Y107.4 E23.93384
G1 X104.589 Y107.32 E23.93815
G1 X104.552 Y107.235 E23.94123
G1 X104.55 Y95.8 E24.32156
G1 X104.608 Y95.658 E24.32666
G1 X104.715 Y95.602 E24.33068
G1 X145.25 Y95.6 E25.67888
G1 X145.392 Y95.658 E25.68398
G1 X145.45 Y95.8 E25.68908
G1 X145.448 Y107.235 E26.06941
G1 X145.411 Y107.32 E26.0725
G0 F3600 X145.309 Y107.4
G0 X145.238 Y107.4
G0 X145.238 Y108.1
G0 X104.41 Y108.117
;TYPE:SKIN
G1 F1800 X104.714 Y108.177 E26.0828
G1 X145.286 Y108.177 E27.43223
G1 X145.673 Y108.079 E27.44551
G1 X145.999 Y107.826 E27.45924
G1 F1710.2 X146.249 Y107.346 E27.47818
G1 X146.27 Y107.789 E27.49371
G1 F1800 X146.27 Y115.22 E27.74086
G1 X103.73 Y115.22 E29.15575
G1 X103.732 Y107.79 E29.40287
G1 F1706.2 X103.751 Y107.347 E29.41843
G1 X104.001 Y107.826 E29.43739
G1 F1800 X104.41 Y108.117 E29.45408
G0 F3600 X103.751 Y107.347
G1 F1632.7 X103.751 Y95.802 E29.87743
G0 F3600 X104.041 Y95.121
G1 F1730.8 X103.75 Y95.769 E29.902
G1 F1718.4 X103.715 Y94.763 E29.93707
G1 F1734.9 X104.583 Y94.801 E29.96705
G1 F1747.6 X104.041 Y95.121 E29.98862
G0 F3600 X104.6 Y94.802
G1 F1632.7 X145.248 Y94.8 E31.47915
G0 F3600 X145.949 Y95.101
G1 F1718.4 X145.282 Y94.799 E31.50466
G1 F1690.1 X146.286 Y94.764 E31.54024
G1 F1706.2 X146.251 Y95.77 E31.57557
G1 F1739.1 X145.949 Y95.101 E31.60083
G0 F3600 X146.25 Y95.802
G1 F1632.7 X146.249 Y107.346 E32.02414
G0 F3600 X145.988 Y108.087
G1 F1800 X146.069 Y108.168 E32.02795
G0 F3600 X145.642 Y108.306
G1 F1800 X146.069 Y108.733 E32.04804
G0 F3600 X146.069 Y109.299
G1 F1800 X145.149 Y108.38 E32.09129
G0 F3600 X144.584 Y108.38
G1 F1800 X146.069 Y109.865 E32.16114
G0 F3600 X146.069 Y110.43
G1 F1800 X144.018 Y108.38 E32.25759
G0 F3600 X143.452 Y108.38
G1 F1800 X146.069 Y110.996 E32.38066
G0 F3600 X146.069 Y111.562
G1 F1800 X142.887 Y108.38 E32.53033
G0 F3600 X142.321 Y108.38
G1 F1800 X146.069 Y112.128 E32.70663
G0 F3600 X146.069 Y112.693
G1 F1800 X141.755 Y108.38 E32.90952
G0 F3600 X141.19 Y108.38
G1 F1800 X146.069 Y113.259 E33.13901
G0 F3600 X146.069 Y113.825
G1 F1800 X140.624 Y108.38 E33.39513
G0 F3600 X140.058 Y108.38
G1 F1800 X146.069 Y114.39 E33.67785
G0 F3600 X146.069 Y114.956
G1 F1800 X139.493 Y108.38 E33.98716
G0 F3600 X138.927 Y108.38
G1 F1800 X145.566 Y115.019 E34.29944
G0 F3600 X145 Y115.019
G1 F1800 X138.361 Y108.38 E34.61172
G0 F3600 X137.796 Y108.38
G1 F1800 X144.435 Y115.019 E34.92399
G0 F3600 X143.869 Y115.019
G1 F1800 X137.23 Y108.38 E35.23627
G0 F3600 X136.664 Y108.38
G1 F1800 X143.303 Y115.019 E35.54855
G0 F3600 X142.737 Y115.019
G1 F1800 X136.098 Y108.38 E35.86083
G0 F3600 X135.533 Y108.38
G1 F1800 X142.172 Y115.019 E36.17311
G0 F3600 X141.606 Y115.019
G1 F1800 X134.967 Y108.38 E36.48539
G0 F3600 X134.401 Y108.38
G1 F1800 X141.04 Y115.019 E36.79766
G0 F3600 X140.475 Y115.019
G1 F1800 X133.836 Y108.38 E37.10994
G0 F3600 X133.27 Y108.38
G1 F1800 X139.909 Y115.019 E37.42222
G0 F3600 X139.343 Y115.019
G1 F1800 X132.704 Y108.38 E37.7345
G0 F3600 X132.139 Y108.38
G1 F1800 X138.778 Y115.019 E38.04678
G0 F3600 X138.212 Y115.019
G1 F1800 X131.573 Y108.38 E38.35905
G0 F3600 X131.007 Y108.38
G1 F1800 X137.646 Y115.019 E38.67133
G0 F3600 X137.081 Y115.019
G1 F1800 X130.442 Y108.38 E38.98361
G0 F3600 X129.876 Y108.38
G1 F1800 X136.515 Y115.019 E39.29589
G0 F3600 X135.949 Y115.019
G1 F1800 X129.31 Y108.38 E39.60817
G0 F3600 X128.745 Y108.38
G1 F1800 X135.384 Y115.019 E39.92045
G0 F3600 X134.818 Y115.019
G1 F1800 X128.179 Y108.38 E40.23272
G0 F3600 X127.613 Y108.38
G1 F1800 X134.252 Y115.019 E40.545
G0 F3600 X133.687 Y115.019
G1 F1800 X127.047 Y108.38 E40.8573
G0 F3600 X126.482 Y108.38
G1 F1800 X133.121 Y115.019 E41.16958
G0 F3600 X132.555 Y115.019
G1 F1800 X125.916 Y108.38 E41.48186
G0 F3600 X125.35 Y108.38
G1 F1800 X131.989 Y115.019 E41.79414
G0 F3600 X131.424 Y115.019
G1 F1800 X124.785 Y108.38 E42.10642
G0 F3600 X124.219 Y108.38
G1 F1800 X130.858 Y115.019 E42.4187
G0 F3600 X130.292 Y115.019
G1 F1800 X123.653 Y108.38 E42.73097
G0 F3600 X123.088 Y108.38
G1 F1800 X129.727 Y115.019 E43.04325
G0 F3600 X129.161 Y115.019
G1 F1800 X122.522 Y108.38 E43.35553
G0 F3600 X121.956 Y108.38
G1 F1800 X128.595 Y115.019 E43.66781
G0 F3600 X128.03 Y115.019
G1 F1800 X121.391 Y108.38 E43.98009
G0 F3600 X120.825 Y108.38
G1 F1800 X127.464 Y115.019 E44.29236
G0 F3600 X126.898 Y115.019
G1 F1800 X120.259 Y108.38 E44.60464
G0 F3600 X119.694 Y108.38
G1 F1800 X126.333 Y115.019 E44.91692
G0 F3600 X125.767 Y115.019
G1 F1800 X119.128 Y108.38 E45.2292
G0 F3600 X118.562 Y108.38
G1 F1800 X125.201 Y115.019 E45.54148
G0 F3600 X124.636 Y115.019
G1 F1800 X117.997 Y108.38 E45.85376
G0 F3600 X117.431 Y108.38
G1 F1800 X124.07 Y115.019 E46.16603
G0 F3600 X123.504 Y115.019
G1 F1800 X116.865 Y108.38 E46.47831
G0 F3600 X116.299 Y108.38
G1 F1800 X122.938 Y115.019 E46.79059
G0 F3600 X122.373 Y115.019
G1 F1800 X115.734 Y108.38 E47.10287
G0 F3600 X115.168 Y108.38
G1 F1800 X121.807 Y115.019 E47.41515
G0 F3600 X121.241 Y115.019
G1 F1800 X114.602 Y108.38 E47.72742
G0 F3600 X114.037 Y108.38
G1 F1800 X120.676 Y115.019 E48.0397
G0 F3600 X120.11 Y115.019
G1 F1800 X113.471 Y108.38 E48.35198
G0 F3600 X112.905 Y108.38
G1 F1800 X119.544 Y115.019 E48.66426
G0 F3600 X118.979 Y115.019
G1 F1800 X112.34 Y108.38 E48.97654
G0 F3600 X111.774 Y108.38
G1 F1800 X118.413 Y115.019 E49.28882
G0 F3600 X117.847 Y115.019
G1 F1800 X111.208 Y108.38 E49.60109
G0 F3600 X110.643 Y108.38
G1 F1800 X117.282 Y115.019 E49.91337
G0 F3600 X116.716 Y115.019
G1 F1800 X110.077 Y108.38 E50.22565
G0 F3600 X109.511 Y108.38
G1 F1800 X116.15 Y115.019 E50.53793
G0 F3600 X115.585 Y115.019
G1 F1800 X108.946 Y108.38 E50.85021
G0 F3600 X108.38 Y108.38
G1 F1800 X115.019 Y115.019 E51.16248
G0 F3600 X114.453 Y115.019
G1 F1800 X107.814 Y108.38 E51.47476
G0 F3600 X107.249 Y108.38
G1 F1800 X113.888 Y115.019 E51.78704
G0 F3600 X113.322 Y115.019
G1 F1800 X106.683 Y108.38 E52.09932
G0 F3600 X106.117 Y108.38
G1 F1800 X112.756 Y115.019 E52.4116
G0 F3600 X112.19 Y115.019
G1 F1800 X105.551 Y108.38 E52.72388
G0 F3600 X104.986 Y108.38
G1 F1800 X111.625 Y115.019 E53.03615
G0 F3600 X111.059 Y115.019
G1 F1800 X104.337 Y108.296 E53.35236
G0 F3600 X103.931 Y108.456
G1 F1800 X110.493 Y115.019 E53.66104
G0 F3600 X109.928 Y115.019
G1 F1800 X103.931 Y109.022 E53.94312
G0 F3600 X103.931 Y109.588
G1 F1800 X109.362 Y115.019 E54.19858
G0 F3600 X108.796 Y115.019
G1 F1800 X103.931 Y110.153 E54.42744
G0 F3600 X103.931 Y110.719
G1 F1800 X108.231 Y115.019 E54.62969
G0 F3600 X107.665 Y115.019
G1 F1800 X103.931 Y111.285 E54.80533
G0 F3600 X103.93 Y111.85
G1 F1800 X107.099 Y115.019 E54.95439
G0 F3600 X106.534 Y115.019
G1 F1800 X103.93 Y112.415 E55.07687
G0 F3600 X103.93 Y112.981
G1 F1800 X105.968 Y115.019 E55.17274
G0 F3600 X105.402 Y115.019
G1 F1800 X103.93 Y113.547 E55.24197
G0 F3600 X103.93 Y114.112
G1 F1800 X104.837 Y115.019 E55.28464
G0 F3600 X104.271 Y115.019
G1 F1800 X103.93 Y114.678 E55.30068
G0 F3600 X103.95 Y114.678
M104 S260
G1 F2100 E54.50068
;MESH:NONMESH
G0 F600 X103.95 Y114.678 Z0.4
G0 F3600 X103.164 Y94.214
G0 X103.164 Y93.135
G0 X100.539 Y91.504
;TIME_ELAPSED:67.985799
;LAYER:1
M106 S255
;TYPE:SKIRT
G1 F2100 E55.30068
G1 F1800 X100.93 Y91.183 E55.3175
G1 X101.367 Y90.928 E55.33433
G1 X101.838 Y90.744 E55.35115
G1 X102.332 Y90.638 E55.36795
G1 X102.777 Y90.601 E55.38281
G1 X146.589 Y90.6 E56.84
G1 X147.287 Y90.61 E56.86322
G1 X147.79 Y90.657 E56.88002
G1 X148.28 Y90.783 E56.89685
G1 X148.744 Y90.985 E56.91368
G1 X149.17 Y91.257 E56.93049
G1 X149.548 Y91.592 E56.94729
G1 X149.868 Y91.983 E56.96409
G1 X150.123 Y92.42 E56.98092
G1 X150.306 Y92.891 E56.99773
G1 X150.413 Y93.385 E57.01454
G1 X150.449 Y94.04 E57.03636
G1 X150.45 Y115.504 E57.75025
G1 X150.441 Y116.231 E57.77444
G1 X150.395 Y116.734 E57.79123
G1 X150.27 Y117.224 E57.80805
G1 X150.069 Y117.688 E57.82487
G1 X149.798 Y118.115 E57.84169
G1 X149.463 Y118.494 E57.85852
G1 X149.073 Y118.815 E57.87532
G1 X148.637 Y119.071 E57.89213
G1 X148.166 Y119.254 E57.90894
G1 X147.672 Y119.362 E57.92576
G1 X147.01 Y119.399 E57.94781
G1 X103.416 Y119.4 E59.39775
G1 X102.718 Y119.391 E59.42097
G1 X102.214 Y119.344 E59.43781
G1 X101.724 Y119.219 E59.45463
G1 X101.26 Y119.018 E59.47145
G1 X100.834 Y118.747 E59.48824
G1 X100.455 Y118.412 E59.50506
G1 X100.134 Y118.021 E59.52189
G1 X99.879 Y117.585 E59.53869
G1 X99.695 Y117.114 E59.55551
G1 X99.588 Y116.62 E59.57232
G1 X99.551 Y116.167 E59.58743
G1 X99.55 Y94.431 E60.31038
G1 X99.559 Y93.766 E60.3325
G1 X99.606 Y93.262 E60.34933
G1 X99.732 Y92.773 E60.36613
G1 X99.933 Y92.309 E60.38295
G1 X100.204 Y91.882 E60.39977
G1 X100.539 Y91.504 E60.41657
G1 F2100 E59.61657
;MESH:lamp-clamp-thingy.stl
G0 F5400 X103.164 Y93.135
G0 X103.164 Y94.214
G0 X145.674 Y94.9
G0 X145.674 Y95.376
;TYPE:WALL-INNER
G1 F2100 E60.41657
G1 F2700 X145.85 Y95.8 E60.43184
G1 X145.85 Y107.285 E60.81383
G1 X145.732 Y107.56 E60.82378
G1 X145.482 Y107.754 E60.83431
G1 X145.25 Y107.8 E60.84217
G1 X104.75 Y107.8 E62.18921
G1 X104.518 Y107.754 E62.19707
G1 X104.269 Y107.56 E62.20757
G1 X104.15 Y107.286 E62.21751
G1 X104.15 Y95.8 E62.59954
G1 X104.325 Y95.375 E62.61482
G1 X104.661 Y95.2 E62.62742
G1 X145.25 Y95.2 E63.97742
G1 X145.674 Y95.376 E63.99269
G0 F5400 X145.674 Y94.9
G0 X146.38 Y115.33
G0 X146.65 Y115.6
G1 F2700 X146.65 Y94.4 E64.6978
G1 X103.352 Y94.402 E66.1379
G1 X103.35 Y115.6 E66.84295
G1 X146.65 Y115.6 E68.28311
G0 F5400 X147.05 Y116
;TYPE:WALL-OUTER
G1 F1800 X147.05 Y94 E69.01483
G1 X102.951 Y94.001 E70.48157
G1 X102.95 Y116 E71.21326
G1 X147.05 Y116 E72.68003
G0 F5400 X147.05 Y115.8
G0 X146.38 Y115.33
G0 X146.15 Y107.32
G0 X145.411 Y107.32
G1 F1800 X145.309 Y107.4 E72.68435
G1 X104.691 Y107.4 E74.03531
G1 X104.589 Y107.32 E74.03962
G1 X104.552 Y107.235 E74.0427
G1 X104.55 Y95.8 E74.42303
G1 X104.608 Y95.658 E74.42813
G1 X104.715 Y95.602 E74.43215
G1 X145.25 Y95.6 E75.78035
G1 X145.392 Y95.658 E75.78545
G1 X145.45 Y95.8 E75.79055
G1 X145.448 Y107.235 E76.17088
G1 X145.411 Y107.32 E76.17397
G0 F5400 X145.309 Y107.4
G0 X145.238 Y107.4
G0 X145.238 Y108.1
G0 X104.41 Y108.117
;TYPE:SKIN
G1 F1800 X104.714 Y108.177 E76.18427
G1 X145.286 Y108.177 E77.5337
G1 X145.673 Y108.079 E77.54698
G1 X145.999 Y107.826 E77.5607
G1 F1710.2 X146.249 Y107.346 E77.57965
G1 X146.27 Y107.789 E77.59518
G1 F1800 X146.27 Y115.22 E77.84233
G1 X103.73 Y115.22 E79.25722
G1 X103.732 Y107.79 E79.50434
G1 F1706.2 X103.751 Y107.347 E79.5199
G1 X104.001 Y107.826 E79.53886
G1 F1800 X104.41 Y108.117 E79.55555
G0 F5400 X103.751 Y107.347
G1 F1632.7 X103.751 Y95.802 E79.9789
G0 F5400 X104.041 Y95.121
G1 F1730.8 X103.75 Y95.769 E80.00347
G1 F1718.4 X103.715 Y94.763 E80.03854
G1 F1734.9 X104.583 Y94.801 E80.06852
G1 F1747.6 X104.041 Y95.121 E80.09009
G0 F5400 X104.6 Y94.802
G1 F1632.7 X145.248 Y94.8 E81.58062
G0 F5400 X145.949 Y95.101
G1 F1718.4 X145.282 Y94.799 E81.60613
G1 F1690.1 X146.286 Y94.764 E81.64171
G1 F1706.2 X146.251 Y95.77 E81.67704
G1 F1739.1 X145.949 Y95.101 E81.7023
G0 F5400 X146.25 Y95.802
G1 F1632.7 X146.249 Y107.346 E82.12561
G0 F5400 X146.069 Y114.711
G1 F1800 X145.76 Y115.02 E82.14015
G0 F5400 X145.195 Y115.02
G1 F1800 X146.069 Y114.146 E82.18126
G0 F5400 X146.069 Y113.58
G1 F1800 X144.629 Y115.02 E82.24899
G0 F5400 X144.063 Y115.02
G1 F1800 X146.069 Y113.014 E82.34335
G0 F5400 X146.069 Y112.449
G1 F1800 X143.498 Y115.02 E82.46428
G0 F5400 X142.932 Y115.02
G1 F1800 X146.069 Y111.883 E82.61183
G0 F5400 X146.069 Y111.317
G1 F1800 X142.366 Y115.02 E82.78601
G0 F5400 X141.801 Y115.02
