; generated by PrusaSlicer 2.9.3 on 2025-11-15 at 13:10:55 UTC


;
;
; 

; external perimeters extrusion width = 0.45mm
; perimeters extrusion width = 0.45mm
; infill extrusion width = 0.45mm
; solid infill extrusion width = 0.45mm
; top infill extrusion width = 0.40mm
; first layer extrusion width = 0.42mm

M73 P0 R40
M73 Q0 S42
M201 X1000 Y1000 Z200 E5000 ; sets maximum accelerations, mm/sec^2
M203 X200 Y200 Z12 E120 ; sets maximum feedrates, mm / sec
M204 S1250 T1250 ; sets acceleration (S) and retract acceleration (R), mm/sec^2
M205 X8.00 Y8.00 Z0.40 E4.50 ; sets the jerk limits, mm/sec
M205 S0 T0 ; sets the minimum extruding and travel feed rate, mm/sec

; printing object 120mm_case_fan_grill_-_3K_RPM.stl id:0 copy 0
; stop printing object 120mm_case_fan_grill_-_3K_RPM.stl id:0 copy 0

;TYPE:Custom
M862.3 P "MK3S" ; printer model check
M862.1 P0.4 ; nozzle diameter check
M115 U3.14.1 ; tell printer latest fw version
G90 ; use absolute coordinates
M83 ; extruder relative mode
M104 S215 ; set extruder temp
M140 S60 ; set bed temp
M190 S60 ; wait for bed temp
M109 S215 ; wait for extruder temp
G28 W ; home all without mesh bed level
G80 X62.8729 Y42.8729 W124.254 H124.254 ; mesh bed levelling

G1 Z0.2 F720
G1 Y-3 F1000 ; go outside print area
G92 E0
G1 X60 E9 F1000 ; intro line
G1 X100 E12.5 F1000 ; intro line

G92 E0
M221 S95

; Don't change E values below. Excessive value can damage the printer.

M907 E538 ; set extruder motor current
G21 ; set units to millimeters
G90 ; use absolute coordinates
M83 ; use relative distances for extrusion

M900 K0.05 ; Filament gcode LA 1.5
M900 K30 ; Filament gcode LA 1.0




M107
;LAYER_CHANGE
;Z:0.2
;HEIGHT:0.2
G1 E-.8 F2100
G1 Z.6 F720
G1 X65.813 Y48.373 F10800
G1 Z.2 F720
G1 E.8 F2100
M204 S800
;TYPE:Skirt/Brim
;WIDTH:0.42
G1 F1200
G1 X66.612 Y47.297 E.04202
G1 X67.297 Y46.612 E.03037
G1 X68.696 Y45.624 E.0537
G1 X69.57 Y45.209 E.03034
G1 X70.853 Y44.817 E.04206
G1 X72.292 Y44.64 E.04546
G1 X102.774 Y43.061 E.95702
G1 X147.34 Y43.064 E1.39734
G1 X178.781 Y44.747 E.98722
G1 X180.43 Y45.209 E.05369
G1 X181.304 Y45.625 E.03035
G1 X182.418 Y46.371 E.04204
G1 X183.629 Y47.582 E.0537
G1 X184.375 Y48.696 E.04204
G1 X184.922 Y49.92 E.04204
G1 X185.253 Y51.219 E.04203
G1 X185.36 Y52.292 E.03381
G1 X186.936 Y82.66 E.95345
G1 X186.939 Y127.226 E1.39734
G1 X185.351 Y157.817 E.96045
G1 X185.183 Y159.147 E.04203
G1 X184.922 Y160.08 E.03038
G1 X184.187 Y161.627 E.0537
G1 X183.388 Y162.703 E.04202
G1 X182.703 Y163.388 E.03037
G1 X181.627 Y164.187 E.04202
G1 X180.08 Y164.922 E.0537
G1 X178.781 Y165.253 E.04203
G1 X147.226 Y166.939 E.9908
G1 X102.66 Y166.936 E1.39734
G1 X72.183 Y165.351 E.95688
M73 Q0 S41
G1 X71.219 Y165.253 E.03038
G1 X69.92 Y164.922 E.04203
M73 P1 R40
G1 X68.373 Y164.187 E.0537
G1 X67.297 Y163.388 E.04202
G1 X66.612 Y162.703 E.03037
G1 X65.813 Y161.627 E.04202
G1 X65.209 Y160.43 E.04204
G1 X64.747 Y158.781 E.05369
G1 X63.061 Y127.226 E.9908
G1 X63.064 Y82.66 E1.39734
M73 Q1 S41
G1 X64.649 Y52.183 E.95688
G1 X64.817 Y50.853 E.04203
G1 X65.078 Y49.92 E.03038
G1 X65.787 Y48.428 E.05179
M204 S1000
;WIPE_START
G1 F8640
G1 X65.813 Y48.373 E-.01405
G1 X66.612 Y47.297 E-.30946
G1 X67.297 Y46.612 E-.22368
G1 X68.191 Y45.981 E-.25281
;WIPE_END
G1 Z.6 F720
; printing object 120mm_case_fan_grill_-_3K_RPM.stl id:0 copy 0
G1 X126.074 Y79.88 F10800
G1 Z.2 F720
G1 E.8 F2100
M204 S800
;TYPE:Perimeter
;WIDTH:0.419999
G1 F1200
G1 X129.987 Y80.338 E.12353
G1 X133.965 Y81.49 E.12985
G1 X137.62 Y83.233 E.12696
G1 X140.878 Y85.481 E.12411
G1 X143.803 Y88.281 E.12696
G1 X146.241 Y91.514 E.12696
G1 X148.165 Y95.18 E.12981
G1 X149.419 Y98.934 E.1241
G1 X150.075 Y102.926 E.12684
G1 X150.162 Y104.977 E.06437
G1 X150.082 Y107.006 E.06367
G1 X149.419 Y111.066 E.12898
G1 X148.165 Y114.82 E.1241
G1 X147.706 Y115.711 E.03143
G1 X146.29 Y118.409 E.09554
G1 X143.861 Y121.653 E.12707
G1 X140.948 Y124.461 E.12686
G1 X137.541 Y126.813 E.12981
G1 X133.88 Y128.542 E.12695
G1 X130.077 Y129.643 E.12414
G1 X126.059 Y130.139 E.12694
G1 X122.012 Y129.983 E.12698
G1 X118.043 Y129.18 E.12697
G1 X114.173 Y127.712 E.12978
G1 X110.669 Y125.681 E.12699
G1 X107.603 Y123.178 E.1241
G1 X106.806 Y122.288 E.03746
G1 X104.858 Y120.079 E.09235
G1 X102.742 Y116.733 E.12413
G1 X101.148 Y113.011 E.12695
G1 X100.171 Y109.077 E.12709
G1 X99.839 Y105.046 E.12682
G1 X100.158 Y101.009 E.12697
G1 X101.148 Y96.989 E.12981
G1 X102.742 Y93.267 E.12695
G1 X104.858 Y89.921 E.12413
G1 X107.538 Y86.885 E.12697
G1 X110.669 Y84.319 E.12693
G1 X114.255 Y82.249 E.12982
G1 X118.043 Y80.82 E.12694
G1 X121.922 Y80.028 E.12413
G1 X125.902 Y79.86 E.1249
G1 X126.015 Y79.873 E.00357
M204 S1000
G1 X126.03 Y80.248 F10800
M204 S800
;TYPE:External perimeter
G1 F1200
G1 X129.942 Y80.713 E.12352
G1 X133.803 Y81.831 E.12603
M73 P1 R39
G1 X137.379 Y83.528 E.12411
G1 X140.663 Y85.792 E.12507
G1 X143.542 Y88.553 E.12507
G1 X145.956 Y91.766 E.12601
G1 X147.808 Y95.299 E.12507
G1 X149.061 Y99.054 E.12412
G1 X149.703 Y102.986 E.12492
G1 X149.785 Y104.992 E.06295
G1 X149.705 Y106.991 E.06273
G1 X149.061 Y110.946 E.12564
G1 X147.808 Y114.701 E.12412
G1 X147.372 Y115.536 E.02953
G1 X145.956 Y118.234 E.09554
G1 X143.561 Y121.425 E.1251
G1 X140.687 Y124.189 E.12502
G1 X137.406 Y126.457 E.12506
G1 X133.775 Y128.18 E.12601
G1 X129.973 Y129.281 E.12411
G1 X126.013 Y129.764 E.12508
G1 X122.028 Y129.606 E.12504
G1 X118.119 Y128.811 E.12507
G1 X114.361 Y127.386 E.12602
G1 X110.908 Y125.389 E.12507
G1 X107.842 Y122.886 E.1241
G1 X107.088 Y122.038 E.03558
G1 X105.177 Y119.877 E.09045
G1 X103.061 Y116.532 E.1241
G1 X101.495 Y112.863 E.12508
G1 X100.538 Y108.988 E.12515
G1 X100.215 Y105.015 E.12498
G1 X100.534 Y101.036 E.12516
G1 X101.495 Y97.137 E.12591
G1 X103.061 Y93.468 E.12508
G1 X105.177 Y90.123 E.1241
G1 X107.82 Y87.135 E.12508
G1 X110.908 Y84.611 E.12505
G1 X114.389 Y82.601 E.12603
G1 X118.119 Y81.189 E.12505
G1 X121.997 Y80.397 E.1241
G1 X125.947 Y80.238 E.12395
G1 X125.97 Y80.241 E.00073
M204 S1000
;WIPE_START
G1 F8640
G1 X126.03 Y80.248 E-.01395
G1 X129.411 Y80.65 E-.78605
;WIPE_END
G1 Z.6 F720
G1 X124.636 Y141.461 F10800
G1 Z.2 F720
G1 E.8 F2100
M204 S800
;WIDTH:0.63303
G1 F1200
G1 X124.588 Y141.47 E.0024
;WIDTH:0.591459
G1 X124.501 Y141.486 E.00403
;WIDTH:0.585154
G1 X120.518 Y141.188 E.18008
G1 X119.969 Y141.129 E.0249
;WIDTH:0.5561
G1 X119.939 Y141.125 E.00129
;WIDTH:0.582161
G1 X116.114 Y140.369 E.17482
G1 X115.675 Y140.267 E.02021
;WIDTH:0.578937
G1 X111.542 Y138.907 E.19392
;WIDTH:0.575482
G1 X107.6 Y137.066 E.19266
;WIDTH:0.571785
G1 X103.906 Y134.768 E.19131
;WIDTH:0.56833
G1 X100.353 Y131.92 E.19894
M73 P2 R39
;WIDTH:0.574179
G1 X100.31 Y131.881 E.00256
G1 X100.326 Y131.809 E.00326
;WIDTH:0.535634
G1 X100.342 Y131.737 E.00302
;WIDTH:0.497089
G1 X100.357 Y131.666 E.00274
;WIDTH:0.458544
G1 X100.373 Y131.594 E.00255
;WIDTH:0.419999
G1 X106.804 Y125.161 E.28521
G1 X106.952 Y125.107 E.00494
G1 X107.052 Y125.145 E.00335
G1 X110.205 Y127.543 E.1242
G1 X113.287 Y129.272 E.1108
G1 X113.607 Y129.428 E.01116
G1 X116.95 Y130.734 E.11253
G1 X120.588 Y131.601 E.11726
G1 X124.539 Y131.977 E.12444
M73 Q2 S41
G1 X124.635 Y132.014 E.00323
;WIDTH:0.453819
G1 X124.677 Y132.064 E.00223
;WIDTH:0.487639
G1 X124.719 Y132.115 E.00244
;WIDTH:0.521459
G1 X124.761 Y132.165 E.0026
;WIDTH:0.523285
G1 X124.761 Y141.254 E.36304
;WIDTH:0.561114
G1 X124.761 Y141.3 E.00198
;WIDTH:0.598943
G1 X124.761 Y141.346 E.00213
;WIDTH:0.636772
G1 X124.761 Y141.393 E.00232
;WIDTH:0.674601
G1 X124.761 Y141.439 E.00242
G1 X124.695 Y141.451 E.00352
M204 S1000
;WIPE_START
G1 F8640
G1 X124.636 Y141.461 E-.01382
G1 X124.588 Y141.47 E-.01128
G1 X124.501 Y141.486 E-.02043
G1 X121.243 Y141.242 E-.75447
;WIPE_END
G1 Z.6 F720
G1 X149.669 Y131.712 F10800
G1 Z.2 F720
G1 E.8 F2100
M204 S800
;WIDTH:0.457954
G1 F1200
G1 X149.67 Y131.729 E.00059
;WIDTH:0.495908
G1 X149.674 Y131.782 E.002
;WIDTH:0.533862
G1 X149.678 Y131.836 E.00221
;WIDTH:0.571816
G1 X149.681 Y131.89 E.00238
G1 X149.647 Y131.92 E.00199
;WIDTH:0.568329
G1 X146.094 Y134.768 E.19894
;WIDTH:0.571784
G1 X142.399 Y137.066 E.19135
;WIDTH:0.575479
G1 X138.458 Y138.907 E.19262
;WIDTH:0.578937
G1 X134.325 Y140.267 E.19392
;WIDTH:0.582161
G1 X133.886 Y140.369 E.02021
G1 X130.057 Y141.125 E.175
;WIDTH:0.585154
G1 X129.482 Y141.188 E.02608
G1 X125.499 Y141.486 E.18008
;WIDTH:0.591459
G1 X125.412 Y141.47 E.00403
;WIDTH:0.63303
G1 X125.326 Y141.455 E.00428
;WIDTH:0.674601
G1 X125.239 Y141.439 E.00465
G1 X125.239 Y139.12 E.1218
;WIDTH:0.636316
G1 X125.239 Y136.802 E.11437
;WIDTH:0.59803
G1 X125.239 Y134.483 E.10704
;WIDTH:0.559745
G1 X125.239 Y132.165 E.09961
;WIDTH:0.521459
G1 X125.297 Y132.106 E.00329
;WIDTH:0.487639
G1 X125.354 Y132.047 E.00303
;WIDTH:0.453819
G1 X125.412 Y131.988 E.00283
;WIDTH:0.419999
G1 X129.412 Y131.601 E.126
G1 X133.05 Y130.734 E.11726
G1 X136.533 Y129.373 E.11725
G1 X139.795 Y127.543 E.11727
G1 X142.948 Y125.145 E.1242
G1 X143.119 Y125.115 E.00544
G1 X143.196 Y125.161 E.00281
G1 X149.616 Y131.582 E.2847
G1 X149.656 Y131.655 E.00261
M204 S1000
;WIPE_START
G1 F8640
G1 X149.669 Y131.712 E-.0135
G1 X149.67 Y131.729 E-.00393
G1 X149.674 Y131.782 E-.01227
G1 X149.678 Y131.836 E-.0125
G1 X149.681 Y131.89 E-.01249
G1 X149.647 Y131.92 E-.01047
G1 X147.164 Y133.91 E-.73484
;WIPE_END
G1 Z.6 F720
G1 X158.867 Y140.907 F10800
G1 Z.2 F720
G1 E.8 F2100
M204 S800
;WIDTH:0.458194
G1 F1200
G1 X158.869 Y140.926 E.00066
;WIDTH:0.496388
G1 X158.874 Y140.978 E.00197
;WIDTH:0.534582
G1 X158.878 Y141.031 E.00217
;WIDTH:0.572776
G1 X158.883 Y141.083 E.0023
G1 X158.848 Y141.114 E.00206
;WIDTH:0.574175
G1 X154.608 Y144.648 E.24383
;WIDTH:0.576427
G1 X150.206 Y147.581 E.23465
;WIDTH:0.5786
G1 X145.516 Y150.028 E.23563
;WIDTH:0.580684
G1 X140.592 Y151.959 E.2365
;WIDTH:0.582685
G1 X135.983 Y153.234 E.21463
G1 X135.493 Y153.354 E.02264
;WIDTH:0.584603
G1 X130.861 Y154.117 E.21144
G1 X130.295 Y154.195 E.02573
;WIDTH:0.55777
G1 X130.268 Y154.197 E.00116
;WIDTH:0.572132
G1 X127.881 Y154.333 E.10521
G1 X127.781 Y154.319 E.00444
;WIDTH:0.534099
G1 X127.68 Y154.305 E.00416
;WIDTH:0.496066
G1 X127.579 Y154.292 E.00384
;WIDTH:0.458033
G1 X127.478 Y154.278 E.00352
;WIDTH:0.419999
G1 X125.01 Y154.41 E.07749
G1 X119.733 Y154.129 E.16569
G1 X114.519 Y153.286 E.1656
G1 X109.425 Y151.891 E.1656
G1 X104.509 Y149.961 E.16559
G1 X99.827 Y147.517 E.1656
G1 X95.433 Y144.587 E.16559
G1 X94.387 Y143.717 E.04266
;WIDTH:0.458137
G1 X94.298 Y143.667 E.00352
;WIDTH:0.496275
G1 X94.209 Y143.618 E.00383
;WIDTH:0.534413
G1 X94.12 Y143.568 E.00417
;WIDTH:0.57255
G1 X94.031 Y143.519 E.00447
G1 X91.152 Y141.114 E.16521
;WIDTH:0.572903
G1 X91.117 Y141.083 E.00206
G1 X91.131 Y141.01 E.00328
;WIDTH:0.534677
G1 X91.146 Y140.937 E.00305
;WIDTH:0.496451
G1 X91.161 Y140.864 E.00281
;WIDTH:0.458225
G1 X91.176 Y140.791 E.00257
;WIDTH:0.419999
G1 X99.637 Y132.328 E.37522
G1 X99.731 Y132.277 E.00335
;WIDTH:0.458544
G1 X99.782 Y132.272 E.00177
;WIDTH:0.497089
G1 X99.834 Y132.266 E.00198
;WIDTH:0.535634
G1 X99.885 Y132.26 E.0021
;WIDTH:0.574179
G1 X99.937 Y132.255 E.00231
G1 X100.025 Y132.329 E.00508
;WIDTH:0.56833
G1 X103.577 Y135.178 E.19893
;WIDTH:0.571785
G1 X107.327 Y137.51 E.19419
;WIDTH:0.575482
G1 X107.545 Y137.635 E.01113
G1 X111.324 Y139.378 E.18429
;WIDTH:0.578937
G1 X111.678 Y139.528 E.01714
G1 X115.516 Y140.757 E.17962
;WIDTH:0.582161
G1 X116.011 Y140.899 E.02309
G1 X119.842 Y141.627 E.17485
;WIDTH:0.585154
G1 X120.48 Y141.728 E.02912
G1 X124.466 Y141.991 E.18011
;WIDTH:0.591459
G1 X124.637 Y141.981 E.00781
;WIDTH:0.63303
G1 X124.809 Y141.971 E.00845
;WIDTH:0.674601
G1 X125.162 Y141.971 E.01854
;WIDTH:0.633017
G1 X125.344 Y141.981 E.00894
;WIDTH:0.591432
G1 X125.525 Y141.992 E.00827
;WIDTH:0.549887
G1 X125.534 Y141.991 E.00038
;WIDTH:0.585154
G1 X129.52 Y141.728 E.18011
G1 X130.098 Y141.637 E.02638
;WIDTH:0.5561
G1 X130.158 Y141.627 E.0026
;WIDTH:0.582161
G1 X133.989 Y140.899 E.17485
G1 X134.425 Y140.774 E.02034
;WIDTH:0.559271
G1 X134.484 Y140.757 E.00264
;WIDTH:0.578937
G1 X138.322 Y139.528 E.17962
G1 X138.676 Y139.378 E.01714
;WIDTH:0.575479
G1 X142.47 Y137.629 E.185
G1 X142.674 Y137.509 E.01048
;WIDTH:0.571784
G1 X146.423 Y135.178 E.19413
;WIDTH:0.568329
G1 X149.975 Y132.329 E.19893
;WIDTH:0.567837
G1 X150.067 Y132.259 E.00505
;WIDTH:0.562665
G1 X150.158 Y132.275 E.00399
;WIDTH:0.51511
G1 X150.248 Y132.292 E.0036
;WIDTH:0.467555
G1 X150.339 Y132.308 E.00326
;WIDTH:0.419999
G1 X158.813 Y140.779 E.37568
G1 X158.852 Y140.85 E.00254
M204 S1000
;WIPE_START
G1 F8640
G1 X158.867 Y140.907 E-.01361
G1 X158.869 Y140.926 E-.00441
G1 X158.874 Y140.978 E-.01206
G1 X158.878 Y141.031 E-.01227
G1 X158.883 Y141.083 E-.01206
G1 X158.848 Y141.114 E-.0108
G1 X156.403 Y143.152 E-.73479
;WIPE_END
G1 Z.6 F720
G1 X125.376 Y163.511 F10800
G1 Z.2 F720
G1 E.8 F2100
M204 S800
;WIDTH:0.472177
G1 F1200
G1 X125.287 Y163.468 E.00353
;WIDTH:0.521459
G1 X125.239 Y163.371 E.00431
G1 X125.239 Y155.288 E.32163
G1 X125.274 Y155.244 E.00224
;WIDTH:0.487639
G1 X125.309 Y155.199 E.00211
;WIDTH:0.453819
G1 X125.345 Y155.155 E.00194
;WIDTH:0.419999
G1 X125.466 Y155.1 E.00417
G1 X127.519 Y154.963 E.06451
;WIDTH:0.458033
G1 X127.618 Y154.938 E.00352
;WIDTH:0.496066
G1 X127.716 Y154.912 E.00382
;WIDTH:0.534099
G1 X127.815 Y154.886 E.00418
;WIDTH:0.572132
G1 X127.913 Y154.861 E.00445
G1 X130.305 Y154.709 E.10547
;WIDTH:0.584603
G1 X130.95 Y154.651 E.02917
G1 X135.581 Y153.862 E.21159
;WIDTH:0.582685
G1 X136.128 Y153.753 E.02503
G1 X140.731 Y152.458 E.21461
;WIDTH:0.580684
G1 X141.169 Y152.323 E.02049
G1 X145.708 Y150.511 E.21854
;WIDTH:0.5786
G1 X146.059 Y150.359 E.01704
G1 X150.448 Y148.043 E.22104
;WIDTH:0.576427
G1 X150.702 Y147.9 E.01293
G1 X154.901 Y145.082 E.22433
;WIDTH:0.574175
G1 X155.063 Y144.967 E.00878
G1 X159.186 Y141.518 E.23745
;WIDTH:0.572211
G1 X159.257 Y141.456 E.00415
G1 X159.327 Y141.469 E.00313
;WIDTH:0.534158
G1 X159.396 Y141.481 E.00286
;WIDTH:0.496105
G1 X159.466 Y141.493 E.00268
;WIDTH:0.458052
G1 X159.536 Y141.506 E.00246
;WIDTH:0.419999
G1 X168.115 Y150.081 E.38032
G1 X168.167 Y150.183 E.00359
G1 X168.104 Y150.357 E.0058
G1 X163.241 Y154.512 E.20055
G1 X158.163 Y158.047 E.194
G1 X152.762 Y161.063 E.19396
G1 X147.057 Y163.545 E.19507
G1 X146.982 Y163.56 E.0024
G1 X125.479 Y163.56 E.67421
;WIDTH:0.446088
G1 X125.43 Y163.537 E.00181
M204 S1000
;WIPE_START
G1 F8640
G1 X125.376 Y163.511 E-.01384
G1 X125.287 Y163.468 E-.02282
G1 X125.239 Y163.371 E-.02499
G1 X125.239 Y160.173 E-.73835
;WIPE_END
G1 Z.6 F720
G1 X183.518 Y105.378 F10800
G1 Z.2 F720
G1 E.8 F2100
M204 S800
;WIDTH:0.419999
G1 F1200
G1 X183.56 Y105.479 E.00343
G1 X183.56 Y126.982 E.67421
G1 X183.544 Y127.058 E.00244
G1 X181.071 Y132.746 E.19447
G1 X178.046 Y138.164 E.19456
G1 X174.512 Y143.241 E.19395
G1 X170.357 Y148.104 E.20055
G1 X170.183 Y148.167 E.0058
G1 X170.081 Y148.115 E.00359
G1 X161.49 Y139.511 E.38123
G1 X161.515 Y139.304 E.00654
G1 X165.038 Y135.099 E.172
G1 X167.975 Y130.731 E.16504
M73 P3 R39
G1 X170.438 Y126.079 E.16504
G1 X172.399 Y121.195 E.16502
G1 X173.837 Y116.132 E.16503
G1 X174.735 Y110.946 E.16502
G1 X175.1 Y105.466 E.1722
;WIDTH:0.467471
G1 X175.202 Y105.285 E.00733
;WIDTH:0.494465
G1 X175.245 Y105.262 E.00183
;WIDTH:0.521458
G1 X175.288 Y105.239 E.00194
G1 X183.371 Y105.239 E.32163
G1 X183.416 Y105.275 E.00229
;WIDTH:0.487639
G1 X183.46 Y105.31 E.00208
;WIDTH:0.453819
G1 X183.485 Y105.33 E.00109
M204 S1000
;WIPE_START
G1 F8640
G1 X183.518 Y105.378 E-.01345
G1 X183.56 Y105.479 E-.02526
G1 X183.56 Y108.776 E-.76129
;WIPE_END
G1 Z.6 F720
G1 X152.295 Y79.753 F10800
M73 Q3 S41
G1 Z.2 F720
G1 E.8 F2100
M204 S800
;WIDTH:0.497089
G1 F1200
G1 X152.302 Y79.721 E.00124
;WIDTH:0.458544
G1 X152.317 Y79.649 E.00254
;WIDTH:0.419999
G1 X160.779 Y71.187 E.37522
G1 X160.873 Y71.136 E.00335
G1 X161.057 Y71.199 E.0061
G1 X164.587 Y75.433 E.17284
G1 X167.517 Y79.828 E.16562
G1 X169.961 Y84.51 E.1656
G1 X171.892 Y89.427 E.16563
G1 X173.286 Y94.521 E.16559
G1 X174.129 Y99.736 E.16563
G1 X174.41 Y104.99 E.16497
G1 X174.129 Y110.267 E.16569
G1 X173.286 Y115.481 E.1656
G1 X171.891 Y120.575 E.1656
G1 X169.961 Y125.491 E.16559
