; generated by PrusaSlicer 2.9.3 on 2025-11-15 at 13:11:43 UTC


;
;
; 

; external perimeters extrusion width = 0.45mm
; perimeters extrusion width = 0.45mm
; infill extrusion width = 0.45mm
; solid infill extrusion width = 0.45mm
; top infill extrusion width = 0.40mm
; first layer extrusion width = 0.42mm

M73 P0 R17
M73 Q0 S17
M201 X1000 Y1000 Z200 E5000 ; sets maximum accelerations, mm/sec^2
M203 X200 Y200 Z12 E120 ; sets maximum feedrates, mm / sec
M204 S1250 T1250 ; sets acceleration (S) and retract acceleration (R), mm/sec^2
M205 X8.00 Y8.00 Z0.40 E4.50 ; sets the jerk limits, mm/sec
M205 S0 T0 ; sets the minimum extruding and travel feed rate, mm/sec

; printing object whatever.stl id:0 copy 0
; stop printing object whatever.stl id:0 copy 0

;TYPE:Custom
M862.3 P "MK3S" ; printer model check
M862.1 P0.4 ; nozzle diameter check
M115 U3.14.1 ; tell printer latest fw version
G90 ; use absolute coordinates
M83 ; extruder relative mode
M104 S215 ; set extruder temp
M140 S60 ; set bed temp
M190 S60 ; wait for bed temp
M109 S215 ; wait for extruder temp
G28 W ; home all without mesh bed level
G80 X22.6229 Y97.1229 W204.754 H15.7542 ; mesh bed levelling

G1 Z0.2 F720
G1 Y-3 F1000 ; go outside print area
G92 E0
G1 X60 E9 F1000 ; intro line
G1 X100 E12.5 F1000 ; intro line

G92 E0
M221 S95

; Don't change E values below. Excessive value can damage the printer.

M907 E538 ; set extruder motor current
G21 ; set units to millimeters
G90 ; use absolute coordinates
M83 ; use relative distances for extrusion

M900 K0.05 ; Filament gcode LA 1.5
M900 K30 ; Filament gcode LA 1.0




M107
;LAYER_CHANGE
;Z:0.2
;HEIGHT:0.2
G1 E-.8 F2100
G1 Z.6 F720
G1 X24.235 Y97.449 F10800
G1 Z.2 F720
G1 E.8 F2100
M204 S800
;TYPE:Skirt/Brim
;WIDTH:0.42
G1 F1200
G1 X25 Y97.311 E.02437
G1 X225 Y97.311 E6.27086
G1 X226.248 Y97.702 E.04101
M73 P1 R17
M73 Q1 S17
G1 X227.051 Y98.735 E.04102
G1 X227.189 Y99.5 E.02437
G1 X227.189 Y110.5 E.3449
G1 X226.798 Y111.748 E.04101
G1 X225.765 Y112.551 E.04102
G1 X225 Y112.689 E.02437
G1 X25 Y112.689 E6.27086
G1 X23.752 Y112.298 E.04101
M73 P2 R17
M73 Q2 S17
G1 X22.949 Y111.265 E.04102
G1 X22.811 Y110.5 E.02437
G1 X22.811 Y99.5 E.3449
G1 X23.202 Y98.252 E.04101
M73 P2 R16
G1 X24.188 Y97.486 E.03915
M204 S1000
;WIPE_START
G1 F8640
G1 X24.235 Y97.449 E-.01381
G1 X25 Y97.311 E-.17949
G1 X27.628 Y97.311 E-.6067
;WIPE_END
G1 Z.6 F720
; printing object whatever.stl id:0 copy 0
G1 X69.396 Y101.616 F10800
G1 Z.2 F720
G1 E.8 F2100
M204 S800
;TYPE:Perimeter
;WIDTH:0.419999
G1 F1200
G1 X69.545 Y101.737 E.00602
G1 X69.779 Y101.787 E.0075
G1 X122.721 Y101.787 E1.65996
G1 X122.806 Y101.781 E.00267
M73 P3 R16
M73 Q3 S17
G1 X123.058 Y101.676 E.00856
G1 X123.241 Y101.445 E.00924
G1 X123.287 Y101.221 E.00717
G1 X123.287 Y100.287 E.02928
G1 X126.713 Y100.287 E.10742
G1 X126.713 Y101.221 E.02928
G1 X126.759 Y101.445 E.00717
G1 X126.823 Y101.557 E.00404
G1 X127.045 Y101.737 E.00896
G1 X127.279 Y101.787 E.0075
G1 X180.221 Y101.787 E1.65996
G1 X180.306 Y101.781 E.00267
G1 X180.558 Y101.676 E.00856
G1 X180.741 Y101.445 E.00924
G1 X180.787 Y101.221 E.00717
G1 X180.787 Y100.287 E.02928
G1 X184.213 Y100.287 E.10742
G1 X184.213 Y101.221 E.02928
G1 X184.259 Y101.445 E.00717
G1 X184.323 Y101.557 E.00404
G1 X184.545 Y101.737 E.00896
G1 X184.779 Y101.787 E.0075
G1 X220.221 Y101.787 E1.11126
G1 X220.275 Y101.785 E.00169
G1 X220.554 Y101.679 E.00936
G1 X220.748 Y101.428 E.00995
G1 X220.787 Y101.221 E.0066
G1 X220.787 Y100.287 E.02928
G1 X224.213 Y100.287 E.10742
G1 X224.213 Y102.081 E.05625
G1 X224.213 Y109.713 E.2393
G1 X220.787 Y109.713 E.10742
G1 X220.787 Y108.779 E.02928
G1 X220.748 Y108.572 E.0066
G1 X220.664 Y108.427 E.00525
G1 X220.437 Y108.256 E.00891
G1 X220.221 Y108.213 E.00691
G1 X184.779 Y108.213 E1.11126
G1 X184.694 Y108.219 E.00267
G1 X184.442 Y108.324 E.00856
G1 X184.259 Y108.555 E.00924
G1 X184.213 Y108.779 E.00717
G1 X184.213 Y109.713 E.02928
G1 X180.787 Y109.713 E.10742
G1 X180.787 Y108.779 E.02928
G1 X180.741 Y108.555 E.00717
G1 X180.677 Y108.443 E.00404
G1 X180.455 Y108.263 E.00896
G1 X180.221 Y108.213 E.0075
G1 X127.279 Y108.213 E1.65996
G1 X127.194 Y108.219 E.00267
M73 P4 R16
M73 Q4 S17
G1 X126.942 Y108.324 E.00856
G1 X126.759 Y108.555 E.00924
G1 X126.713 Y108.779 E.00717
G1 X126.713 Y109.713 E.02928
G1 X123.287 Y109.713 E.10742
G1 X123.287 Y108.779 E.02928
G1 X123.241 Y108.555 E.00717
G1 X123.177 Y108.443 E.00404
G1 X122.955 Y108.263 E.00896
G1 X122.721 Y108.213 E.0075
G1 X69.779 Y108.213 E1.65996
G1 X69.694 Y108.219 E.00267
G1 X69.442 Y108.324 E.00856
G1 X69.259 Y108.555 E.00924
G1 X69.213 Y108.779 E.00717
G1 X69.213 Y109.713 E.02928
G1 X65.787 Y109.713 E.10742
G1 X65.787 Y108.779 E.02928
G1 X65.741 Y108.555 E.00717
G1 X65.677 Y108.443 E.00404
G1 X65.455 Y108.263 E.00896
G1 X65.221 Y108.213 E.0075
G1 X29.779 Y108.213 E1.11126
G1 X29.729 Y108.215 E.00157
G1 X29.446 Y108.321 E.00948
G1 X29.252 Y108.572 E.00995
G1 X29.213 Y108.779 E.0066
G1 X29.213 Y109.713 E.02928
G1 X25.787 Y109.713 E.10742
G1 X25.787 Y100.287 E.29555
G1 X29.213 Y100.287 E.10742
G1 X29.213 Y101.221 E.02928
G1 X29.252 Y101.428 E.0066
G1 X29.336 Y101.573 E.00525
G1 X29.563 Y101.744 E.00891
G1 X29.779 Y101.787 E.00691
G1 X65.221 Y101.787 E1.11126
G1 X65.306 Y101.781 E.00267
G1 X65.558 Y101.676 E.00856
G1 X65.741 Y101.445 E.00924
G1 X65.787 Y101.221 E.00717
G1 X65.787 Y100.287 E.02928
G1 X69.213 Y100.287 E.10742
G1 X69.213 Y101.221 E.02928
G1 X69.259 Y101.445 E.00717
G1 X69.323 Y101.557 E.00404
G1 X69.349 Y101.578 E.00105
M204 S1000
G1 X69.633 Y101.323 F10800
M204 S800
;TYPE:External perimeter
G1 F1200
G1 X69.648 Y101.358 E.00119
G1 X69.779 Y101.41 E.00442
G1 X122.721 Y101.41 E1.65996
G1 X122.834 Y101.373 E.00373
M73 P5 R16
M73 Q5 S17
G1 X122.91 Y101.221 E.00533
G1 X122.91 Y99.91 E.04111
G1 X127.09 Y99.91 E.13106
G1 X127.09 Y101.221 E.04111
G1 X127.148 Y101.358 E.00466
G1 X127.279 Y101.41 E.00442
G1 X180.221 Y101.41 E1.65996
G1 X180.334 Y101.373 E.00373
M73 Q5 S16
G1 X180.41 Y101.221 E.00533
G1 X180.41 Y99.91 E.04111
G1 X184.59 Y99.91 E.13106
G1 X184.59 Y101.221 E.04111
G1 X184.648 Y101.358 E.00466
G1 X184.779 Y101.41 E.00442
G1 X220.221 Y101.41 E1.11126
G1 X220.332 Y101.374 E.00366
G1 X220.41 Y101.221 E.00538
G1 X220.41 Y99.91 E.04111
G1 X224.59 Y99.91 E.13106
G1 X224.59 Y102.081 E.06807
G1 X224.59 Y110.09 E.25112
G1 X220.41 Y110.09 E.13106
G1 X220.41 Y108.779 E.04111
G1 X220.369 Y108.661 E.00392
G1 X220.221 Y108.59 E.00515
G1 X184.779 Y108.59 E1.11126
G1 X184.666 Y108.627 E.00373
G1 X184.59 Y108.779 E.00533
G1 X184.59 Y110.09 E.04111
G1 X180.41 Y110.09 E.13106
G1 X180.41 Y108.779 E.04111
G1 X180.352 Y108.642 E.00466
M73 P6 R16
G1 X180.221 Y108.59 E.00442
G1 X127.279 Y108.59 E1.65996
G1 X127.166 Y108.627 E.00373
M73 Q6 S16
G1 X127.09 Y108.779 E.00533
G1 X127.09 Y110.09 E.04111
G1 X122.91 Y110.09 E.13106
G1 X122.91 Y108.779 E.04111
G1 X122.852 Y108.642 E.00466
G1 X122.721 Y108.59 E.00442
G1 X69.779 Y108.59 E1.65996
G1 X69.666 Y108.627 E.00373
G1 X69.59 Y108.779 E.00533
G1 X69.59 Y110.09 E.04111
G1 X65.41 Y110.09 E.13106
G1 X65.41 Y108.779 E.04111
G1 X65.352 Y108.642 E.00466
G1 X65.221 Y108.59 E.00442
G1 X29.779 Y108.59 E1.11126
G1 X29.668 Y108.626 E.00366
G1 X29.59 Y108.779 E.00538
G1 X29.59 Y110.09 E.04111
G1 X25.41 Y110.09 E.13106
G1 X25.41 Y99.91 E.31919
G1 X29.59 Y99.91 E.13106
G1 X29.59 Y101.221 E.04111
G1 X29.631 Y101.339 E.00392
G1 X29.779 Y101.41 E.00515
G1 X65.221 Y101.41 E1.11126
G1 X65.334 Y101.373 E.00373
M73 P7 R16
G1 X65.41 Y101.221 E.00533
G1 X65.41 Y99.91 E.04111
G1 X69.59 Y99.91 E.13106
G1 X69.59 Y101.221 E.04111
G1 X69.61 Y101.268 E.0016
M204 S1000
;WIPE_START
G1 F8640
G1 X69.633 Y101.323 E-.01377
G1 X69.648 Y101.358 E-.00879
G1 X69.779 Y101.41 E-.03254
G1 X73.005 Y101.41 E-.7449
;WIPE_END
G1 Z.6 F720
G1 X224.043 Y101.22 F10800
G1 Z.2 F720
M73 Q7 S16
G1 E.8 F2100
M204 S800
;TYPE:Solid infill
;WIDTH:0.420617
G1 F1200
G1 X223.449 Y100.626 E.02638
G1 X222.915 Y100.626 E.01677
G1 X223.874 Y101.585 E.04259
G1 X223.874 Y102.119 E.01677
G1 X222.381 Y100.626 E.06631
G1 X221.847 Y100.626 E.01677
G1 X223.874 Y102.653 E.09003
G1 X223.874 Y103.187 E.01677
G1 X221.313 Y100.626 E.11374
G1 X221.126 Y100.626 E.00587
G1 X221.126 Y100.974 E.01093
G1 X223.874 Y103.721 E.12203
G1 X223.874 Y104.256 E.0168
G1 X221.083 Y101.465 E.12396
G1 X221.067 Y101.549 E.00269
G1 X220.899 Y101.816 E.00991
G1 X223.874 Y104.79 E.13211
G1 X223.874 Y105.324 E.01677
G1 X220.594 Y102.044 E.14568
G1 X220.39 Y102.111 E.00674
G1 X220.142 Y102.126 E.0078
G1 X223.874 Y105.858 E.16575
G1 X223.874 Y106.392 E.01677
G1 X219.608 Y102.126 E.18947
G1 X219.074 Y102.126 E.01677
G1 X223.874 Y106.926 E.21319
G1 X223.874 Y107.46 E.01677
G1 X218.54 Y102.126 E.23691
G1 X218.005 Y102.126 E.0168
G1 X223.874 Y107.995 E.26067
G1 X223.874 Y108.529 E.01677
G1 X217.471 Y102.126 E.28438
G1 X216.937 Y102.126 E.01677
G1 X223.874 Y109.063 E.3081
G1 X223.874 Y109.374 E.00977
G1 X223.65 Y109.374 E.00703
G1 X216.403 Y102.126 E.32189
G1 X215.869 Y102.126 E.01677
G1 X223.116 Y109.374 E.32189
G1 X222.582 Y109.374 E.01677
G1 X215.335 Y102.126 E.32189
G1 X214.801 Y102.126 E.01677
G1 X222.048 Y109.374 E.32189
G1 X221.514 Y109.374 E.01677
G1 X220.957 Y108.817 E.02474
M204 S1000
;WIPE_START
G1 F8640
G1 X221.514 Y109.374 E-.18189
G1 X222.048 Y109.374 E-.1233
G1 X220.533 Y107.859 E-.49481
;WIPE_END
G1 Z.6 F720
G1 X220.183 Y108.043 F10800
G1 Z.2 F720
G1 E.8 F2100
M204 S800
G1 F1200
G1 X214.266 Y102.126 E.2628
G1 X213.732 Y102.126 E.01677
G1 X219.479 Y107.874 E.25527
G1 X218.945 Y107.874 E.01677
G1 X213.198 Y102.126 E.25527
G1 X212.664 Y102.126 E.01677
M73 P8 R16
G1 X218.411 Y107.874 E.25527
G1 X217.877 Y107.874 E.01677
G1 X212.13 Y102.126 E.25527
G1 X211.596 Y102.126 E.01677
G1 X217.343 Y107.874 E.25527
G1 X216.809 Y107.874 E.01677
M73 Q8 S16
G1 X211.062 Y102.126 E.25527
G1 X210.527 Y102.126 E.0168
G1 X216.275 Y107.874 E.25529
G1 X215.74 Y107.874 E.0168
G1 X209.993 Y102.126 E.25527
G1 X209.459 Y102.126 E.01677
G1 X215.206 Y107.874 E.25527
G1 X214.672 Y107.874 E.01677
G1 X208.925 Y102.126 E.25527
G1 X208.391 Y102.126 E.01677
G1 X214.138 Y107.874 E.25527
G1 X213.604 Y107.874 E.01677
G1 X207.857 Y102.126 E.25527
G1 X207.323 Y102.126 E.01677
G1 X213.07 Y107.874 E.25527
G1 X212.536 Y107.874 E.01677
M73 P8 R15
G1 X206.788 Y102.126 E.25529
G1 X206.254 Y102.126 E.01677
G1 X212.001 Y107.874 E.25527
G1 X211.467 Y107.874 E.01677
G1 X205.72 Y102.126 E.25527
G1 X205.186 Y102.126 E.01677
G1 X210.933 Y107.874 E.25527
G1 X210.399 Y107.874 E.01677
G1 X204.652 Y102.126 E.25527
G1 X204.118 Y102.126 E.01677
G1 X209.865 Y107.874 E.25527
G1 X209.331 Y107.874 E.01677
G1 X203.584 Y102.126 E.25527
G1 X203.049 Y102.126 E.0168
G1 X208.797 Y107.874 E.25529
G1 X208.262 Y107.874 E.0168
G1 X202.515 Y102.126 E.25527
G1 X201.981 Y102.126 E.01677
G1 X207.728 Y107.874 E.25527
G1 X207.194 Y107.874 E.01677
G1 X201.447 Y102.126 E.25527
G1 X200.913 Y102.126 E.01677
G1 X206.66 Y107.874 E.25527
G1 X206.126 Y107.874 E.01677
G1 X200.379 Y102.126 E.25527
G1 X199.845 Y102.126 E.01677
M73 P9 R15
G1 X205.592 Y107.874 E.25527
G1 X205.058 Y107.874 E.01677
G1 X199.31 Y102.126 E.25529
G1 X198.776 Y102.126 E.01677
G1 X204.523 Y107.874 E.25527
G1 X203.989 Y107.874 E.01677
M73 Q9 S16
G1 X198.242 Y102.126 E.25527
G1 X197.708 Y102.126 E.01677
G1 X203.455 Y107.874 E.25527
G1 X202.921 Y107.874 E.01677
G1 X197.174 Y102.126 E.25527
G1 X196.64 Y102.126 E.01677
G1 X202.387 Y107.874 E.25527
G1 X201.853 Y107.874 E.01677
G1 X196.106 Y102.126 E.25527
G1 X195.571 Y102.126 E.0168
G1 X201.319 Y107.874 E.25529
G1 X200.784 Y107.874 E.0168
G1 X195.037 Y102.126 E.25527
G1 X194.503 Y102.126 E.01677
G1 X200.25 Y107.874 E.25527
G1 X199.716 Y107.874 E.01677
G1 X193.969 Y102.126 E.25527
G1 X193.435 Y102.126 E.01677
G1 X199.182 Y107.874 E.25527
G1 X198.648 Y107.874 E.01677
G1 X192.901 Y102.126 E.25527
G1 X192.367 Y102.126 E.01677
G1 X198.114 Y107.874 E.25527
G1 X197.58 Y107.874 E.01677
G1 X191.832 Y102.126 E.25529
G1 X191.298 Y102.126 E.01677
G1 X197.045 Y107.874 E.25527
G1 X196.511 Y107.874 E.01677
G1 X190.764 Y102.126 E.25527
G1 X190.23 Y102.126 E.01677
G1 X195.977 Y107.874 E.25527
G1 X195.443 Y107.874 E.01677
G1 X189.696 Y102.126 E.25527
G1 X189.162 Y102.126 E.01677
G1 X194.909 Y107.874 E.25527
G1 X194.375 Y107.874 E.01677
G1 X188.628 Y102.126 E.25527
G1 X188.093 Y102.126 E.0168
G1 X193.84 Y107.874 E.25527
G1 X193.306 Y107.874 E.01677
M73 P10 R15
G1 X187.559 Y102.126 E.25527
G1 X187.025 Y102.126 E.01677
G1 X192.772 Y107.874 E.25527
G1 X192.238 Y107.874 E.01677
G1 X186.491 Y102.126 E.25527
G1 X185.957 Y102.126 E.01677
G1 X191.704 Y107.874 E.25527
G1 X191.17 Y107.874 E.01677
M73 Q10 S16
G1 X185.253 Y101.957 E.2628
M204 S1000
;WIPE_START
G1 F8640
G1 X187.703 Y104.407 E-.8
;WIPE_END
G1 Z.6 F720
G1 X183.219 Y100.457 F10800
G1 Z.2 F720
G1 E.8 F2100
M204 S800
G1 F1200
G1 X183.874 Y101.111 E.02907
G1 X183.874 Y101.237 E.00396
G1 X183.943 Y101.574 E.0108
G1 X184.048 Y101.757 E.00663
G1 X184.153 Y101.877 E.00501
G1 X184.312 Y101.998 E.00627
G1 X184.518 Y102.09 E.00709
G1 X184.889 Y102.126 E.01171
G1 X190.636 Y107.874 E.25527
G1 X190.101 Y107.874 E.0168
G1 X182.854 Y100.626 E.32189
G1 X182.32 Y100.626 E.01677
G1 X189.567 Y107.874 E.32189
G1 X189.033 Y107.874 E.01677
G1 X181.786 Y100.626 E.32189
G1 X181.252 Y100.626 E.01677
G1 X188.499 Y107.874 E.32189
G1 X187.965 Y107.874 E.01677
G1 X181.126 Y101.035 E.30375
G1 X181.126 Y101.237 E.00634
G1 X181.07 Y101.512 E.00881
G1 X187.431 Y107.874 E.28254
G1 X186.897 Y107.874 E.01677
G1 X180.872 Y101.848 E.26762
G1 X180.688 Y101.998 E.00746
G1 X180.549 Y102.06 E.00478
G1 X186.362 Y107.874 E.2582
G1 X185.828 Y107.874 E.01677
G1 X180.081 Y102.126 E.25527
G1 X179.547 Y102.126 E.01677
G1 X185.294 Y107.874 E.25527
G1 X184.761 Y107.875 E.01674
G1 X179.013 Y102.126 E.25532
G1 X178.479 Y102.126 E.01677
G1 X184.341 Y107.989 E.26038
G1 X184.153 Y108.123 E.00725
G1 X184.054 Y108.236 E.00472
G1 X177.945 Y102.126 E.27135
G1 X177.411 Y102.126 E.01677
G1 X183.903 Y108.619 E.28836
G1 X183.874 Y108.763 E.00461
G1 X183.874 Y109.124 E.01134
G1 X176.876 Y102.126 E.31081
G1 X176.342 Y102.126 E.01677
M73 P11 R15
G1 X183.589 Y109.374 E.32189
G1 X183.055 Y109.374 E.01677
G1 X175.808 Y102.126 E.32189
M73 Q10 S15
G1 X175.274 Y102.126 E.01677
G1 X182.521 Y109.374 E.32189
G1 X181.987 Y109.374 E.01677
G1 X174.74 Y102.126 E.32189
G1 X174.206 Y102.126 E.01677
M73 Q11 S15
G1 X179.953 Y107.874 E.25527
G1 X179.419 Y107.874 E.01677
G1 X173.671 Y102.126 E.25529
G1 X173.137 Y102.126 E.01677
G1 X178.884 Y107.874 E.25527
G1 X178.35 Y107.874 E.01677
G1 X172.603 Y102.126 E.25527
G1 X172.069 Y102.126 E.01677
G1 X177.816 Y107.874 E.25527
G1 X177.282 Y107.874 E.01677
G1 X171.535 Y102.126 E.25527
G1 X171.001 Y102.126 E.01677
G1 X176.748 Y107.874 E.25527
G1 X176.214 Y107.874 E.01677
G1 X170.467 Y102.126 E.25527
G1 X169.932 Y102.126 E.0168
G1 X175.68 Y107.874 E.25529
G1 X175.145 Y107.874 E.0168
G1 X169.398 Y102.126 E.25527
G1 X168.864 Y102.126 E.01677
G1 X174.611 Y107.874 E.25527
G1 X174.077 Y107.874 E.01677
G1 X168.33 Y102.126 E.25527
G1 X167.796 Y102.126 E.01677
G1 X173.543 Y107.874 E.25527
G1 X173.009 Y107.874 E.01677
G1 X167.262 Y102.126 E.25527
G1 X166.728 Y102.126 E.01677
G1 X172.475 Y107.874 E.25527
G1 X171.941 Y107.874 E.01677
G1 X166.193 Y102.126 E.25529
G1 X165.659 Y102.126 E.01677
G1 X171.406 Y107.874 E.25527
G1 X170.872 Y107.874 E.01677
G1 X165.125 Y102.126 E.25527
G1 X164.591 Y102.126 E.01677
M73 P12 R15
G1 X170.338 Y107.874 E.25527
G1 X169.804 Y107.874 E.01677
G1 X164.057 Y102.126 E.25527
G1 X163.523 Y102.126 E.01677
G1 X169.27 Y107.874 E.25527
G1 X168.736 Y107.874 E.01677
G1 X162.989 Y102.126 E.25527
G1 X162.454 Y102.126 E.0168
G1 X168.202 Y107.874 E.25529
G1 X167.667 Y107.874 E.0168
G1 X161.92 Y102.126 E.25527
G1 X161.386 Y102.126 E.01677
M73 Q12 S15
G1 X167.133 Y107.874 E.25527
G1 X166.599 Y107.874 E.01677
G1 X160.852 Y102.126 E.25527
G1 X160.318 Y102.126 E.01677
G1 X166.065 Y107.874 E.25527
G1 X165.531 Y107.874 E.01677
G1 X159.784 Y102.126 E.25527
G1 X159.25 Y102.126 E.01677
G1 X164.997 Y107.874 E.25527
G1 X164.463 Y107.874 E.01677
G1 X158.715 Y102.126 E.25529
