; generated by PrusaSlicer 2.9.3 on 2025-11-18 at 12:09:29 UTC


;
;
; 

; external perimeters extrusion width = 0.45mm
; perimeters extrusion width = 0.45mm
; infill extrusion width = 0.45mm
; solid infill extrusion width = 0.45mm
; top infill extrusion width = 0.40mm
; first layer extrusion width = 0.42mm

M73 P0 R66
M73 Q0 S67
M201 X1000 Y1000 Z200 E5000 ; sets maximum accelerations, mm/sec^2
M203 X200 Y200 Z12 E120 ; sets maximum feedrates, mm / sec
M204 S1250 T1250 ; sets acceleration (S) and retract acceleration (R), mm/sec^2
M205 X8.00 Y8.00 Z0.40 E4.50 ; sets the jerk limits, mm/sec
M205 S0 T0 ; sets the minimum extruding and travel feed rate, mm/sec

; printing object monitor-stand.stl id:0 copy 0
; stop printing object monitor-stand.stl id:0 copy 0

;TYPE:Custom
M862.3 P "MK3S" ; printer model check
M862.1 P0.4 ; nozzle diameter check
M115 U3.14.1 ; tell printer latest fw version
G90 ; use absolute coordinates
M83 ; extruder relative mode
M104 S215 ; set extruder temp
M140 S60 ; set bed temp
M190 S60 ; wait for bed temp
M109 S215 ; wait for extruder temp
G28 W ; home all without mesh bed level
G80 X1.5418 Y19.2589 W246.151 H171.017 ; mesh bed levelling

G1 Z0.2 F720
G1 Y-3 F1000 ; go outside print area
G92 E0
G1 X60 E9 F1000 ; intro line
G1 X100 E12.5 F1000 ; intro line

G92 E0
M221 S95

; Don't change E values below. Excessive value can damage the printer.

M907 E538 ; set extruder motor current
G21 ; set units to millimeters
G90 ; use absolute coordinates
M83 ; use relative distances for extrusion

M900 K0.05 ; Filament gcode LA 1.5
M900 K30 ; Filament gcode LA 1.0




M107
;LAYER_CHANGE
;Z:0.2
;HEIGHT:0.2
G1 E-.8 F2100
G1 Z.6 F720
G1 X7.389 Y19.883 F10800
G1 Z.2 F720
G1 E.8 F2100
M204 S800
;TYPE:Skirt/Brim
;WIDTH:0.42
G1 F1200
G1 X8.621 Y19.444 E.04101
G1 X9.939 Y19.823 E.043
G1 X246.592 Y181.092 E8.97918
G1 X247.403 Y182.118 E.04101
G1 X247.485 Y183.423 E.041
G1 X247.195 Y184.092 E.02286
G1 X243.927 Y189.125 E.18815
G1 X242.92 Y189.958 E.04098
G1 X241.616 Y190.069 E.04103
G1 X240.901 Y189.769 E.02431
G1 X14.76 Y43.051 E8.45206
G1 X13.9 Y42.194 E.03807
G1 X2.164 Y26.556 E.61304
G1 X1.727 Y25.323 E.04102
G1 X2.072 Y24.061 E.04102
G1 X2.597 Y23.494 E.02423
G1 X7.341 Y19.919 E.18625
M204 S1000
;WIPE_START
G1 F8640
G1 X7.389 Y19.883 E-.01385
G1 X8.621 Y19.444 E-.30199
G1 X9.939 Y19.823 E-.31666
G1 X10.538 Y20.232 E-.1675
;WIPE_END
G1 Z.6 F720
; printing object monitor-stand.stl id:0 copy 0
G1 X244.271 Y183.132 F10800
G1 Z.2 F720
G1 E.8 F2100
M204 S800
;TYPE:Perimeter
;WIDTH:0.419999
G1 F1200
G1 X243.066 Y184.988 E.06938
G1 X241.86 Y186.844 E.0694
G1 X17.027 Y40.836 E8.40552
G1 X16.319 Y40.396 E.02614
M73 P1 R65
M73 Q1 S66
G1 X5.017 Y25.397 E.58885
G1 X8.551 Y22.733 E.13876
G1 X19.294 Y36.99 E.55972
G1 X19.438 Y37.124 E.00617
G1 X244.22 Y183.099 E8.40362
M204 S1000
G1 X244.792 Y183.021 F10800
M204 S800
;TYPE:External perimeter
G1 F1200
G1 X243.382 Y185.193 E.08119
G1 X241.971 Y187.365 E.08121
G1 X16.144 Y40.711 E8.44269
G1 X16.086 Y40.713 E.00182
M73 P2 R65
M73 Q2 S66
G1 X4.489 Y25.323 E.6042
G1 X8.625 Y22.205 E.1624
G1 X19.643 Y36.808 E.57357
G1 X244.742 Y182.988 E8.41546
M204 S1000
;WIPE_START
G1 F8640
G1 X244.792 Y183.021 E-.01383
G1 X243.382 Y185.193 E-.59793
G1 X242.938 Y185.877 E-.18824
;WIPE_END
G1 Z.6 F720
G1 X243.732 Y183.65 F10800
G1 Z.2 F720
G1 E.8 F2100
M204 S800
;TYPE:Solid infill
;WIDTH:0.422168
G1 F1200
G1 X242.408 Y182.327 E.05902
G1 X240.879 Y181.334 E.05749
G1 X243.398 Y183.853 E.11234
G1 X243.187 Y184.178 E.01222
G1 X239.349 Y180.34 E.17116
G1 X237.819 Y179.347 E.05752
G1 X242.976 Y184.503 E.22996
G1 X242.764 Y184.828 E.01224
G1 X236.289 Y178.353 E.28876
G1 X234.759 Y177.36 E.05752
G1 X242.553 Y185.154 E.34759
G1 X242.342 Y185.479 E.01222
G1 X233.23 Y176.366 E.40639
G1 X231.7 Y175.373 E.05752
G1 X242.131 Y185.804 E.46519
G1 X241.92 Y186.129 E.01222
G1 X230.17 Y174.379 E.52401
G1 X228.64 Y173.386 E.05752
G1 X241.384 Y186.13 E.56834
G1 X239.855 Y185.137 E.05749
G1 X227.11 Y172.393 E.56836
G1 X225.581 Y171.399 E.05751
G1 X238.325 Y184.143 E.56834
G1 X236.795 Y183.15 E.05752
G1 X224.051 Y170.406 E.56834
G1 X222.521 Y169.412 E.05754
G1 X235.266 Y182.157 E.56838
G1 X233.736 Y181.164 E.05752
G1 X220.991 Y168.419 E.56838
G1 X219.461 Y167.425 E.05754
G1 X232.207 Y180.17 E.56841
G1 X230.677 Y179.177 E.05752
M73 P2 R64
G1 X217.932 Y166.432 E.56838
G1 X216.402 Y165.438 E.05754
G1 X229.147 Y178.184 E.56841
G1 X227.618 Y177.191 E.05749
G1 X214.872 Y164.445 E.56843
M73 Q2 S65
G1 X213.342 Y163.451 E.05754
G1 X226.088 Y176.197 E.56843
G1 X224.559 Y175.204 E.05749
G1 X211.812 Y162.458 E.56845
G1 X210.283 Y161.464 E.05751
G1 X223.029 Y174.211 E.56845
G1 X221.499 Y173.218 E.05752
G1 X208.753 Y160.471 E.56845
G1 X207.223 Y159.477 E.05754
G1 X219.97 Y172.224 E.56847
G1 X218.44 Y171.231 E.05752
G1 X205.693 Y158.484 E.56847
G1 X204.163 Y157.491 E.05752
G1 X216.911 Y170.238 E.5685
G1 X215.381 Y169.245 E.05752
G1 X202.634 Y156.497 E.5685
G1 X201.104 Y155.504 E.05752
M73 P3 R64
G1 X213.851 Y168.251 E.56847
G1 X212.322 Y167.258 E.05749
M73 Q3 S65
G1 X199.574 Y154.51 E.56852
G1 X198.044 Y153.517 E.05752
G1 X210.792 Y166.265 E.56852
G1 X209.263 Y165.272 E.05749
G1 X196.514 Y152.523 E.56856
G1 X194.984 Y151.53 E.05752
G1 X207.733 Y164.278 E.56854
G1 X206.203 Y163.285 E.05752
G1 X193.455 Y150.536 E.56854
G1 X191.925 Y149.543 E.05752
G1 X204.674 Y162.292 E.56856
G1 X203.144 Y161.299 E.05752
G1 X190.395 Y148.549 E.56859
G1 X188.865 Y147.556 E.05752
G1 X201.615 Y160.305 E.56859
G1 X200.085 Y159.312 E.05752
G1 X187.335 Y146.562 E.56861
G1 X185.806 Y145.569 E.05749
G1 X198.555 Y158.319 E.56859
G1 X197.026 Y157.325 E.05751
G1 X184.276 Y144.575 E.56861
G1 X182.746 Y143.582 E.05752
G1 X195.496 Y156.332 E.56861
G1 X193.967 Y155.339 E.05749
G1 X181.216 Y142.589 E.56863
G1 X179.686 Y141.595 E.05754
G1 X192.437 Y154.346 E.56865
G1 X190.908 Y153.352 E.05751
G1 X178.157 Y140.602 E.56863
G1 X176.627 Y139.608 E.05754
G1 X189.378 Y152.359 E.56865
G1 X187.848 Y151.366 E.05752
G1 X175.097 Y138.615 E.56865
G1 X173.567 Y137.621 E.05754
G1 X186.319 Y150.373 E.5687
G1 X184.789 Y149.379 E.05754
G1 X172.037 Y136.628 E.56867
G1 X170.508 Y135.634 E.05751
G1 X183.26 Y148.386 E.5687
G1 X181.73 Y147.393 E.05752
G1 X168.978 Y134.641 E.5687
G1 X167.448 Y133.647 E.05754
G1 X180.2 Y146.4 E.56872
G1 X178.671 Y145.406 E.05751
G1 X165.918 Y132.654 E.56872
G1 X164.388 Y131.66 E.05754
G1 X177.141 Y144.413 E.56874
G1 X175.612 Y143.42 E.05749
G1 X162.859 Y130.667 E.56874
G1 X161.329 Y129.673 E.05754
G1 X174.082 Y142.427 E.56876
G1 X172.552 Y141.433 E.05754
G1 X159.799 Y128.68 E.56874
G1 X158.269 Y127.687 E.05752
G1 X171.023 Y140.44 E.56876
G1 X169.493 Y139.447 E.05752
G1 X156.739 Y126.693 E.56879
G1 X155.21 Y125.7 E.05749
G1 X167.964 Y138.454 E.56879
G1 X166.434 Y137.46 E.05754
G1 X153.68 Y124.706 E.56879
G1 X152.15 Y123.713 E.05752
G1 X164.904 Y136.467 E.56879
G1 X163.375 Y135.474 E.05749
G1 X150.62 Y122.719 E.56883
G1 X149.09 Y121.726 E.05752
G1 X161.845 Y134.481 E.56883
G1 X160.316 Y133.487 E.05751
G1 X147.561 Y120.732 E.56883
G1 X146.031 Y119.739 E.05752
G1 X158.786 Y132.494 E.56883
G1 X157.256 Y131.501 E.05752
G1 X144.501 Y118.745 E.56885
G1 X142.971 Y117.752 E.05752
G1 X155.727 Y130.508 E.56887
G1 X154.197 Y129.514 E.05754
G1 X141.441 Y116.758 E.56887
G1 X139.912 Y115.765 E.05749
M73 P4 R64
G1 X152.668 Y128.521 E.56887
G1 X151.138 Y127.528 E.05752
G1 X138.382 Y114.771 E.5689
M73 Q4 S65
G1 X136.852 Y113.778 E.05752
G1 X149.608 Y126.535 E.5689
G1 X148.079 Y125.541 E.05751
G1 X135.322 Y112.785 E.5689
G1 X133.792 Y111.791 E.05754
G1 X146.549 Y124.548 E.56892
G1 X145.02 Y123.555 E.05749
G1 X132.263 Y110.798 E.56892
G1 X130.733 Y109.804 E.05754
G1 X143.49 Y122.562 E.56894
G1 X141.961 Y121.568 E.05751
G1 X129.203 Y108.811 E.56894
G1 X127.673 Y107.817 E.05754
G1 X140.431 Y120.575 E.56896
G1 X138.901 Y119.582 E.05752
M73 P4 R63
G1 X126.143 Y106.824 E.56896
G1 X124.613 Y105.83 E.05754
G1 X137.372 Y118.588 E.56899
G1 X135.842 Y117.595 E.05752
G1 X123.084 Y104.837 E.56896
M73 Q4 S64
G1 X121.554 Y103.843 E.05754
G1 X134.313 Y116.602 E.56901
G1 X132.783 Y115.609 E.05752
G1 X120.024 Y102.85 E.56901
G1 X118.494 Y101.856 E.05754
G1 X131.253 Y114.615 E.56901
G1 X129.724 Y113.622 E.05749
G1 X116.964 Y100.863 E.56903
G1 X115.435 Y99.869 E.05751
G1 X128.194 Y112.629 E.56903
G1 X126.665 Y111.636 E.05749
G1 X113.905 Y98.876 E.56905
G1 X112.375 Y97.883 E.05752
G1 X125.135 Y110.642 E.56903
G1 X123.605 Y109.649 E.05752
G1 X110.845 Y96.889 E.56905
G1 X109.315 Y95.896 E.05752
G1 X122.076 Y108.656 E.56908
G1 X120.546 Y107.663 E.05752
G1 X107.786 Y94.902 E.56908
G1 X106.256 Y93.909 E.05752
G1 X119.017 Y106.669 E.56908
G1 X117.487 Y105.676 E.05752
G1 X104.726 Y92.915 E.5691
G1 X103.196 Y91.922 E.05752
G1 X115.957 Y104.683 E.5691
G1 X114.428 Y103.69 E.05749
G1 X101.666 Y90.928 E.56914
G1 X100.137 Y89.935 E.05749
G1 X112.898 Y102.696 E.5691
G1 X111.369 Y101.703 E.05749
G1 X98.607 Y88.941 E.56914
G1 X97.077 Y87.948 E.05752
G1 X109.839 Y100.71 E.56914
G1 X108.309 Y99.717 E.05752
G1 X95.547 Y86.954 E.56916
G1 X94.017 Y85.961 E.05752
G1 X106.78 Y98.723 E.56916
G1 X105.25 Y97.73 E.05752
G1 X92.488 Y84.967 E.56916
G1 X90.958 Y83.974 E.05752
G1 X103.721 Y96.737 E.56919
G1 X102.191 Y95.744 E.05752
G1 X89.428 Y82.981 E.56919
G1 X87.898 Y81.987 E.05754
G1 X100.661 Y94.75 E.56919
G1 X99.132 Y93.757 E.05749
G1 X86.368 Y80.994 E.56921
G1 X84.839 Y80 E.05751
G1 X97.602 Y92.764 E.56921
G1 X96.073 Y91.771 E.05749
G1 X83.309 Y79.007 E.56923
G1 X81.779 Y78.013 E.05754
G1 X94.543 Y90.777 E.56923
G1 X93.013 Y89.784 E.05752
G1 X80.249 Y77.02 E.56923
G1 X78.719 Y76.026 E.05754
M73 P5 R63
G1 X91.484 Y88.791 E.56928
G1 X89.954 Y87.798 E.05752
G1 X77.19 Y75.033 E.56925
G1 X75.66 Y74.039 E.05754
M73 Q5 S64
G1 X88.425 Y86.804 E.56928
G1 X86.895 Y85.811 E.05752
G1 X74.13 Y73.046 E.56928
G1 X72.6 Y72.052 E.05754
G1 X85.366 Y84.818 E.56932
G1 X83.836 Y83.825 E.05752
G1 X71.07 Y71.059 E.56932
G1 X69.541 Y70.065 E.05751
G1 X82.306 Y82.831 E.5693
G1 X80.777 Y81.838 E.05749
G1 X68.011 Y69.072 E.56932
G1 X66.481 Y68.079 E.05752
G1 X79.247 Y80.845 E.56932
G1 X77.718 Y79.851 E.05751
G1 X64.951 Y67.085 E.56934
G1 X63.421 Y66.092 E.05752
G1 X76.188 Y78.858 E.56934
G1 X74.658 Y77.865 E.05752
G1 X61.892 Y65.098 E.56934
G1 X60.362 Y64.105 E.05752
G1 X73.129 Y76.872 E.56937
G1 X71.599 Y75.878 E.05754
G1 X58.832 Y63.111 E.56937
G1 X57.302 Y62.118 E.05752
G1 X70.07 Y74.885 E.56939
G1 X68.54 Y73.892 E.05752
G1 X55.772 Y61.124 E.56941
G1 X54.242 Y60.131 E.05752
G1 X67.01 Y72.899 E.56941
G1 X65.481 Y71.905 E.05751
G1 X52.713 Y59.137 E.56941
G1 X51.183 Y58.144 E.05752
G1 X63.951 Y70.912 E.56941
G1 X62.422 Y69.919 E.05749
G1 X49.653 Y57.15 E.56945
G1 X48.123 Y56.157 E.05752
G1 X60.892 Y68.926 E.56945
G1 X59.362 Y67.932 E.05754
G1 X46.593 Y55.163 E.56945
G1 X45.064 Y54.17 E.05749
G1 X57.833 Y66.939 E.56945
G1 X56.303 Y65.946 E.05752
G1 X43.534 Y53.177 E.56945
G1 X42.004 Y52.183 E.05754
G1 X54.774 Y64.953 E.5695
G1 X53.244 Y63.959 E.05754
G1 X40.474 Y51.19 E.56948
G1 X38.944 Y50.196 E.05754
G1 X51.714 Y62.966 E.5695
G1 X50.185 Y61.973 E.05749
G1 X37.415 Y49.203 E.5695
G1 X35.885 Y48.209 E.05754
G1 X48.655 Y60.98 E.56952
G1 X47.126 Y59.986 E.05751
M73 P5 R62
G1 X34.355 Y47.216 E.56952
G1 X32.825 Y46.222 E.05754
G1 X45.596 Y58.993 E.56954
G1 X44.066 Y58 E.05752
G1 X31.295 Y45.229 E.56954
M73 Q5 S63
G1 X29.766 Y44.235 E.05751
G1 X42.537 Y57.007 E.56957
G1 X41.007 Y56.013 E.05754
G1 X28.236 Y43.242 E.56954
G1 X26.706 Y42.248 E.05754
G1 X39.478 Y55.02 E.56959
G1 X37.948 Y54.027 E.05752
G1 X25.176 Y41.255 E.56959
G1 X23.646 Y40.261 E.05754
G1 X36.419 Y53.034 E.56963
G1 X34.889 Y52.04 E.05754
G1 X21.54 Y38.691 E.59532
M204 S1000
;WIPE_START
G1 F8640
G1 X23.99 Y41.141 E-.8
;WIPE_END
G1 Z.6 F720
G1 X10.208 Y25.214 F10800
G1 Z.2 F720
G1 E.8 F2100
M204 S800
G1 F1200
G1 X8.324 Y23.33 E.08402
G1 X8.018 Y23.56 E.01207
G1 X10.986 Y26.529 E.13239
G1 X12.626 Y28.705 E.08593
G1 X7.712 Y23.791 E.21915
G1 X7.406 Y24.021 E.01207
G1 X14.266 Y30.881 E.30593
G1 X15.906 Y33.057 E.08593
M73 P6 R62
G1 X7.1 Y24.252 E.3927
G1 X6.794 Y24.482 E.01207
G1 X17.546 Y35.234 E.4795
G1 X19.031 Y37.205 E.07782
G1 X19.242 Y37.401 E.00908
G1 X20.587 Y38.275 E.05058
G1 X33.359 Y51.047 E.56959
G1 X31.83 Y50.054 E.05749
M73 Q6 S63
G1 X6.489 Y24.713 E1.13012
G1 X6.183 Y24.943 E.01207
G1 X30.3 Y49.061 E1.07556
G1 X28.771 Y48.067 E.05751
G1 X5.877 Y25.174 E1.02097
G1 X5.571 Y25.404 E.01207
G1 X27.241 Y47.074 E.96641
G1 X25.711 Y46.081 E.05752
G1 X6.708 Y27.077 E.84749
G1 X8.348 Y29.253 E.08593
G1 X24.182 Y45.088 E.70617
G1 X22.652 Y44.094 E.05754
G1 X9.987 Y31.43 E.56479
G1 X11.627 Y33.606 E.08593
G1 X21.123 Y43.101 E.42347
G1 X19.593 Y42.108 E.05752
G1 X13.267 Y35.782 E.28212
G1 X14.907 Y37.958 E.08593
G1 X18.64 Y41.691 E.16648
M204 S1000
M106 S84.15
;LAYER_CHANGE
;Z:0.4
;HEIGHT:0.2
;BEFORE_LAYER_CHANGE
G92 E0.0
;0.4


;WIPE_START
G1 F8640
G1 X16.19 Y39.241 E-.8
;WIPE_END
G1 Z.4 F720
;AFTER_LAYER_CHANGE
;0.4
M104 S210 ; set temperature
; stop printing object monitor-stand.stl id:0 copy 0
G1 Z.8
G1 X16.87 Y44.42 F10800
G1 Z.4 F720
G1 E.8 F2100
;TYPE:Skirt/Brim
;WIDTH:0.42
G1 F3000
G1 X14.76 Y43.051 E.07886
G1 X13.9 Y42.194 E.03807
G1 X2.164 Y26.556 E.61304
G1 X1.727 Y25.323 E.04102
G1 X2.072 Y24.061 E.04102
G1 X2.597 Y23.494 E.02423
G1 X7.389 Y19.883 E.18813
G1 X8.621 Y19.444 E.04101
G1 X9.939 Y19.823 E.043
G1 X246.592 Y181.092 E8.97918
G1 X247.403 Y182.118 E.04101
G1 X247.485 Y183.423 E.041
G1 X247.195 Y184.092 E.02286
G1 X243.927 Y189.125 E.18815
G1 X242.92 Y189.958 E.04098
G1 X241.616 Y190.069 E.04103
G1 X240.901 Y189.769 E.02431
G1 X16.92 Y44.453 E8.37132
;WIPE_START
G1 F8640
G1 X16.87 Y44.42 E-.01383
G1 X14.76 Y43.051 E-.58077
G1 X14.13 Y42.423 E-.2054
;WIPE_END
G1 Z.8 F720
; printing object monitor-stand.stl id:0 copy 0
G1 X244.485 Y183.086 F10800
G1 Z.4 F720
G1 E.8 F2100
M204 S800
;TYPE:Perimeter
;WIDTH:0.449999
G1 F3014.442
G1 X241.906 Y187.058 E.1603
G1 F3600
G1 X16.973 Y40.985 E9.0783
G1 F2987.111
G1 X16.187 Y40.478 E.03166
G1 F3600
G1 X4.8 Y25.366 E.64048
G1 F3460.38
G1 X8.582 Y22.516 E.16029
G1 F3041.871
G1 X19.397 Y36.868 E.60828
G1 F3431.979
G1 X19.552 Y37.013 E.00718
G1 F3600
G1 X244.435 Y183.054 E9.07629
M204 S1000
G1 X245.048 Y182.967 F10800
M73 P7 R62
M204 S800
;TYPE:External perimeter
G1 F1897.763
G1 X242.393 Y187.055 E.165
G1 F1918.428
G1 X242.026 Y187.621 E.02283
G1 F1894.885
G1 X241.459 Y187.254 E.02286
G1 F2099.999
G1 X16.726 Y41.31 E9.07024
G1 F1913.198
M73 Q7 S63
G1 X16.16 Y40.943 E.02283
G1 F1881.704
G1 X16.019 Y40.931 E.00479
G1 F1894.202
G1 X15.862 Y40.723 E.00882
G1 F1935.925
G1 X15.456 Y40.184 E.02284
G1 F2100
G1 X4.229 Y25.286 E.63144
G1 X4.769 Y24.88 E.02287
M73 P7 R61
G1 F2058.76
G1 X8.123 Y22.352 E.14217
G1 F1895.477
G1 X8.662 Y21.946 E.02284
G1 F1907.236
G1 X19.316 Y36.084 E.59922
G1 F2029.503
G1 X19.722 Y36.623 E.02284
G1 F2047.473
G1 X19.774 Y36.672 E.00242
G1 F2062.156
G1 X20.34 Y37.039 E.02283
G1 F2099.999
G1 X244.482 Y182.599 E9.04638
G1 F1926.961
M73 Q7 S62
G1 X244.998 Y182.934 E.02082
M204 S1000
;WIPE_START
G1 F8640
G1 X245.048 Y182.967 E-.01383
G1 X243.194 Y185.823 E-.78617
;WIPE_END
G1 Z.8 F720
G1 X7.985 Y23.233 F10800
G1 Z.4 F720
G1 E.8 F2100
;TYPE:Solid infill
;WIDTH:0.39678
G1 F12000
G1 X6.617 Y24.422 E.05333
;WIDTH:0.42339
G1 F11827.493
G1 X6.473 Y24.547 E.00603
;WIDTH:0.449999
G1 F11054.364
G1 X5.42 Y25.581 E.04995
G1 X5.291 Y25.499 E.00517
;WIDTH:0.41646
G1 F12000
G1 X5.161 Y25.417 E.00477
;WIDTH:0.38292
G1 X5.649 Y24.994 E.01826
G1 X5.668 Y25.91 F10800
;WIDTH:0.449999
G1 F11054.364
G1 X8.526 Y23.051 E.13683
G1 X8.774 Y23.38 E.01395
G1 X5.915 Y26.238 E.13683
G1 X6.163 Y26.566 E.01392
G1 X9.021 Y23.708 E.13681
G1 X9.268 Y24.036 E.0139
G1 X6.41 Y26.895 E.13683
G1 X6.657 Y27.223 E.0139
G1 X9.516 Y24.365 E.13683
G1 X9.763 Y24.693 E.0139
G1 X6.905 Y27.551 E.13681
G1 X7.152 Y27.88 E.01393
G1 X10.011 Y25.021 E.13686
G1 X10.258 Y25.349 E.0139
G1 X7.399 Y28.208 E.13686
G1 X7.647 Y28.536 E.01392
G1 X10.505 Y25.678 E.13681
G1 X10.753 Y26.006 E.01392
G1 X7.894 Y28.864 E.13683
G1 X8.142 Y29.193 E.01395
