;FLAVOR:Marlin
;TIME:796
;Filament used: 0.520182m
;Layer height: 0.15
;MINX:108.541
;MINY:97.741
;MINZ:0.2
;MAXX:141.459
;MAXY:112.259
;MAXZ:12.05
;Generated with Cura_SteamEngine 4.13.1
M82 ;absolute extrusion mode
G21 ; set units to millimeters
G90 ; use absolute positioning
M82 ; absolute extrusion mode
M104 S230 ; set extruder temp
M140 S80 ; set bed temp
M190 S80 ; wait for bed temp
M109 S230 ; wait for extruder temp
G28 W ; home all without mesh bed level
G80 ; mesh bed leveling
G92 E0.0 ; reset extruder distance position
G1 Y-3.0 F1000.0 ; go outside print area
G1 X60.0 E9.0 F1000.0 ; intro line
G1 X100.0 E21.5 F1000.0 ; intro line
G92 E0.0 ; reset extruder distance position
G92 E0
G92 E0
G1 F2100 E-0.8
;LAYER_COUNT:80
;LAYER:0
M107
G0 F3600 X109.77 Y99.392 Z0.2
;TYPE:SKIRT
G1 F2100 E0
G1 F1800 X110.403 Y98.812 E0.02856
G1 X110.595 Y98.668 E0.03654
G1 X111.092 Y98.345 E0.05625
G1 X111.628 Y98.092 E0.07597
G1 X112.437 Y97.861 E0.10395
G1 X112.578 Y97.835 E0.10872
G1 X113.288 Y97.763 E0.13245
G1 X114.431 Y97.741 E0.17048
G1 X123.286 Y97.742 E0.46499
G1 X124.064 Y97.753 E0.49087
G1 X126.416 Y97.758 E0.5691
G1 X127.965 Y97.742 E0.62062
G1 X135.958 Y97.742 E0.88647
G1 X136.57 Y97.751 E0.90683
G1 X137.093 Y97.79 E0.92427
G1 X137.323 Y97.821 E0.93199
G1 X137.904 Y97.94 E0.95172
G1 X138.463 Y98.136 E0.97142
G1 X138.992 Y98.405 E0.99116
G1 X139.493 Y98.743 E1.01126
G1 X139.952 Y99.118 E1.03097
G1 X140.357 Y99.551 E1.05069
G1 X140.7 Y100.035 E1.07042
G1 X140.975 Y100.56 E1.09014
G1 X141.201 Y101.171 E1.1118
G1 X141.355 Y101.744 E1.13154
G1 X141.437 Y102.507 E1.15706
G1 X141.459 Y103.632 E1.19449
G1 X141.459 Y106.739 E1.29783
G1 X141.448 Y107.477 E1.32237
G1 X141.399 Y108.068 E1.3421
G1 X141.196 Y108.88 E1.36994
G1 X141.105 Y109.137 E1.379
G1 X140.87 Y109.681 E1.39871
G1 X140.563 Y110.189 E1.41846
G1 X140.192 Y110.651 E1.43816
G1 X139.597 Y111.188 E1.46482
G1 X139.405 Y111.332 E1.4728
G1 X138.908 Y111.655 E1.49252
G1 X138.372 Y111.908 E1.51223
G1 X137.563 Y112.139 E1.54021
G1 X137.422 Y112.165 E1.54498
G1 X136.712 Y112.237 E1.56872
G1 X135.569 Y112.259 E1.60674
G1 X114.039 Y112.258 E2.32283
G1 X113.436 Y112.249 E2.34289
G1 X112.918 Y112.21 E2.36017
G1 X112.679 Y112.178 E2.36819
G1 X112.098 Y112.06 E2.38791
G1 X111.538 Y111.865 E2.40763
G1 X111.01 Y111.596 E2.42734
G1 X110.503 Y111.253 E2.4477
G1 X110.044 Y110.878 E2.46741
G1 X109.639 Y110.444 E2.48716
G1 X109.297 Y109.96 E2.50687
G1 X109.023 Y109.434 E2.52659
G1 X108.799 Y108.829 E2.54805
G1 X108.645 Y108.256 E2.56778
G1 X108.563 Y107.493 E2.59331
G1 X108.541 Y106.368 E2.63073
G1 X108.541 Y103.245 E2.7346
G1 X108.551 Y102.541 E2.75802
G1 X108.6 Y101.95 E2.77775
G1 X108.785 Y101.189 E2.80379
G1 X108.877 Y100.918 E2.81331
G1 X109.105 Y100.37 E2.83305
G1 X109.404 Y99.858 E2.85277
G1 X109.77 Y99.392 E2.87248
G0 F3600 X110.121 Y99.601
G1 F1800 X110.643 Y99.132 E2.89582
G1 X110.835 Y98.988 E2.90381
G1 X111.31 Y98.682 E2.9226
G1 X111.824 Y98.445 E2.94142
G1 X112.51 Y98.254 E2.96511
G1 X112.651 Y98.228 E2.96988
G1 X113.296 Y98.163 E2.99144
G1 X114.43 Y98.141 E3.02916
G1 X123.281 Y98.142 E3.32355
G1 X124.059 Y98.153 E3.34943
G1 X126.419 Y98.158 E3.42792
G1 X127.969 Y98.142 E3.47948
G1 X135.952 Y98.142 E3.74499
G1 X136.564 Y98.151 E3.76535
G1 X137.269 Y98.218 E3.7889
G1 X137.823 Y98.333 E3.80772
G1 X138.355 Y98.525 E3.82653
G1 X139.048 Y98.919 E3.85305
G1 X139.261 Y99.07 E3.86173
G1 X139.698 Y99.429 E3.88054
G1 X140.08 Y99.845 E3.89933
G1 X140.4 Y100.312 E3.91816
G1 X140.733 Y101.038 E3.94472
G1 X140.823 Y101.301 E3.95397
G1 X140.967 Y101.847 E3.97275
G1 X141.037 Y102.515 E3.99509
G1 X141.059 Y103.632 E4.03225
G1 X141.059 Y106.733 E4.13539
G1 X141.048 Y107.471 E4.15994
G1 X140.999 Y108.034 E4.17873
G1 X140.819 Y108.746 E4.20316
G1 X140.728 Y109.003 E4.21223
G1 X140.502 Y109.521 E4.23102
G1 X140.205 Y110.003 E4.24985
G1 X139.843 Y110.437 E4.26865
G1 X139.357 Y110.868 E4.29026
G1 X139.165 Y111.012 E4.29824
G1 X138.69 Y111.318 E4.31703
G1 X138.176 Y111.555 E4.33586
G1 X137.49 Y111.746 E4.35954
G1 X137.349 Y111.772 E4.36431
G1 X136.704 Y111.837 E4.38587
G1 X135.569 Y111.859 E4.42363
G1 X114.045 Y111.858 E5.13952
G1 X113.442 Y111.849 E5.15958
G1 X112.732 Y111.782 E5.1833
G1 X112.179 Y111.667 E5.20208
G1 X111.647 Y111.476 E5.22088
G1 X110.945 Y111.077 E5.24774
G1 X110.734 Y110.927 E5.25635
G1 X110.298 Y110.568 E5.27514
G1 X109.916 Y110.151 E5.29395
G1 X109.598 Y109.684 E5.31274
G1 X109.267 Y108.962 E5.33915
G1 X109.177 Y108.699 E5.3484
G1 X109.033 Y108.153 E5.36718
G1 X108.963 Y107.485 E5.38952
G1 X108.941 Y106.368 E5.42668
G1 X108.941 Y103.25 E5.53038
G1 X108.951 Y102.546 E5.5538
G1 X108.999 Y101.983 E5.57259
G1 X109.163 Y101.317 E5.59541
G1 X109.255 Y101.046 E5.60493
G1 X109.474 Y100.525 E5.62372
G1 X109.765 Y100.04 E5.64254
G1 X110.121 Y99.601 E5.66133
G0 F3600 X110.47 Y99.814
G1 F1800 X110.883 Y99.452 E5.6796
G1 X111.075 Y99.308 E5.68758
G1 X111.527 Y99.019 E5.70543
G1 X112.017 Y98.8 E5.72328
G1 X112.582 Y98.648 E5.74274
G1 X112.723 Y98.622 E5.74751
G1 X113.304 Y98.563 E5.76693
G1 X114.43 Y98.541 E5.80439
G1 X123.275 Y98.542 E6.09857
G1 X124.053 Y98.553 E6.12445
G1 X126.422 Y98.558 E6.20325
G1 X127.973 Y98.542 E6.25484
G1 X135.946 Y98.542 E6.52002
G1 X136.558 Y98.551 E6.54038
G1 X137.216 Y98.614 E6.56236
G1 X137.741 Y98.725 E6.58021
G1 X138.243 Y98.913 E6.59804
G1 X138.817 Y99.245 E6.62009
G1 X139.03 Y99.396 E6.62878
G1 X139.443 Y99.738 E6.64661
G1 X139.801 Y100.137 E6.66444
G1 X140.096 Y100.586 E6.68231
G1 X140.354 Y101.167 E6.70345
G1 X140.444 Y101.43 E6.7127
G1 X140.579 Y101.949 E6.73054
G1 X140.637 Y102.523 E6.74972
G1 X140.659 Y103.632 E6.78662
G1 X140.659 Y106.727 E6.88956
G1 X140.648 Y107.465 E6.91411
G1 X140.6 Y107.999 E6.93194
G1 X140.442 Y108.613 E6.95303
G1 X140.351 Y108.87 E6.96209
G1 X140.134 Y109.36 E6.97992
G1 X139.848 Y109.814 E6.99776
G1 X139.497 Y110.219 E7.01559
G1 X139.117 Y110.548 E7.03231
G1 X138.925 Y110.692 E7.04029
G1 X138.473 Y110.981 E7.05813
G1 X137.983 Y111.2 E7.07598
G1 X137.418 Y111.352 E7.09544
G1 X137.277 Y111.378 E7.10021
G1 X136.696 Y111.437 E7.11964
G1 X135.569 Y111.459 E7.15713
G1 X114.051 Y111.458 E7.87282
G1 X113.448 Y111.449 E7.89288
G1 X112.785 Y111.385 E7.91503
G1 X112.26 Y111.275 E7.93287
G1 X111.758 Y111.087 E7.9507
G1 X111.177 Y110.751 E7.97302
G1 X110.966 Y110.601 E7.98163
G1 X110.553 Y110.259 E7.99947
G1 X110.196 Y109.859 E8.0173
G1 X109.902 Y109.41 E8.03515
G1 X109.646 Y108.833 E8.05615
G1 X109.556 Y108.57 E8.06539
G1 X109.421 Y108.051 E8.08323
G1 X109.363 Y107.477 E8.10242
G1 X109.341 Y106.368 E8.13931
G1 X109.341 Y103.256 E8.24282
G1 X109.351 Y102.552 E8.26623
G1 X109.399 Y102.018 E8.28407
G1 X109.542 Y101.446 E8.30368
G1 X109.634 Y101.175 E8.3132
G1 X109.844 Y100.681 E8.33105
G1 X110.125 Y100.224 E8.34889
G1 X110.47 Y99.814 E8.36671
G0 F3600 X110.818 Y100.033
G1 F1800 X111.315 Y99.628 E8.38804
G1 X111.742 Y99.358 E8.40484
G1 X112.207 Y99.158 E8.42168
G1 X112.796 Y99.015 E8.44184
G1 X113.312 Y98.963 E8.45909
G1 X114.43 Y98.941 E8.49628
G1 X123.269 Y98.942 E8.79026
G1 X124.047 Y98.953 E8.81614
G1 X126.426 Y98.958 E8.89527
G1 X127.977 Y98.942 E8.94686
G1 X135.94 Y98.942 E9.21171
G1 X136.552 Y98.951 E9.23207
G1 X137.162 Y99.011 E9.25245
G1 X137.657 Y99.118 E9.2693
G1 X138.128 Y99.301 E9.2861
G1 X138.586 Y99.571 E9.30379
G1 X138.799 Y99.722 E9.31247
G1 X139.187 Y100.047 E9.3293
G1 X139.519 Y100.428 E9.34611
G1 X139.787 Y100.856 E9.36291
G1 X140.066 Y101.56 E9.38809
G1 X140.191 Y102.05 E9.40491
G1 X140.237 Y102.531 E9.42099
G1 X140.259 Y103.632 E9.45761
G1 X140.259 Y106.721 E9.56035
G1 X140.248 Y107.459 E9.5849
G1 X140.2 Y107.962 E9.60171
G1 X140.064 Y108.479 E9.61949
G1 X139.973 Y108.736 E9.62856
G1 X139.768 Y109.198 E9.64537
G1 X139.492 Y109.621 E9.66217
G1 X139.152 Y109.996 E9.679
G1 X138.685 Y110.372 E9.69894
G1 X138.258 Y110.642 E9.71575
G1 X137.793 Y110.842 E9.73258
G1 X137.204 Y110.985 E9.75274
G1 X136.688 Y111.037 E9.76999
G1 X135.569 Y111.059 E9.80722
G1 X114.057 Y111.058 E10.52271
G1 X113.454 Y111.049 E10.54277
G1 X112.838 Y110.989 E10.56335
G1 X112.344 Y110.882 E10.58016
G1 X111.873 Y110.699 E10.59697
G1 X111.409 Y110.425 E10.61489
G1 X111.198 Y110.275 E10.6235
G1 X110.81 Y109.951 E10.64031
G1 X110.479 Y109.569 E10.65713
G1 X110.211 Y109.14 E10.67395
G1 X109.934 Y108.44 E10.69899
G1 X109.809 Y107.95 E10.71581
G1 X109.763 Y107.469 E10.73188
G1 X109.741 Y106.368 E10.76851
G1 X109.741 Y103.262 E10.87181
G1 X109.751 Y102.558 E10.89523
G1 X109.798 Y102.054 E10.91207
G1 X110.013 Y101.303 E10.93805
G1 X110.213 Y100.839 E10.95485
G1 X110.483 Y100.412 E10.97166
G1 X110.818 Y100.033 E10.98848
G1 F2100 E10.18848
;MESH:backpack-clips-20mm-shoulders.stl
G0 F3600 X124.881 Y101.495
G0 X126.943 Y102.976
G0 X128.201 Y102.754
G0 X136.27 Y102.93
G1 F2100 E10.98848
G0 F3600 X136.2 Y103
;TYPE:WALL-INNER
G1 F1800 X128.232 Y103 E11.2535
G1 X128.186 Y102.742 E11.26221
G1 X136.459 Y102.742 E11.44183
G1 X136.459 Y107.259 E11.59207
G1 X113.541 Y107.258 E12.35432
G1 X113.541 Y102.741 E12.50456
G1 X123.068 Y102.742 E12.82143
G1 X122.969 Y103 E12.83062
G1 X113.8 Y103 E13.03259
G1 X113.8 Y107 E13.1157
G1 X136.2 Y107 E13.59507
G1 X136.2 Y103 E13.67818
G0 F3600 X135.8 Y103.4
;TYPE:WALL-OUTER
G1 F1800 X127.896 Y103.4 E13.94107
G1 X127.709 Y102.342 E13.97681
G1 X136.582 Y102.342 E14.27192
G1 X136.751 Y102.395 E14.27781
G1 X136.844 Y102.521 E14.28302
G1 X136.859 Y102.618 E14.28629
G1 X136.859 Y107.386 E14.44487
G1 X136.804 Y107.553 E14.45072
G1 X136.679 Y107.644 E14.45586
G1 X136.582 Y107.659 E14.45913
G1 X113.418 Y107.658 E15.22957
G1 X113.249 Y107.605 E15.23546
G1 X113.156 Y107.479 E15.24066
G1 X113.141 Y107.382 E15.24393
G1 X113.141 Y102.614 E15.40251
G1 X113.196 Y102.447 E15.40836
G1 X113.321 Y102.356 E15.4135
G1 X113.418 Y102.341 E15.41677
G1 X123.649 Y102.342 E15.75705
G1 X123.243 Y103.4 E15.79474
G1 X114.2 Y103.4 E16.09552
G1 X114.2 Y106.6 E16.20195
G1 X135.8 Y106.6 E16.92037
G1 X135.8 Y103.4 E17.0268
M104 S230
G0 F3600 X135.6 Y103.4
;MESH:NONMESH
G0 F600 X135.6 Y103.4 Z0.35
G0 F3600 X136.2 Y103
;TIME_ELAPSED:23.255722
;LAYER:1
M106 S255
;TYPE:WALL-INNER
;MESH:backpack-clips-20mm-shoulders.stl
G1 F2700 X128.296 Y103 E17.22397
G1 X128.208 Y102.502 E17.23658
G1 X136.527 Y102.501 E17.4441
G1 X136.649 Y102.541 E17.4473
G1 X136.699 Y102.648 E17.45025
G1 X136.699 Y107.325 E17.56692
G1 X136.66 Y107.447 E17.57011
G1 X136.553 Y107.499 E17.57308
G1 X113.473 Y107.499 E18.14881
G1 X113.351 Y107.459 E18.15201
G1 X113.301 Y107.352 E18.15496
G1 X113.301 Y102.675 E18.27163
G1 X113.34 Y102.553 E18.27482
G1 X113.447 Y102.501 E18.27779
G1 X123.227 Y102.501 E18.52175
G1 X123.036 Y103 E18.53508
G1 X113.8 Y103 E18.76548
G1 X113.8 Y107 E18.86526
G1 X136.2 Y107 E19.42403
G1 X136.2 Y103 E19.52381
G0 F5400 X135.8 Y103.4
;TYPE:WALL-OUTER
G1 F1800 X127.961 Y103.4 E19.71935
G1 X127.73 Y102.102 E19.75224
G1 X136.589 Y102.101 E19.97323
G1 X136.897 Y102.201 E19.98131
G1 X137.072 Y102.446 E19.98882
G1 X137.099 Y102.618 E19.99316
G1 X137.099 Y107.389 E20.11217
G1 X137.001 Y107.692 E20.12012
G1 X136.756 Y107.872 E20.1277
G1 X136.582 Y107.899 E20.13209
G1 X113.411 Y107.899 E20.7101
G1 X113.103 Y107.799 E20.71817
G1 X112.928 Y107.554 E20.72568
G1 X112.901 Y107.382 E20.73003
G1 X112.901 Y102.611 E20.84904
G1 X112.999 Y102.308 E20.85698
G1 X113.244 Y102.128 E20.86457
G1 X113.418 Y102.101 E20.86896
G1 X123.809 Y102.101 E21.12816
G1 X123.312 Y103.4 E21.16286
G1 X114.2 Y103.4 E21.39016
G1 X114.2 Y106.6 E21.46998
G1 X135.8 Y106.6 E22.0088
G1 X135.8 Y103.4 E22.08862
G0 F5400 X135.6 Y103.4
G0 X135.6 Y102.9
G0 X136.228 Y107.028
G0 X136.065 Y107.179
;TYPE:SKIN
G1 F1800 X135.925 Y107.319 E22.09356
G0 F5400 X135.499 Y107.179
G1 F1800 X135.36 Y107.319 E22.09848
G0 F5400 X134.933 Y107.179
G1 F1800 X134.794 Y107.319 E22.1034
G0 F5400 X134.367 Y107.179
G1 F1800 X134.228 Y107.319 E22.10832
G0 F5400 X133.802 Y107.179
G1 F1800 X133.662 Y107.319 E22.11326
G0 F5400 X133.236 Y107.179
G1 F1800 X133.097 Y107.319 E22.11818
G0 F5400 X132.67 Y107.179
G1 F1800 X132.531 Y107.319 E22.12311
G0 F5400 X132.105 Y107.179
G1 F1800 X131.965 Y107.319 E22.12804
G0 F5400 X131.539 Y107.179
G1 F1800 X131.4 Y107.319 E22.13297
G0 F5400 X130.973 Y107.179
G1 F1800 X130.834 Y107.319 E22.13789
G0 F5400 X130.408 Y107.179
G1 F1800 X130.268 Y107.319 E22.14283
G0 F5400 X129.842 Y107.179
G1 F1800 X129.703 Y107.319 E22.14775
G0 F5400 X129.276 Y107.179
G1 F1800 X129.137 Y107.319 E22.15267
G0 F5400 X128.711 Y107.179
G1 F1800 X128.571 Y107.319 E22.15761
G0 F5400 X128.145 Y107.179
G1 F1800 X128.006 Y107.319 E22.16253
G0 F5400 X127.579 Y107.179
G1 F1800 X127.44 Y107.319 E22.16745
G0 F5400 X127.014 Y107.179
G1 F1800 X126.874 Y107.319 E22.17239
G0 F5400 X126.448 Y107.179
G1 F1800 X126.309 Y107.319 E22.17731
G0 F5400 X125.882 Y107.179
G1 F1800 X125.743 Y107.319 E22.18223
G0 F5400 X125.316 Y107.179
G1 F1800 X125.177 Y107.319 E22.18715
G0 F5400 X124.751 Y107.179
G1 F1800 X124.612 Y107.319 E22.19207
G0 F5400 X124.185 Y107.179
G1 F1800 X124.046 Y107.319 E22.19699
G0 F5400 X123.619 Y107.179
G1 F1800 X123.48 Y107.319 E22.20192
G0 F5400 X123.054 Y107.179
G1 F1800 X122.914 Y107.319 E22.20685
G0 F5400 X122.488 Y107.179
G1 F1800 X122.349 Y107.319 E22.21178
G0 F5400 X121.922 Y107.179
G1 F1800 X121.783 Y107.319 E22.2167
G0 F5400 X121.357 Y107.179
G1 F1800 X121.217 Y107.319 E22.22164
G0 F5400 X120.791 Y107.179
G1 F1800 X120.652 Y107.319 E22.22656
G0 F5400 X120.225 Y107.179
G1 F1800 X120.086 Y107.319 E22.23148
G0 F5400 X119.66 Y107.179
G1 F1800 X119.52 Y107.319 E22.23642
G0 F5400 X119.094 Y107.179
G1 F1800 X118.955 Y107.319 E22.24134
G0 F5400 X118.528 Y107.179
G1 F1800 X118.389 Y107.319 E22.24626
G0 F5400 X117.963 Y107.179
G1 F1800 X117.823 Y107.319 E22.2512
G0 F5400 X117.397 Y107.179
G1 F1800 X117.258 Y107.319 E22.25612
G0 F5400 X116.831 Y107.179
G1 F1800 X116.692 Y107.319 E22.26104
G0 F5400 X116.266 Y107.179
G1 F1800 X116.126 Y107.319 E22.26598
G0 F5400 X115.7 Y107.179
G1 F1800 X115.561 Y107.319 E22.2709
G0 F5400 X115.134 Y107.179
G1 F1800 X114.995 Y107.319 E22.27582
G0 F5400 X114.568 Y107.179
G1 F1800 X114.429 Y107.319 E22.28074
G0 F5400 X114.003 Y107.179
G1 F1800 X113.863 Y107.319 E22.28568
G0 F5400 X113.619 Y106.997
G1 F1800 X113.48 Y107.136 E22.29059
G0 F5400 X113.48 Y106.57
G1 F1800 X113.619 Y106.432 E22.29547
G0 F5400 X113.48 Y106.005
G1 F1800 X113.619 Y105.866 E22.30038
G0 F5400 X113.48 Y105.439
G1 F1800 X113.619 Y105.3 E22.30528
G0 F5400 X113.48 Y104.873
G1 F1800 X113.619 Y104.735 E22.31017
G0 F5400 X113.48 Y104.308
G1 F1800 X113.619 Y104.169 E22.31507
G0 F5400 X113.48 Y103.742
G1 F1800 X113.619 Y103.603 E22.31997
G0 F5400 X113.48 Y103.176
G1 F1800 X113.619 Y103.038 E22.32486
G0 F5400 X113.837 Y102.82
G1 F1800 X113.976 Y102.681 E22.32976
G0 F5400 X114.402 Y102.82
G1 F1800 X114.542 Y102.681 E22.33468
G0 F5400 X114.968 Y102.82
G1 F1800 X115.107 Y102.681 E22.33959
G0 F5400 X115.534 Y102.82
G1 F1800 X115.673 Y102.681 E22.34449
G0 F5400 X116.099 Y102.82
G1 F1800 X116.239 Y102.681 E22.34941
G0 F5400 X116.665 Y102.82
G1 F1800 X116.804 Y102.681 E22.35432
G0 F5400 X117.231 Y102.82
G1 F1800 X117.37 Y102.681 E22.35922
G0 F5400 X117.796 Y102.82
G1 F1800 X117.936 Y102.681 E22.36414
G0 F5400 X118.362 Y102.82
G1 F1800 X118.501 Y102.681 E22.36904
G0 F5400 X118.928 Y102.82
G1 F1800 X119.067 Y102.681 E22.37395
G0 F5400 X119.493 Y102.82
G1 F1800 X119.633 Y102.681 E22.37887
G0 F5400 X120.059 Y102.82
G1 F1800 X120.198 Y102.681 E22.38377
G0 F5400 X120.625 Y102.82
G1 F1800 X120.764 Y102.681 E22.38868
G0 F5400 X121.191 Y102.82
G1 F1800 X121.33 Y102.681 E22.39358
G0 F5400 X121.756 Y102.82
G1 F1800 X121.896 Y102.681 E22.3985
G0 F5400 X122.322 Y102.82
G1 F1800 X122.461 Y102.681 E22.40341
G0 F5400 X113.772 Y102.972
G0 X113.772 Y107.028
G0 X136.228 Y107.028
G0 X136.228 Y102.972
G0 X128.545 Y102.819
G1 F1800 X128.684 Y102.681 E22.40829
G0 F5400 X129.111 Y102.819
G1 F1800 X129.249 Y102.681 E22.41316
G0 F5400 X129.677 Y102.819
G1 F1800 X129.815 Y102.681 E22.41803
G0 F5400 X130.242 Y102.819
G1 F1800 X130.381 Y102.681 E22.42291
G0 F5400 X130.808 Y102.819
G1 F1800 X130.946 Y102.681 E22.42778
G0 F5400 X131.374 Y102.819
G1 F1800 X131.512 Y102.681 E22.43265
