;START_OF_HEADER
;HEADER_VERSION:0.1
;FLAVOR:Griffin
;GENERATOR.NAME:Cura_SteamEngine
;GENERATOR.VERSION:4.13.1
;GENERATOR.BUILD_DATE:2022-04-23
;TARGET_MACHINE.NAME:Ultimaker S5
;EXTRUDER_TRAIN.0.INITIAL_TEMPERATURE:245
;EXTRUDER_TRAIN.0.MATERIAL.VOLUME_USED:1259
;EXTRUDER_TRAIN.0.MATERIAL.GUID:60636bb4-518f-42e7-8237-fe77b194ebe0
;EXTRUDER_TRAIN.0.NOZZLE.DIAMETER:0.4
;EXTRUDER_TRAIN.0.NOZZLE.NAME:AA 0.4
;BUILD_PLATE.TYPE:glass
;BUILD_PLATE.INITIAL_TEMPERATURE:85
;BUILD_VOLUME.TEMPERATURE:36
;PRINT.TIME:752
;PRINT.GROUPS:1
;PRINT.SIZE.MIN.X:148.413
;PRINT.SIZE.MIN.Y:112.613
;PRINT.SIZE.MIN.Z:0.27
;PRINT.SIZE.MAX.X:181.587
;PRINT.SIZE.MAX.Y:127.387
;PRINT.SIZE.MAX.Z:11.97
;END_OF_HEADER
;Generated with Cura_SteamEngine 4.13.1
T0
M82 ;absolute extrusion mode

G92 E0
M109 S245
G280 S1
G0 Z20.001
G1 F1500 E-5
;LAYER_COUNT:79
;LAYER:0
M107
M204 S625
M205 X5 Y5
G0 F6000 X180.646 Y125.29 Z0.27
M204 S500
;TYPE:SKIRT
G1 F1500 E0
G1 F1200 X180.26 Y125.765 E0.01243
G1 X179.817 Y126.186 E0.02485
G1 X179.061 Y126.703 E0.04346
G1 X178.516 Y126.981 E0.05589
G1 X177.94 Y127.186 E0.06831
G1 X177.342 Y127.314 E0.08073
G1 X176.761 Y127.362 E0.09257
G1 X175.511 Y127.387 E0.11797
G1 X154.051 Y127.385 E0.55394
G1 X152.763 Y127.327 E0.58013
G1 X151.779 Y127.077 E0.60076
G1 X151.21 Y126.852 E0.61319
G1 X150.675 Y126.555 E0.62562
G1 X150.184 Y126.191 E0.63804
G1 X149.745 Y125.765 E0.65047
G1 X149.365 Y125.286 E0.66289
G1 X148.839 Y124.31 E0.68541
G1 X148.624 Y123.737 E0.69784
G1 X148.485 Y123.141 E0.71028
G1 X148.413 Y121.928 E0.73496
G1 X148.414 Y118.22 E0.81029
G1 X148.474 Y116.919 E0.83675
G1 X148.763 Y115.854 E0.85917
G1 X149.109 Y115.102 E0.87599
G1 X149.444 Y114.59 E0.88842
G1 X149.843 Y114.126 E0.90085
G1 X150.298 Y113.718 E0.91326
G1 X151.04 Y113.239 E0.93121
G1 X151.592 Y112.974 E0.94364
G1 X152.173 Y112.784 E0.95606
G1 X153.239 Y112.638 E0.97792
G1 X154.489 Y112.613 E1.00332
G1 X163.056 Y112.614 E1.17736
G1 X164.128 Y112.629 E1.19914
G1 X166.834 Y112.629 E1.25412
G1 X168.216 Y112.613 E1.28219
G1 X175.952 Y112.615 E1.43935
G1 X177.238 Y112.673 E1.46551
G1 X178.243 Y112.931 E1.48659
G1 X178.811 Y113.158 E1.49901
G1 X179.344 Y113.457 E1.51143
G1 X179.834 Y113.824 E1.52386
G1 X180.272 Y114.251 E1.53629
G1 X180.65 Y114.731 E1.5487
G1 X181.15 Y115.657 E1.57008
G1 X181.368 Y116.229 E1.58252
G1 X181.513 Y116.848 E1.59543
G1 X181.587 Y117.949 E1.61785
G1 X181.586 Y121.75 E1.69507
G1 X181.526 Y123.076 E1.72204
G1 X181.214 Y124.21 E1.74593
G1 X180.965 Y124.769 E1.75836
G1 X180.646 Y125.29 E1.77077
M204 S625
G0 F6000 X180.218 Y125.062
M204 S500
G1 F1200 X179.845 Y125.506 E1.78255
G1 X178.976 Y126.194 E1.80507
G1 X178.298 Y126.552 E1.82065
G1 X177.75 Y126.74 E1.83242
G1 X176.751 Y126.882 E1.85292
G1 X175.511 Y126.907 E1.87811
G1 X154.058 Y126.906 E2.31394
G1 X152.803 Y126.847 E2.33946
G1 X151.926 Y126.62 E2.35787
G1 X151.388 Y126.405 E2.36964
G1 X150.885 Y126.118 E2.3814
G1 X150.426 Y125.765 E2.39316
G1 X150.02 Y125.351 E2.40494
G1 X149.674 Y124.886 E2.41672
G1 X149.276 Y124.112 E2.4344
G1 X149.074 Y123.569 E2.44617
G1 X148.905 Y122.514 E2.46788
G1 X148.893 Y121.924 E2.47987
G1 X148.894 Y118.227 E2.55497
G1 X148.954 Y116.959 E2.58076
G1 X149.208 Y116.033 E2.60027
G1 X149.542 Y115.311 E2.61643
G1 X149.865 Y114.83 E2.6282
G1 X150.25 Y114.397 E2.63997
G1 X151.125 Y113.742 E2.66217
G1 X151.799 Y113.408 E2.67746
G1 X152.351 Y113.234 E2.68921
G1 X153.249 Y113.118 E2.70761
G1 X154.488 Y113.093 E2.73278
G1 X163.05 Y113.094 E2.90673
G1 X164.122 Y113.109 E2.92851
G1 X166.84 Y113.109 E2.98372
G1 X168.216 Y113.093 E3.01168
G1 X175.945 Y113.094 E3.1687
G1 X177.198 Y113.153 E3.19418
G1 X178.094 Y113.387 E3.21299
G1 X178.631 Y113.604 E3.22476
G1 X179.134 Y113.893 E3.23654
G1 X179.591 Y114.249 E3.24831
G1 X179.995 Y114.664 E3.26008
G1 X180.339 Y115.13 E3.27185
G1 X180.714 Y115.857 E3.28846
G1 X181.038 Y116.915 E3.31094
G1 X181.107 Y117.955 E3.33212
G1 X181.107 Y121.742 E3.40905
G1 X181.047 Y123.037 E3.43539
G1 X180.764 Y124.044 E3.45664
G1 X180.526 Y124.572 E3.46841
G1 X180.218 Y125.062 E3.48016
M204 S625
G0 F6000 X179.792 Y124.831
M204 S500
G1 F1200 X179.432 Y125.241 E3.49125
G1 X178.73 Y125.782 E3.50925
G1 X178.082 Y126.122 E3.52412
G1 X177.564 Y126.293 E3.5352
G1 X176.741 Y126.402 E3.55207
G1 X175.511 Y126.427 E3.57706
G1 X154.065 Y126.426 E4.01274
G1 X152.844 Y126.368 E4.03758
G1 X152.073 Y126.163 E4.05378
G1 X151.567 Y125.959 E4.06487
G1 X151.097 Y125.682 E4.07595
G1 X150.673 Y125.341 E4.087
G1 X150.303 Y124.94 E4.09809
G1 X149.823 Y124.155 E4.11678
G1 X149.526 Y123.402 E4.13323
G1 X149.385 Y122.499 E4.15179
G1 X149.373 Y121.92 E4.16356
G1 X149.373 Y118.235 E4.23842
G1 X149.433 Y117.001 E4.26352
G1 X149.735 Y116.012 E4.28453
G1 X149.975 Y115.522 E4.29561
G1 X150.284 Y115.073 E4.30668
G1 X150.656 Y114.674 E4.31777
G1 X151.511 Y114.075 E4.33898
G1 X152.005 Y113.843 E4.35006
G1 X152.527 Y113.686 E4.36114
G1 X153.259 Y113.598 E4.37611
G1 X154.488 Y113.573 E4.40109
G1 X163.043 Y113.574 E4.57489
G1 X164.115 Y113.589 E4.59667
G1 X166.846 Y113.589 E4.65215
G1 X168.215 Y113.573 E4.67996
G1 X175.938 Y113.574 E4.83686
G1 X177.157 Y113.632 E4.86165
G1 X177.946 Y113.843 E4.87824
G1 X178.45 Y114.05 E4.88931
G1 X178.919 Y114.328 E4.90039
G1 X179.342 Y114.672 E4.91146
G1 X179.711 Y115.073 E4.92253
G1 X180.174 Y115.832 E4.9406
G1 X180.467 Y116.568 E4.95669
G1 X180.615 Y117.491 E4.97568
G1 X180.627 Y117.961 E4.98523
G1 X180.627 Y121.735 E5.0619
G1 X180.567 Y122.995 E5.08753
G1 X180.314 Y123.877 E5.10617
G1 X180.088 Y124.373 E5.11724
G1 X179.792 Y124.831 E5.12832
M204 S625
G0 F6000 X179.368 Y124.595
M204 S500
G1 F1200 X179.022 Y124.969 E5.13867
G1 X178.323 Y125.466 E5.15609
G1 X177.867 Y125.691 E5.16642
G1 X177.382 Y125.843 E5.17675
G1 X176.731 Y125.922 E5.19007
G1 X175.511 Y125.947 E5.21486
G1 X154.072 Y125.946 E5.6504
G1 X152.888 Y125.888 E5.67449
G1 X152.22 Y125.706 E5.68855
G1 X151.749 Y125.513 E5.69889
G1 X151.315 Y125.248 E5.70922
G1 X150.927 Y124.919 E5.71956
G1 X150.596 Y124.533 E5.72989
G1 X150.151 Y123.716 E5.74879
G1 X149.978 Y123.238 E5.75912
G1 X149.857 Y122.232 E5.7797
G1 X149.853 Y121.916 E5.78612
G1 X149.853 Y118.242 E5.86076
G1 X149.912 Y117.045 E5.88511
G1 X150.18 Y116.191 E5.90329
G1 X150.406 Y115.735 E5.91363
G1 X150.702 Y115.321 E5.92397
G1 X151.058 Y114.958 E5.9343
G1 X151.747 Y114.494 E5.95117
G1 X152.208 Y114.28 E5.9615
G1 X152.698 Y114.141 E5.97184
G1 X153.269 Y114.078 E5.98352
G1 X154.488 Y114.053 E6.00828
G1 X163.036 Y114.054 E6.18194
G1 X164.108 Y114.069 E6.20372
G1 X166.852 Y114.069 E6.25947
G1 X168.215 Y114.053 E6.28716
G1 X175.931 Y114.054 E6.44391
G1 X177.113 Y114.112 E6.46795
G1 X177.797 Y114.3 E6.48236
G1 X178.266 Y114.495 E6.49268
G1 X178.7 Y114.761 E6.50302
G1 X179.086 Y115.092 E6.51335
G1 X179.416 Y115.48 E6.5237
G1 X179.841 Y116.256 E6.54168
G1 X180.093 Y117.084 E6.55926
G1 X180.147 Y117.967 E6.57723
G1 X180.147 Y121.728 E6.65364
G1 X180.088 Y122.951 E6.67851
G1 X179.864 Y123.711 E6.69461
G1 X179.651 Y124.173 E6.70494
G1 X179.368 Y124.595 E6.71527
M204 S625
G1 F1500 E1.71527
;MESH:backpack-clips-20mm-shoulders.stl
G0 F6000 X177.596 Y122.846
G0 X176.648 Y122.36
G0 X176.033 Y118.246
G1 F1500 E6.71527
G0 F6000 X175.958 Y118.311
M204 S500
;TYPE:WALL-OUTER
G1 F1200 X175.657 Y118.16 E6.72211
G1 X168.11 Y118.16 E6.87543
G1 X167.998 Y117.533 E6.88837
G1 X176.571 Y117.534 E7.06253
G1 X176.658 Y117.582 E7.06455
G1 X176.667 Y117.637 E7.06568
G1 X176.667 Y122.364 E7.16171
G1 X176.623 Y122.458 E7.16382
G1 X176.564 Y122.467 E7.16503
G1 X153.429 Y122.466 E7.63503
G1 X153.342 Y122.418 E7.63705
G1 X153.333 Y122.363 E7.63818
G1 X153.333 Y117.636 E7.73421
G1 X153.377 Y117.542 E7.73632
G1 X153.436 Y117.533 E7.73753
G1 X163.332 Y117.534 E7.93857
G1 X163.092 Y118.16 E7.95219
G1 X154.362 Y118.16 E8.12955
G1 X154.111 Y118.242 E8.13491
G1 X153.96 Y118.543 E8.14175
G1 X153.96 Y121.438 E8.20057
G1 X154.042 Y121.689 E8.20593
G1 X154.343 Y121.84 E8.21277
G1 X175.638 Y121.84 E8.64539
G1 X175.889 Y121.758 E8.65075
G1 X176.04 Y121.457 E8.65759
G1 X176.04 Y118.562 E8.71641
G1 X175.958 Y118.311 E8.72177
M204 S625
G0 F6000 X175.779 Y118.222
G0 X175.546 Y117.846
M204 S500
;TYPE:SKIN
G1 F1200 X175.263 Y117.846 E8.72469
G1 X168.475 Y117.846 E8.79463
G1 X168.286 Y117.94 E8.7968
M204 S625
G0 F6000 X168.31 Y117.964
G0 X175.666 Y118.122
G0 X176.078 Y121.466
G0 X168.421 Y122.035
G0 X168.538 Y122.152
M204 S500
G1 F1200 X168.821 Y122.152 E8.79993
G1 X175.61 Y122.152 E8.87502
G1 X176.127 Y122.104 E8.88076
G1 X176.328 Y121.739 E8.88537
G1 X176.352 Y119.218 E8.91325
G1 X176.352 Y118.652 E8.91951
G1 X176.091 Y118.108 E8.92619
M204 S625
G0 F6000 X175.994 Y117.729
M204 S500
G1 F1200 X176.471 Y118.205 E8.93189
M204 S625
G0 F6000 X176.471 Y117.922
M204 S500
G1 F1200 X176.277 Y117.729 E8.93421
M204 S625
G0 F6000 X176.078 Y121.466
G0 X168.374 Y122.27
G0 X168.256 Y122.152
M204 S500
G1 F1200 X167.973 Y122.152 E8.93712
G1 X154.679 Y122.152 E9.07384
G1 X154.387 Y122.143 E9.07685
G1 X153.879 Y121.917 E9.08257
G1 X153.658 Y121.413 E9.08823
G1 X153.645 Y118.573 E9.11744
G1 X153.708 Y118.069 E9.12266
G1 X154.07 Y117.866 E9.12693
G1 X157.161 Y117.846 E9.15872
G1 X162.819 Y117.847 E9.21691
G1 X163.006 Y117.752 E9.21907
M204 S625
G0 F6000 X162.983 Y117.729
G0 X154.356 Y118.121
G0 X153.949 Y122.27
G0 X153.738 Y122.059
M204 S500
G1 F1200 X153.596 Y122.2 E9.22578
M204 S625
G0 F6000 X153.813 Y121.987
;MESH:NONMESH
G0 F600 X153.813 Y121.987 Z0.42
G0 F6000 X153.679 Y122.124
;TIME_ELAPSED:30.729184
;LAYER:1
M106 S1
M204 S750
M205 X17.5 Y17.5
;TYPE:WALL-INNER
;MESH:backpack-clips-20mm-shoulders.stl
G1 F1500 X153.676 Y122.124 E9.2258
G1 X153.676 Y122.121 E9.22582
G1 X153.679 Y122.124 E9.22583
M204 S2812
G0 F7500 X175.864 Y122.066
G0 X176.266 Y118.336
G0 X175.849 Y117.97
M204 S750
G1 F1500 X168.347 Y117.97 E9.29639
G1 X168.26 Y117.476 E9.3011
G1 X176.519 Y117.477 E9.37878
G1 X176.715 Y117.595 E9.38093
G1 X176.724 Y117.65 E9.38146
G1 X176.723 Y122.319 E9.42537
G1 X176.606 Y122.514 E9.42751
G1 X176.545 Y122.524 E9.42809
G1 X153.483 Y122.524 E9.645
G1 X153.285 Y122.405 E9.64717
G1 X153.276 Y122.35 E9.64769
G1 X153.277 Y117.681 E9.69161
G1 X153.394 Y117.486 E9.69375
G1 X153.455 Y117.476 E9.69433
G1 X163.232 Y117.477 E9.78628
G1 X163.042 Y117.97 E9.79125
G1 X154.151 Y117.97 E9.87487
G1 X153.77 Y118.351 E9.87994
G1 X153.77 Y121.649 E9.91096
G1 X154.151 Y122.03 E9.91603
G1 X175.849 Y122.03 E10.1201
G1 X176.23 Y121.649 E10.12517
G1 X176.23 Y118.351 E10.15619
G1 X175.849 Y117.97 E10.16126
M204 S2812
G0 F7500 X175.683 Y118.37
M204 S500
;TYPE:WALL-OUTER
G1 F1500 X168.012 Y118.37 E10.23341
G1 X167.782 Y117.076 E10.24577
G1 X176.582 Y117.077 E10.32853
G1 X176.907 Y117.179 E10.33174
G1 X177.095 Y117.437 E10.33474
G1 X177.124 Y117.618 E10.33646
G1 X177.123 Y122.382 E10.38127
G1 X177.02 Y122.71 E10.3845
G1 X176.762 Y122.894 E10.38748
G1 X176.58 Y122.924 E10.38922
G1 X153.42 Y122.924 E10.60705
G1 X153.093 Y122.821 E10.61027
G1 X152.905 Y122.563 E10.61327
G1 X152.876 Y122.382 E10.615
G1 X152.877 Y117.618 E10.6598
G1 X152.98 Y117.29 E10.66304
G1 X153.238 Y117.106 E10.66602
G1 X153.42 Y117.076 E10.66775
G1 X163.814 Y117.077 E10.76551
G1 X163.317 Y118.37 E10.77854
G1 X154.317 Y118.37 E10.86319
G1 X154.17 Y118.517 E10.86514
G1 X154.17 Y121.483 E10.89304
G1 X154.317 Y121.63 E10.89499
G1 X175.683 Y121.63 E11.09595
G1 X175.83 Y121.483 E11.0979
G1 X175.83 Y118.517 E11.1258
G1 X175.683 Y118.37 E11.12775
M204 S2812
G0 F7500 X175.483 Y118.37
G0 X175.483 Y117.93
G0 X175.584 Y117.722
M204 S500
;TYPE:SKIN
G1 F2400 X175.867 Y117.722 E11.12903
G1 X176.316 Y117.839 E11.13112
G1 X176.476 Y118.245 E11.13309
G1 X176.475 Y121.357 E11.14711
G1 X176.157 Y121.958 E11.15017
G1 X175.556 Y122.276 E11.15323
G1 X154.06 Y122.276 E11.25009
G1 X153.562 Y121.925 E11.25284
G1 X153.522 Y120.551 E11.25903
G1 X153.522 Y118.571 E11.26795
G1 X153.805 Y118.005 E11.2708
G1 X154.371 Y117.723 E11.27365
G1 X162.856 Y117.723 E11.31189
M204 S2812
G0 F7500 X162.948 Y117.631
G0 X154.136 Y117.934
G0 X153.734 Y121.664
G0 X175.864 Y122.066
G0 X176.266 Y118.336
G0 X168.468 Y117.767
G0 X168.537 Y117.698
M204 S500
G1 F2400 X168.796 Y117.722 E11.31306
G1 X175.301 Y117.722 E11.34229
M204 S2812
G0 F7500 X175.393 Y117.631
G0 X176.225 Y118.295
G0 X176.567 Y121.831
M204 S500
G1 F2400 X176.029 Y122.369 E11.34587
M204 S2812
G0 F7500 X176.312 Y122.369
M204 S500
G1 F2400 X176.567 Y122.114 E11.34757
M204 S2812
G0 F7500 X154.136 Y122.066
G0 X153.734 Y118.336
G0 X153.897 Y117.631
M204 S500
G1 F2400 X153.431 Y118.097 E11.35067
M204 S2812
G0 F7500 X153.431 Y117.814
M204 S500
G1 F2400 X153.614 Y117.631 E11.35188
M204 S2812
G0 F7500 X153.676 Y117.876
;MESH:NONMESH
G0 F600 X153.676 Y117.876 Z0.57
G0 F7500 X153.788 Y117.767
;TIME_ELAPSED:41.807306
;LAYER:2
M106 S37.1
M204 S1000
M205 X30 Y30
;TYPE:WALL-INNER
;MESH:backpack-clips-20mm-shoulders.stl
G1 F1800 X153.568 Y117.987 E11.35481
G1 X153.568 Y117.767 E11.35521
G1 X153.788 Y117.767 E11.3556
M204 S5000
G0 F9000 X153.734 Y121.031
G0 X153.788 Y122.233
M204 S1000
G1 F1800 X153.567 Y122.233 E11.35768
G1 X153.567 Y122.012 E11.35976
G1 X153.788 Y122.233 E11.36083
M204 S5000
G0 F9000 X175.864 Y122.066
G0 X176.432 Y122.013
M204 S1000
G1 F1800 X176.432 Y122.233 E11.3629
G1 X176.212 Y122.233 E11.36497
G1 X176.432 Y122.013 E11.36603
M204 S5000
G0 F9000 X176.213 Y117.768
M204 S1000
G1 F1800 X176.433 Y117.768 E11.3681
G1 X176.433 Y117.988 E11.37017
G1 X176.213 Y117.768 E11.37124
M204 S5000
G0 F9000 X175.849 Y117.97
M204 S1000
G1 F1800 X168.403 Y117.97 E11.44127
G1 X168.296 Y117.367 E11.44703
G1 X176.521 Y117.368 E11.52439
G1 X176.725 Y117.432 E11.5264
G1 X176.833 Y117.65 E11.52868
G1 X176.832 Y122.319 E11.5726
G1 X176.767 Y122.526 E11.57464
G1 X176.547 Y122.633 E11.57694
G1 X153.482 Y122.633 E11.79387
G1 X153.275 Y122.568 E11.79591
G1 X153.167 Y122.35 E11.7982
G1 X153.168 Y117.681 E11.84211
G1 X153.233 Y117.474 E11.84415
G1 X153.453 Y117.367 E11.84646
G1 X163.333 Y117.368 E11.93938
G1 X163.101 Y117.97 E11.94545
G1 X154.151 Y117.97 E12.02963
G1 X153.77 Y118.351 E12.03469
G1 X153.77 Y121.649 E12.06571
G1 X154.151 Y122.03 E12.07078
G1 X175.849 Y122.03 E12.27485
G1 X176.23 Y121.649 E12.27992
G1 X176.23 Y118.351 E12.31094
G1 X175.849 Y117.97 E12.31601
M204 S5000
G0 F9000 X175.683 Y118.37
M204 S500
;TYPE:WALL-OUTER
G1 F1800 X168.068 Y118.37 E12.38763
G1 X167.821 Y116.982 E12.40089
G1 X167.827 Y116.967 E12.40104
G1 X176.582 Y116.968 E12.48338
G1 X176.972 Y117.09 E12.48723
G1 X177.199 Y117.406 E12.49089
G1 X177.233 Y117.618 E12.49291
G1 X177.232 Y122.382 E12.53771
G1 X177.109 Y122.774 E12.54158
G1 X176.795 Y122.998 E12.54521
G1 X176.581 Y123.033 E12.54725
G1 X153.419 Y123.033 E12.76509
G1 X153.028 Y122.91 E12.76895
G1 X152.801 Y122.594 E12.7726
G1 X152.767 Y122.382 E12.77462
G1 X152.768 Y117.618 E12.81943
G1 X152.891 Y117.226 E12.82329
G1 X153.205 Y117.002 E12.82692
G1 X153.419 Y116.967 E12.82896
G1 X163.915 Y116.968 E12.92768
G1 X163.376 Y118.37 E12.94181
G1 X154.317 Y118.37 E13.02701
G1 X154.17 Y118.517 E13.02896
G1 X154.17 Y121.483 E13.05686
G1 X154.317 Y121.63 E13.05882
G1 X175.683 Y121.63 E13.25977
G1 X175.83 Y121.483 E13.26172
G1 X175.83 Y118.517 E13.28962
G1 X175.683 Y118.37 E13.29158
M204 S5000
G0 F9000 X175.483 Y118.37
G0 X175.483 Y117.93
G0 X175.368 Y117.668
M204 S500
;TYPE:SKIN
G1 F3600 X175.651 Y117.668 E13.2934
G1 X176.103 Y117.555 E13.29642
G1 X176.544 Y118.279 E13.30189
G1 X176.53 Y120.81 E13.31825
G1 X176.53 Y121.658 E13.32373
G1 X176.019 Y122.279 E13.32893
G1 X174.939 Y122.331 E13.33592
G1 X154.292 Y122.331 E13.46936
G1 X154.043 Y122.364 E13.47098
G1 X153.433 Y121.754 E13.47656
G1 X153.467 Y120.092 E13.4873
G1 X153.467 Y118.395 E13.49827
G1 X153.535 Y118.179 E13.49973
G1 X154.155 Y117.668 E13.50493
G1 X162.64 Y117.668 E13.55976
G1 X163.076 Y117.538 E13.5627
M204 S5000
G0 F9000 X163.093 Y117.555
G0 X154.136 Y117.934
G0 X153.734 Y121.664
G0 X175.864 Y122.066
G0 X176.266 Y118.336
G0 X168.49 Y117.578
G0 X168.608 Y117.696
M204 S500
G1 F3600 X168.863 Y117.668 E13.56456
G1 X175.085 Y117.668 E13.60961
M204 S5000
G0 F9000 X174.94 Y117.57
;MESH:NONMESH
G0 F600 X174.94 Y117.57 Z0.72
G0 F9000 X175.864 Y117.934
G0 X176.266 Y121.664
