;FLAVOR:Marlin
;TIME:678
;Filament used: 0.502582m
;Layer height: 0.15
;MINX:111.141
;MINY:97.741
;MINZ:0.2
;MAXX:138.859
;MAXY:112.259
;MAXZ:12.05
;Generated with Cura_SteamEngine 4.13.1
M82 ;absolute extrusion mode
G21 ; set units to millimeters
G90 ; use absolute positioning
M82 ; absolute extrusion mode
M104 S275.0 ; set extruder temp
M140 S80 ; set bed temp
M190 S80 ; wait for bed temp
M109 S275.0 ; wait for extruder temp
G28 W ; home all without mesh bed level
G80 ; mesh bed leveling
G92 E0.0 ; reset extruder distance position
G1 Y-3.0 F1000.0 ; go outside print area
G1 X60.0 E9.0 F1000.0 ; intro line
G1 X100.0 E21.5 F1000.0 ; intro line
G92 E0.0 ; reset extruder distance position
G92 E0
G92 E0
G1 F2100 E-0.8
;LAYER_COUNT:80
;LAYER:0
M107
G0 F3600 X112.371 Y99.391 Z0.2
;TYPE:SKIRT
G1 F2100 E0
G1 F1800 X113.007 Y98.809 E0.02867
G1 X113.198 Y98.666 E0.03661
G1 X113.695 Y98.343 E0.05632
G1 X114.232 Y98.09 E0.07607
G1 X115.037 Y97.861 E0.1039
G1 X115.178 Y97.835 E0.10867
G1 X115.888 Y97.763 E0.13241
G1 X117.031 Y97.741 E0.17043
G1 X130.49 Y97.742 E0.61808
G1 X132.423 Y97.749 E0.68237
G1 X133.384 Y97.742 E0.71434
G1 X133.984 Y97.751 E0.73429
G1 X134.507 Y97.791 E0.75174
G1 X134.744 Y97.823 E0.75969
G1 X135.325 Y97.941 E0.77941
G1 X135.884 Y98.137 E0.79912
G1 X136.413 Y98.406 E0.81885
G1 X136.958 Y98.782 E0.84088
G1 X137.412 Y99.164 E0.86061
G1 X137.811 Y99.603 E0.88034
G1 X138.146 Y100.092 E0.90006
G1 X138.413 Y100.621 E0.91977
G1 X138.658 Y101.35 E0.94534
G1 X138.787 Y101.929 E0.96507
G1 X138.837 Y102.508 E0.9844
G1 X138.859 Y103.632 E1.0218
G1 X138.859 Y106.739 E1.12513
G1 X138.848 Y107.477 E1.14968
G1 X138.799 Y108.068 E1.16941
G1 X138.596 Y108.88 E1.19725
G1 X138.505 Y109.137 E1.20631
G1 X138.27 Y109.681 E1.22602
G1 X137.963 Y110.189 E1.24577
G1 X137.592 Y110.651 E1.26547
G1 X136.997 Y111.188 E1.29213
G1 X136.805 Y111.332 E1.30011
G1 X136.308 Y111.655 E1.31983
G1 X135.772 Y111.908 E1.33954
G1 X134.963 Y112.139 E1.36752
G1 X134.822 Y112.165 E1.37229
G1 X134.112 Y112.237 E1.39603
G1 X132.97 Y112.259 E1.43402
G1 X116.639 Y112.258 E1.97719
G1 X116.032 Y112.249 E1.99738
G1 X115.496 Y112.208 E2.01526
G1 X115.264 Y112.176 E2.02305
G1 X114.683 Y112.055 E2.04279
G1 X114.124 Y111.858 E2.0625
G1 X113.597 Y111.587 E2.08221
G1 X113.119 Y111.264 E2.1014
G1 X112.658 Y110.891 E2.12112
G1 X112.252 Y110.459 E2.14084
G1 X111.907 Y109.977 E2.16056
G1 X111.63 Y109.452 E2.1803
G1 X111.399 Y108.829 E2.2024
G1 X111.245 Y108.256 E2.22213
G1 X111.163 Y107.493 E2.24766
G1 X111.141 Y106.368 E2.28508
G1 X111.141 Y103.244 E2.38899
G1 X111.151 Y102.542 E2.41234
G1 X111.2 Y101.951 E2.43206
G1 X111.384 Y101.191 E2.45807
G1 X111.477 Y100.917 E2.46769
G1 X111.705 Y100.369 E2.48743
G1 X112.005 Y99.858 E2.50714
G1 X112.371 Y99.391 E2.52688
G0 F3600 X112.722 Y99.6
G1 F1800 X113.247 Y99.129 E2.55034
G1 X113.438 Y98.986 E2.55827
G1 X113.913 Y98.68 E2.57706
G1 X114.427 Y98.444 E2.59588
G1 X115.11 Y98.254 E2.61946
G1 X115.251 Y98.228 E2.62422
G1 X115.896 Y98.163 E2.64579
G1 X117.031 Y98.141 E2.68354
G1 X130.488 Y98.142 E3.13112
G1 X132.424 Y98.149 E3.19552
G1 X133.378 Y98.142 E3.22725
G1 X133.978 Y98.151 E3.24721
G1 X134.69 Y98.219 E3.27099
G1 X135.244 Y98.334 E3.28981
G1 X135.775 Y98.526 E3.30859
G1 X136.275 Y98.791 E3.32742
G1 X136.722 Y99.105 E3.34558
G1 X137.154 Y99.47 E3.36439
G1 X137.529 Y99.893 E3.3832
G1 X137.842 Y100.364 E3.40201
G1 X138.085 Y100.874 E3.42079
G1 X138.274 Y101.464 E3.4414
G1 X138.396 Y102.016 E3.4602
G1 X138.437 Y102.516 E3.47689
G1 X138.459 Y103.632 E3.51401
G1 X138.459 Y106.733 E3.61715
G1 X138.448 Y107.471 E3.6417
G1 X138.399 Y108.034 E3.6605
G1 X138.219 Y108.746 E3.68493
G1 X138.128 Y109.003 E3.69399
G1 X137.902 Y109.521 E3.71279
G1 X137.605 Y110.003 E3.73162
G1 X137.243 Y110.437 E3.75042
G1 X136.757 Y110.868 E3.77202
G1 X136.565 Y111.012 E3.78001
G1 X136.09 Y111.318 E3.7988
G1 X135.576 Y111.555 E3.81762
G1 X134.89 Y111.746 E3.84131
G1 X134.749 Y111.772 E3.84608
G1 X134.104 Y111.837 E3.86764
G1 X132.97 Y111.859 E3.90536
G1 X116.645 Y111.858 E4.44833
G1 X116.038 Y111.849 E4.46853
G1 X115.318 Y111.779 E4.49259
G1 X114.765 Y111.663 E4.51138
G1 X114.234 Y111.469 E4.53018
G1 X113.562 Y111.087 E4.55589
G1 X113.349 Y110.937 E4.56456
G1 X112.911 Y110.58 E4.58335
G1 X112.528 Y110.165 E4.60213
G1 X112.207 Y109.699 E4.62095
G1 X111.867 Y108.962 E4.64795
G1 X111.777 Y108.699 E4.65719
G1 X111.633 Y108.153 E4.67598
G1 X111.563 Y107.485 E4.69832
G1 X111.541 Y106.368 E4.73547
G1 X111.541 Y103.25 E4.83918
G1 X111.551 Y102.548 E4.86253
G1 X111.599 Y101.985 E4.88132
G1 X111.763 Y101.319 E4.90414
G1 X111.856 Y101.045 E4.91376
G1 X112.075 Y100.524 E4.93256
G1 X112.366 Y100.039 E4.95137
G1 X112.722 Y99.6 E4.97017
G0 F3600 X113.071 Y99.813
G1 F1800 X113.486 Y99.449 E4.98853
G1 X113.677 Y99.306 E4.99646
G1 X114.129 Y99.018 E5.01429
G1 X114.619 Y98.799 E5.03214
G1 X115.182 Y98.648 E5.05153
G1 X115.323 Y98.622 E5.0563
G1 X115.904 Y98.563 E5.07572
G1 X117.031 Y98.541 E5.11321
G1 X130.487 Y98.542 E5.56076
G1 X132.426 Y98.549 E5.62525
G1 X133.372 Y98.542 E5.65672
G1 X133.972 Y98.551 E5.67668
G1 X134.637 Y98.615 E5.6989
G1 X135.161 Y98.727 E5.71672
G1 X135.664 Y98.914 E5.73457
G1 X136.281 Y99.278 E5.75839
G1 X136.486 Y99.428 E5.76684
G1 X136.894 Y99.776 E5.78468
G1 X137.246 Y100.181 E5.80252
G1 X137.533 Y100.633 E5.82033
G1 X137.812 Y101.313 E5.84478
G1 X137.89 Y101.577 E5.85394
G1 X138.004 Y102.101 E5.87177
G1 X138.037 Y102.524 E5.88588
G1 X138.059 Y103.632 E5.92274
G1 X138.059 Y106.727 E6.02568
G1 X138.048 Y107.465 E6.05023
G1 X138 Y107.999 E6.06806
G1 X137.842 Y108.613 E6.08915
G1 X137.751 Y108.87 E6.09822
G1 X137.534 Y109.36 E6.11604
G1 X137.248 Y109.814 E6.13389
G1 X136.897 Y110.219 E6.15171
G1 X136.517 Y110.548 E6.16843
G1 X136.325 Y110.692 E6.17641
G1 X135.873 Y110.981 E6.19426
G1 X135.383 Y111.2 E6.21211
G1 X134.818 Y111.352 E6.23157
G1 X134.677 Y111.378 E6.23634
G1 X134.096 Y111.437 E6.25576
G1 X132.97 Y111.459 E6.29322
G1 X116.651 Y111.458 E6.83599
G1 X116.044 Y111.449 E6.85618
G1 X115.373 Y111.383 E6.87861
G1 X114.849 Y111.271 E6.89643
G1 X114.347 Y111.081 E6.91428
G1 X113.792 Y110.76 E6.93561
G1 X113.579 Y110.61 E6.94427
G1 X113.165 Y110.27 E6.96209
G1 X112.806 Y109.871 E6.97994
G1 X112.51 Y109.424 E6.99777
G1 X112.246 Y108.833 E7.0193
G1 X112.156 Y108.57 E7.02855
G1 X112.021 Y108.051 E7.04638
G1 X111.963 Y107.477 E7.06557
G1 X111.941 Y106.368 E7.10247
G1 X111.941 Y103.256 E7.20597
G1 X111.951 Y102.554 E7.22932
G1 X111.999 Y102.02 E7.24715
G1 X112.142 Y101.448 E7.26677
G1 X112.235 Y101.174 E7.27639
G1 X112.445 Y100.68 E7.29424
G1 X112.725 Y100.223 E7.31207
G1 X113.071 Y99.813 E7.32991
G0 F3600 X113.418 Y100.032
G1 F1800 X113.917 Y99.626 E7.35131
G1 X114.345 Y99.356 E7.36814
G1 X114.809 Y99.157 E7.38493
G1 X115.396 Y99.015 E7.40502
G1 X115.912 Y98.963 E7.42227
G1 X117.031 Y98.941 E7.45949
G1 X130.485 Y98.942 E7.90697
G1 X132.427 Y98.949 E7.97157
G1 X133.366 Y98.942 E8.0028
G1 X133.966 Y98.951 E8.02276
G1 X134.583 Y99.012 E8.04338
G1 X135.077 Y99.119 E8.06019
G1 X135.548 Y99.302 E8.077
G1 X136.045 Y99.601 E8.09629
G1 X136.25 Y99.751 E8.10474
G1 X136.633 Y100.08 E8.12153
G1 X136.959 Y100.466 E8.13833
G1 X137.221 Y100.899 E8.15517
G1 X137.429 Y101.426 E8.17401
G1 X137.507 Y101.69 E8.18317
G1 X137.611 Y102.185 E8.19999
G1 X137.637 Y102.532 E8.21156
G1 X137.659 Y103.632 E8.24816
G1 X137.659 Y106.721 E8.3509
G1 X137.648 Y107.459 E8.37545
G1 X137.6 Y107.962 E8.39225
G1 X137.464 Y108.479 E8.41003
G1 X137.373 Y108.736 E8.4191
G1 X137.168 Y109.198 E8.43591
G1 X136.892 Y109.621 E8.45271
G1 X136.552 Y109.996 E8.46955
G1 X136.085 Y110.372 E8.48949
G1 X135.658 Y110.642 E8.50629
G1 X135.193 Y110.842 E8.52313
G1 X134.604 Y110.985 E8.54329
G1 X134.088 Y111.037 E8.56053
G1 X132.97 Y111.059 E8.59773
G1 X116.657 Y111.058 E9.1403
G1 X116.05 Y111.049 E9.16049
G1 X115.428 Y110.987 E9.18128
G1 X114.934 Y110.879 E9.1981
G1 X114.463 Y110.694 E9.21493
G1 X114.023 Y110.433 E9.23195
G1 X113.81 Y110.283 E9.24061
G1 X113.42 Y109.96 E9.25745
G1 X113.087 Y109.58 E9.27426
G1 X112.818 Y109.153 E9.29104
G1 X112.534 Y108.44 E9.31657
G1 X112.409 Y107.95 E9.33339
G1 X112.363 Y107.469 E9.34946
G1 X112.341 Y106.368 E9.38609
G1 X112.341 Y103.261 E9.48943
G1 X112.351 Y102.559 E9.51278
G1 X112.398 Y102.056 E9.52958
G1 X112.614 Y101.302 E9.55567
G1 X112.814 Y100.838 E9.57247
G1 X113.084 Y100.411 E9.58928
G1 X113.418 Y100.032 E9.60608
G1 F2100 E8.80608
;MESH:backpack-clips-15mm-chest-straight.stl
G0 F3600 X115.206 Y101.814
G0 X116.155 Y102.755
G0 X116.372 Y107.028
G0 X133.67 Y107.07
G1 F2100 E9.60608
G0 F3600 X133.6 Y107
;TYPE:WALL-INNER
G1 F1800 X133.6 Y102.742 E9.7477
G1 X133.859 Y102.742 E9.75631
G1 X133.859 Y107.259 E9.85511
G1 X116.141 Y107.258 E10.44441
G1 X116.141 Y102.741 E10.59465
G1 X130.4 Y102.742 E11.0689
G1 X130.4 Y103 E11.07749
G1 X116.4 Y103 E11.37841
G1 X116.4 Y107 E11.46153
G1 X133.6 Y107 E11.82891
G0 F3600 X133.2 Y106.6
;TYPE:WALL-OUTER
G1 F1800 X133.2 Y102.342 E11.97053
G1 X133.983 Y102.342 E11.99657
G1 X134.148 Y102.392 E12.00231
G1 X134.244 Y102.521 E12.00765
G1 X134.259 Y102.618 E12.01092
G1 X134.259 Y107.386 E12.1695
G1 X134.204 Y107.553 E12.17535
G1 X134.079 Y107.644 E12.18049
G1 X133.982 Y107.659 E12.18376
G1 X116.018 Y107.658 E12.78124
G1 X115.849 Y107.605 E12.78713
G1 X115.756 Y107.479 E12.79234
G1 X115.741 Y107.382 E12.79561
G1 X115.741 Y102.614 E12.95419
G1 X115.796 Y102.447 E12.96004
G1 X115.921 Y102.356 E12.96518
G1 X116.018 Y102.341 E12.96845
G1 X130.8 Y102.342 E13.4601
G1 X130.8 Y103.4 E13.49529
G1 X116.8 Y103.4 E13.96093
G1 X116.8 Y106.6 E14.06736
G1 X133.2 Y106.6 E14.61283
M104 S275
G0 F3600 X133.2 Y106.4
;MESH:NONMESH
G0 F600 X133.2 Y106.4 Z0.35
G0 F3600 X133.6 Y107
;TIME_ELAPSED:20.715114
;LAYER:1
M106 S255
;TYPE:WALL-INNER
;MESH:backpack-clips-15mm-chest-straight.stl
G1 F3300 X133.6 Y102.501 E14.72506
G1 X133.927 Y102.501 E14.73321
G1 X134.049 Y102.541 E14.73642
G1 X134.099 Y102.648 E14.73936
G1 X134.099 Y107.325 E14.85603
G1 X134.06 Y107.447 E14.85923
G1 X133.953 Y107.499 E14.86219
G1 X116.073 Y107.499 E15.30821
G1 X115.951 Y107.459 E15.31141
G1 X115.901 Y107.352 E15.31436
G1 X115.901 Y102.675 E15.43103
G1 X115.94 Y102.553 E15.43422
G1 X116.047 Y102.501 E15.43719
G1 X130.4 Y102.501 E15.79523
G1 X130.4 Y103 E15.80768
G1 X116.4 Y103 E16.15691
G1 X116.4 Y107 E16.25669
G1 X133.6 Y107 E16.68574
G0 F5400 X133.2 Y106.6
;TYPE:WALL-OUTER
G1 F2100 X133.2 Y102.101 E16.79797
G1 X133.989 Y102.101 E16.81765
G1 X134.297 Y102.201 E16.82573
G1 X134.472 Y102.446 E16.83324
G1 X134.499 Y102.618 E16.83758
G1 X134.499 Y107.389 E16.9566
G1 X134.401 Y107.692 E16.96454
G1 X134.156 Y107.872 E16.97213
G1 X133.982 Y107.899 E16.97652
G1 X116.011 Y107.899 E17.42481
G1 X115.703 Y107.799 E17.43288
G1 X115.528 Y107.554 E17.44039
G1 X115.501 Y107.382 E17.44474
G1 X115.501 Y102.611 E17.56375
G1 X115.599 Y102.308 E17.57169
G1 X115.844 Y102.128 E17.57928
G1 X116.018 Y102.101 E17.58367
G1 X130.8 Y102.101 E17.95241
G1 X130.8 Y103.4 E17.98481
G1 X116.8 Y103.4 E18.33404
G1 X116.8 Y106.6 E18.41387
G1 X133.2 Y106.6 E18.82297
G0 F5400 X133.2 Y106.4
G0 X133.7 Y106.4
G0 X133.662 Y107.319
;TYPE:SKIN
G1 F1800 X133.918 Y107.063 E18.832
G0 F5400 X133.779 Y106.636
G1 F1800 X133.918 Y106.498 E18.83689
G0 F5400 X133.779 Y106.07
G1 F1800 X133.918 Y105.932 E18.84177
G0 F5400 X133.779 Y105.505
G1 F1800 X133.918 Y105.366 E18.84667
G0 F5400 X133.779 Y104.939
G1 F1800 X133.918 Y104.801 E18.85156
G0 F5400 X133.779 Y104.373
G1 F1800 X133.918 Y104.235 E18.85645
G0 F5400 X133.779 Y103.808
G1 F1800 X133.918 Y103.669 E18.86135
G0 F5400 X133.779 Y103.242
G1 F1800 X133.918 Y103.103 E18.86625
G0 F5400 X133.628 Y107.028
G0 X116.372 Y107.028
G0 X116.372 Y102.972
G0 X129.816 Y102.68
G1 F1800 X129.676 Y102.82 E18.87119
G0 F5400 X129.25 Y102.68
G1 F1800 X129.11 Y102.82 E18.87613
G0 F5400 X128.684 Y102.68
G1 F1800 X128.544 Y102.82 E18.88107
G0 F5400 X128.119 Y102.68
G1 F1800 X127.979 Y102.82 E18.88601
G0 F5400 X127.553 Y102.68
G1 F1800 X127.413 Y102.82 E18.89095
G0 F5400 X126.987 Y102.68
G1 F1800 X126.847 Y102.82 E18.89589
G0 F5400 X126.422 Y102.68
G1 F1800 X126.282 Y102.82 E18.90083
G0 F5400 X125.856 Y102.68
G1 F1800 X125.716 Y102.82 E18.90576
G0 F5400 X125.29 Y102.68
G1 F1800 X125.15 Y102.82 E18.9107
G0 F5400 X124.725 Y102.68
G1 F1800 X124.585 Y102.82 E18.91564
G0 F5400 X124.159 Y102.68
G1 F1800 X124.019 Y102.82 E18.92058
G0 F5400 X123.593 Y102.68
G1 F1800 X123.453 Y102.82 E18.92552
G0 F5400 X123.028 Y102.68
G1 F1800 X122.888 Y102.82 E18.93046
G0 F5400 X122.462 Y102.68
G1 F1800 X122.322 Y102.82 E18.9354
G0 F5400 X121.896 Y102.68
G1 F1800 X121.756 Y102.82 E18.94034
G0 F5400 X121.331 Y102.68
G1 F1800 X121.191 Y102.82 E18.94528
G0 F5400 X120.765 Y102.68
G1 F1800 X120.625 Y102.82 E18.95021
G0 F5400 X120.199 Y102.68
G1 F1800 X120.059 Y102.82 E18.95515
G0 F5400 X119.633 Y102.68
G1 F1800 X119.493 Y102.82 E18.96009
G0 F5400 X119.068 Y102.68
G1 F1800 X118.928 Y102.82 E18.96503
G0 F5400 X118.502 Y102.68
G1 F1800 X118.362 Y102.82 E18.96997
G0 F5400 X117.936 Y102.68
G1 F1800 X117.796 Y102.82 E18.97491
G0 F5400 X117.371 Y102.68
G1 F1800 X117.231 Y102.82 E18.97985
G0 F5400 X116.805 Y102.68
G1 F1800 X116.665 Y102.82 E18.98479
G0 F5400 X116.239 Y102.68
G1 F1800 X116.08 Y102.839 E18.9904
G0 F5400 X116.219 Y103.266
G1 F1800 X116.08 Y103.405 E18.9953
G0 F5400 X116.219 Y103.832
G1 F1800 X116.08 Y103.97 E19.00019
G0 F5400 X116.219 Y104.397
G1 F1800 X116.08 Y104.536 E19.00509
G0 F5400 X116.219 Y104.963
G1 F1800 X116.08 Y105.102 E19.00999
G0 F5400 X116.219 Y105.529
G1 F1800 X116.08 Y105.667 E19.01488
G0 F5400 X116.219 Y106.095
G1 F1800 X116.08 Y106.233 E19.01976
G0 F5400 X116.219 Y106.66
G1 F1800 X116.08 Y106.799 E19.02467
G0 F5400 X116.266 Y107.179
G1 F1800 X116.126 Y107.319 E19.02961
G0 F5400 X116.692 Y107.319
G1 F1800 X116.831 Y107.179 E19.03453
G0 F5400 X117.258 Y107.319
G1 F1800 X117.397 Y107.179 E19.03945
G0 F5400 X117.823 Y107.319
G1 F1800 X117.963 Y107.179 E19.04439
G0 F5400 X118.389 Y107.319
G1 F1800 X118.528 Y107.179 E19.04931
G0 F5400 X118.955 Y107.319
G1 F1800 X119.094 Y107.179 E19.05423
G0 F5400 X119.52 Y107.319
G1 F1800 X119.66 Y107.179 E19.05917
G0 F5400 X120.086 Y107.319
G1 F1800 X120.225 Y107.179 E19.06409
G0 F5400 X120.652 Y107.319
G1 F1800 X120.791 Y107.179 E19.06901
G0 F5400 X121.217 Y107.319
G1 F1800 X121.357 Y107.179 E19.07395
G0 F5400 X121.783 Y107.319
G1 F1800 X121.922 Y107.179 E19.07887
G0 F5400 X122.349 Y107.319
G1 F1800 X122.488 Y107.179 E19.08379
G0 F5400 X122.914 Y107.319
G1 F1800 X123.054 Y107.179 E19.08873
G0 F5400 X123.48 Y107.319
G1 F1800 X123.619 Y107.179 E19.09365
G0 F5400 X124.046 Y107.319
G1 F1800 X124.185 Y107.179 E19.09858
G0 F5400 X124.612 Y107.319
G1 F1800 X124.751 Y107.179 E19.1035
G0 F5400 X125.177 Y107.319
G1 F1800 X125.316 Y107.179 E19.10842
G0 F5400 X125.743 Y107.319
G1 F1800 X125.882 Y107.179 E19.11334
G0 F5400 X126.309 Y107.319
G1 F1800 X126.448 Y107.179 E19.11826
G0 F5400 X126.874 Y107.319
G1 F1800 X127.014 Y107.179 E19.1232
G0 F5400 X127.44 Y107.319
G1 F1800 X127.579 Y107.179 E19.12812
G0 F5400 X128.006 Y107.319
G1 F1800 X128.145 Y107.179 E19.13304
G0 F5400 X128.571 Y107.319
G1 F1800 X128.711 Y107.179 E19.13798
G0 F5400 X129.137 Y107.319
G1 F1800 X129.276 Y107.179 E19.1429
G0 F5400 X129.703 Y107.319
G1 F1800 X129.842 Y107.179 E19.14782
G0 F5400 X130.268 Y107.319
G1 F1800 X130.408 Y107.179 E19.15276
G0 F5400 X130.834 Y107.319
G1 F1800 X130.973 Y107.179 E19.15768
G0 F5400 X131.4 Y107.319
G1 F1800 X131.539 Y107.179 E19.1626
G0 F5400 X131.965 Y107.319
G1 F1800 X132.105 Y107.179 E19.16754
G0 F5400 X132.531 Y107.319
G1 F1800 X132.67 Y107.179 E19.17247
G0 F5400 X133.097 Y107.319
G1 F1800 X133.236 Y107.179 E19.17739
G0 F5400 X133.236 Y107.099
;MESH:NONMESH
G0 F600 X133.236 Y107.099 Z0.5
G0 F5400 X133.6 Y107
;TIME_ELAPSED:29.553664
;LAYER:2
;TYPE:WALL-INNER
;MESH:backpack-clips-15mm-chest-straight.stl
G1 F4800 X133.6 Y102.388 E19.29243
G1 X134.065 Y102.406 E19.30404
G1 X134.163 Y102.493 E19.30731
G1 X134.212 Y102.668 E19.31184
G1 X134.211 Y107.352 E19.42869
G1 X134.121 Y107.551 E19.43413
G1 X133.953 Y107.612 E19.43859
G1 X116.047 Y107.612 E19.88526
