; generated by PrusaSlicer 2.9.3 on 2026-03-31 at 21:46:38 UTC


;
;
; 

; external perimeters extrusion width = 0.45mm
; perimeters extrusion width = 0.45mm
; infill extrusion width = 0.45mm
; solid infill extrusion width = 0.45mm
; top infill extrusion width = 0.40mm
; support material extrusion width = 0.35mm
; first layer extrusion width = 0.42mm

M73 P0 R148
M73 Q0 S150
M201 X1000 Y1000 Z200 E5000 ; sets maximum accelerations, mm/sec^2
M203 X200 Y200 Z12 E120 ; sets maximum feedrates, mm / sec
M204 S1250 T1250 ; sets acceleration (S) and retract acceleration (R), mm/sec^2
M205 X8.00 Y8.00 Z0.40 E4.50 ; sets the jerk limits, mm/sec
M205 S0 T0 ; sets the minimum extruding and travel feed rate, mm/sec

; printing object front-plate-tiny.stl id:0 copy 0
; stop printing object front-plate-tiny.stl id:0 copy 0

;TYPE:Custom
M862.3 P "MK3S" ; printer model check
M862.1 P0.4 ; nozzle diameter check
M115 U3.14.1 ; tell printer latest fw version
G90 ; use absolute coordinates
M83 ; extruder relative mode
M104 S215 ; set extruder temp
M140 S60 ; set bed temp
M190 S60 ; wait for bed temp
M109 S215 ; wait for extruder temp
G28 W ; home all without mesh bed level
G80 X41.2388 Y80.9353 W167.522 H48.1293 ; mesh bed levelling

G1 Z0.2 F720
G1 Y-3 F1000 ; go outside print area
G92 E0
G1 X60 E9 F1000 ; intro line
G1 X100 E12.5 F1000 ; intro line

G92 E0
M221 S95

; Don't change E values below. Excessive value can damage the printer.
M907 E430 ; set extruder motor current
G21 ; set units to millimeters
G90 ; use absolute coordinates
M83 ; use relative distances for extrusion

M900 K0.05 ; Filament gcode LA 1.5
M900 K30 ; Filament gcode LA 1.0




M107
;LAYER_CHANGE
;Z:0.2
;HEIGHT:0.2
G1 E-.8 F2100
G1 Z.6 F720
G1 X49.302 Y81.526 F10800
G1 Z.2 F720
G1 E.8 F2100
M204 S800
;TYPE:Skirt/Brim
;WIDTH:0.42
G1 F1200
G1 X50.193 Y81.193 E.02982
G1 X50.8 Y81.124 E.01915
G1 X201.542 Y81.151 E4.72641
G1 X202.459 Y81.404 E.02983
G1 X203.252 Y81.929 E.02982
G1 X203.844 Y82.672 E.02979
G1 X204.125 Y83.323 E.02223
G1 X208.494 Y99.168 E.51535
G1 X208.573 Y99.749 E.01838
G1 X208.573 Y119.479 E.61862
G1 X208.215 Y120.678 E.03923
G1 X203.725 Y127.533 E.25694
G1 X203.252 Y128.071 E.02246
G1 X202.698 Y128.474 E.02148
G1 X201.807 Y128.807 E.02982
G1 X201.2 Y128.876 E.01915
G1 X50.8 Y128.876 E4.71569
G1 X50.193 Y128.807 E.01915
G1 X49.302 Y128.474 E.02982
G1 X48.748 Y128.071 E.02148
G1 X48.238 Y127.474 E.02462
G1 X44.055 Y120.619 E.25179
G1 X43.756 Y119.788 E.02769
G1 X41.449 Y103.639 E.51148
G1 X41.427 Y92.828 E.33897
G1 X41.83 Y91.563 E.04163
G1 X48.32 Y82.401 E.35204
G1 X48.748 Y81.929 E.01998
G1 X49.254 Y81.561 E.01962
M204 S1000
;WIPE_START
G1 F8640
G1 X49.302 Y81.526 E-.01372
G1 X50.193 Y81.193 E-.21963
G1 X50.8 Y81.124 E-.14106
G1 X52.643 Y81.124 E-.42559
;WIPE_END
G1 Z.6 F720
; printing object front-plate-tiny.stl id:0 copy 0
G1 X206.384 Y119.479 F10800
G1 Z.2 F720
G1 E.8 F2100
M204 S800
;TYPE:Support material
G1 F1200
G1 X202.106 Y119.479 E.13413
G1 X202.106 Y99.749 E.61862
G1 X206.384 Y99.749 E.13413
G1 X206.384 Y119.422 E.61683
M204 S1000
G1 X205.863 Y119.309 F10800
M73 P0 R147
M204 S800
G1 F1200
G1 X205.863 Y100.089 E.60263
G1 X205.444 Y100.089 E.01314
G1 X205.444 Y119.139 E.5973
G1 X205.025 Y119.139 E.01314
G1 X205.025 Y100.089 E.5973
G1 X204.606 Y100.089 E.01314
G1 X204.606 Y119.139 E.5973
G1 X204.187 Y119.139 E.01314
G1 X204.187 Y100.089 E.5973
G1 X203.768 Y100.089 E.01314
G1 X203.768 Y119.139 E.5973
G1 X203.349 Y119.139 E.01314
G1 X203.349 Y100.089 E.5973
G1 X202.93 Y100.089 E.01314
G1 X202.93 Y119.139 E.5973
G1 X202.511 Y119.139 E.01314
G1 X202.511 Y99.919 E.60263
M204 S1000
;WIPE_START
G1 F8640
G1 X202.511 Y103.384 E-.8
;WIPE_END
G1 Z.6 F720
G1 X49.894 Y119.479 F10800
G1 Z.2 F720
G1 E.8 F2100
M204 S800
G1 F1200
G1 X45.923 Y119.479 E.12451
G1 X45.923 Y103.329 E.50637
G1 X43.616 Y103.329 E.07233
G1 X43.616 Y92.828 E.32925
G1 X45.923 Y92.828 E.07233
G1 X45.923 Y90.521 E.07233
G1 X49.894 Y90.521 E.12451
G1 X49.894 Y119.422 E.90617
M204 S1000
G1 X49.165 Y119.309 F10800
M204 S800
G1 F1200
G1 X49.165 Y90.861 E.89197
G1 X48.746 Y90.861 E.01314
G1 X48.746 Y119.139 E.88664
G1 X48.327 Y119.139 E.01314
G1 X48.327 Y90.861 E.88664
G1 X47.908 Y90.861 E.01314
M73 Q0 S149
G1 X47.908 Y119.139 E.88664
G1 X47.489 Y119.139 E.01314
G1 X47.489 Y90.861 E.88664
G1 X47.07 Y90.861 E.01314
G1 X47.07 Y119.139 E.88664
G1 X46.651 Y119.139 E.01314
G1 X46.651 Y90.861 E.88664
G1 X46.262 Y90.861 E.0122
G1 X46.232 Y102.99 E.3803
G1 X45.813 Y102.99 E.01314
G1 X45.813 Y93.168 E.30796
G1 X45.394 Y93.168 E.01314
G1 X45.394 Y102.99 E.30796
G1 X44.975 Y102.99 E.01314
G1 X44.975 Y93.168 E.30796
G1 X44.556 Y93.168 E.01314
G1 X44.556 Y102.99 E.30796
G1 X44.137 Y102.99 E.01314
G1 X44.137 Y92.998 E.31329
M204 S1000
;WIPE_START
G1 F8640
G1 X44.137 Y96.463 E-.8
;WIPE_END
G1 Z.6 F720
G1 X133.192 Y99.787 F10800
G1 Z.2 F720
G1 E.8 F2100
M204 S800
;TYPE:Perimeter
;WIDTH:0.438012
G1 F1200
G1 X132.859 Y99.672 E.01157
;WIDTH:0.407215
G1 X132.525 Y99.557 E.0107
M204 S1000
;WIPE_START
G1 F8640
G1 X132.859 Y99.672 E-.08156
G1 X133.192 Y99.787 E-.08135
;WIPE_END
G1 E-.63709 F2100
G1 Z.6 F720
G1 X131.767 Y111.045 F10800
G1 Z.2 F720
G1 E.8 F2100
M204 S800
;WIDTH:0.41447
G1 F1200
G1 X132.174 Y110.889 E.01347
;WIDTH:0.452518
G1 X132.581 Y110.733 E.01485
;WIDTH:0.490566
G1 X132.988 Y110.577 E.01622
;WIDTH:0.528614
G1 X133.395 Y110.42 E.01762
;WIDTH:0.535632
G1 X133.445 Y110.4 E.00221
M204 S1000
G1 X133.553 Y110.24 F10800
M204 S800
;WIDTH:0.497088
G1 F1200
G1 X133.522 Y110.286 E.00209
;WIDTH:0.535632
G1 X133.445 Y110.4 E.00564
G1 X133.6 Y110.369 E.00648
;WIDTH:0.497088
G1 X133.754 Y110.337 E.00594
;WIDTH:0.458544
G1 X133.909 Y110.306 E.00546
;WIDTH:0.419999
G1 X135.091 Y109.91 E.03909
G1 X135.474 Y109.919 E.01201
G1 X140.223 Y112.294 E.16648
G1 X140.423 Y112.569 E.01066
G1 X142.06 Y117.461 E.16174
G1 X142.085 Y117.704 E.00766
G1 X142.029 Y117.893 E.00618
G1 X139.728 Y122.509 E.16172
G1 X139.605 Y122.672 E.0064
G1 X139.401 Y122.793 E.00744
G1 X134.509 Y124.43 E.16174
G1 X134.33 Y124.459 E.00569
G1 X134.077 Y124.399 E.00815
G1 X129.461 Y122.098 E.16172
G1 X129.236 Y121.894 E.00952
G1 X128.876 Y120.872 E.03397
;WIDTH:0.446249
G1 X127.528 Y116.884 E.14118
;WIDTH:0.486732
G1 X127.498 Y116.817 E.00271
;WIDTH:0.527214
G1 X127.468 Y116.75 E.00296
;WIDTH:0.567696
G1 X127.437 Y116.683 E.00322
;WIDTH:0.576426
G1 X127.501 Y116.413 E.01231
G1 X127.573 Y116.319 E.00525
;WIDTH:0.530536
G1 X127.645 Y116.225 E.0048
;WIDTH:0.484645
G1 X127.844 Y115.863 E.01517
;WIDTH:0.452322
G1 X128.042 Y115.501 E.01405
;WIDTH:0.419999
G1 X129.833 Y111.91 E.12582
G1 X128.643 Y112.427 E.04068
G1 X128.21 Y112.435 E.01358
G1 X124.334 Y110.907 E.13063
;WIDTH:0.418327
G1 X123.784 Y110.685 E.01851
;WIDTH:0.443163
G1 X123.407 Y110.555 E.01327
G1 X123.1 Y110.244 E.01454
;WIDTH:0.419999
G1 X121.043 Y105.513 E.16175
G1 X120.999 Y105.224 E.00917
G1 X121.035 Y105.08 E.00465
G1 X122.716 Y100.813 E.1438
;WIDTH:0.442347
G1 X122.915 Y100.277 E.01899
;WIDTH:0.463609
G1 X123.048 Y100.062 E.00884
G1 X123.224 Y99.964 E.00705
;WIDTH:0.432817
G1 X127.524 Y98.101 E.15193
;WIDTH:0.419999
G1 X127.994 Y97.898 E.01605
G1 X128.39 Y97.905 E.01242
G1 X129.983 Y98.533 E.05369
G1 X127.6 Y94.144 E.15659
G1 X127.532 Y93.86 E.00916
G1 X127.555 Y93.714 E.00463
G1 X129.02 Y88.768 E.16174
G1 X129.182 Y88.51 E.00955
G1 X129.292 Y88.431 E.00425
G1 X133.826 Y85.97 E.16175
G1 X134.096 Y85.902 E.00873
G1 X134.256 Y85.925 E.00507
G1 X139.202 Y87.39 E.16174
G1 X139.41 Y87.503 E.00742
G1 X139.539 Y87.662 E.00642
G1 X141.784 Y91.797 E.14753
;WIDTH:0.462398
G1 X141.942 Y92.076 E.01118
;WIDTH:0.504797
G1 X142.1 Y92.354 E.01228
G1 X142.078 Y92.492 E.00537
;WIDTH:0.472808
G1 X142.055 Y92.629 E.00497
;WIDTH:0.440818
G1 X140.87 Y96.592 E.13685
;WIDTH:0.419999
G1 X140.58 Y97.572 E.03204
G1 X140.308 Y97.909 E.01358
;WIDTH:0.438238
G1 X139.574 Y98.317 E.0276
;WIDTH:0.465572
G1 X139.391 Y98.432 E.0076
;WIDTH:0.492905
G1 X139.207 Y98.547 E.00812
G1 X139.003 Y98.635 E.00831
;WIDTH:0.452138
G1 X135.774 Y100.37 E.12473
;WIDTH:0.419999
G1 X135.561 Y100.436 E.00699
G1 X135.344 Y100.415 E.00684
G1 X133.66 Y99.916 E.05507
;WIDTH:0.438012
G1 X133.192 Y99.787 E.01595
G1 X133.501 Y100.096 E.01436
;WIDTH:0.419999
G1 X135.557 Y104.827 E.16174
G1 X135.604 Y105.067 E.00767
G1 X135.565 Y105.26 E.00617
G1 X133.674 Y110.059 E.16173
;WIDTH:0.458544
G1 X133.598 Y110.173 E.00473
;WIDTH:0.497088
G1 X133.587 Y110.19 E.00076
M204 S1000
G1 X133.273 Y109.973 F10800
M204 S800
;TYPE:External perimeter
;WIDTH:0.419999
G1 F1200
G1 X133.223 Y110.025 E.00226
G1 X131.625 Y110.72 E.05464
;WIDTH:0.469767
G1 X131.513 Y110.796 E.0048
;WIDTH:0.519534
G1 X131.401 Y110.872 E.00536
;WIDTH:0.569301
G1 X131.288 Y110.947 E.00594
G1 X130.711 Y111.183 E.02729
;WIDTH:0.542095
G1 X130.135 Y111.419 E.02584
;WIDTH:0.514888
G1 X129.952 Y111.482 E.0076
;WIDTH:0.483608
G1 X129.77 Y111.544 E.00705
;WIDTH:0.452327
G1 X128.493 Y112.082 E.04717
;WIDTH:0.419999
G1 X128.349 Y112.084 E.00452
G1 X123.549 Y110.194 E.16175
G1 X123.445 Y110.093 E.00455
G1 X121.388 Y105.363 E.16172
G1 X121.374 Y105.266 E.00307
G1 X123.276 Y100.419 E.16326
G1 X123.377 Y100.315 E.00455
G1 X128.107 Y98.258 E.16172
G1 X128.251 Y98.256 E.00452
;WIDTH:0.43208
G1 X130 Y98.938 E.06075
;WIDTH:0.46113
G1 X130.175 Y98.991 E.00636
;WIDTH:0.49018
G1 X130.35 Y99.045 E.00681
;WIDTH:0.529741
G1 X131.2 Y99.358 E.03667
;WIDTH:0.569301
G1 X132.05 Y99.672 E.03966
G1 X132.165 Y99.744 E.00594
;WIDTH:0.519534
G1 X132.28 Y99.816 E.00538
;WIDTH:0.469767
G1 X132.395 Y99.888 E.00482
;WIDTH:0.419999
G1 X133.051 Y100.146 E.0221
G1 X133.155 Y100.247 E.00455
G1 X135.212 Y104.977 E.16172
G1 X135.214 Y105.121 E.00452
G1 X133.324 Y109.921 E.16175
G1 X133.315 Y109.93 E.0004
M204 S1000
;WIPE_START
G1 F8640
G1 X133.273 Y109.973 E-.01388
G1 X133.223 Y110.025 E-.01666
G1 X131.625 Y110.72 E-.40237
G1 X131.513 Y110.796 E-.03125
G1 X131.401 Y110.872 E-.03125
G1 X131.288 Y110.947 E-.03132
G1 X130.711 Y111.183 E-.14394
G1 X130.192 Y111.396 E-.12933
;WIPE_END
G1 Z.6 F720
G1 X117.057 Y99.272 F10800
G1 Z.2 F720
G1 E.8 F2100
M204 S800
;WIDTH:0.414962
G1 F1200
G1 X116.685 Y98.929 E.01565
;WIDTH:0.41305
G1 X116.656 Y98.904 E.00118
;WIDTH:0.419999
G1 X116.247 Y98.625 E.01552
G1 X115.492 Y97.945 E.03186
G1 X113.371 Y95.715 E.0965
G1 X113.319 Y95.58 E.00454
G1 X113.455 Y90.424 E.16172
G1 X113.513 Y90.292 E.00452
G1 X117.255 Y86.741 E.16175
G1 X117.39 Y86.689 E.00454
G1 X122.546 Y86.824 E.16172
G1 X122.678 Y86.883 E.00453
G1 X126.229 Y90.625 E.16175
G1 X126.281 Y90.76 E.00454
G1 X126.146 Y95.916 E.16172
G1 X126.087 Y96.048 E.00453
G1 X122.345 Y99.599 E.16175
G1 X122.21 Y99.651 E.00454
G1 X118.135 Y99.53 E.12782
G1 X117.62 Y99.457 E.01631
G1 X117.104 Y99.309 E.01683
M204 S1000
;WIPE_START
G1 F8640
G1 X117.057 Y99.272 E-.01381
G1 X116.685 Y98.929 E-.11684
G1 X116.656 Y98.904 E-.00884
G1 X116.247 Y98.625 E-.11432
G1 X115.492 Y97.945 E-.23462
G1 X114.562 Y96.967 E-.31157
;WIPE_END
G1 Z.6 F720
G1 X115.207 Y111.838 F10800
G1 Z.2 F720
G1 E.8 F2100
M204 S800
;WIDTH:0.472922
G1 F1200
G1 X115.136 Y111.842 E.00254
;WIDTH:0.432141
G1 X113.732 Y111.676 E.04576
;WIDTH:0.419999
G1 X110.011 Y111.252 E.11742
G1 X109.885 Y111.182 E.00452
G1 X106.674 Y107.145 E.16173
G1 X106.634 Y107.005 E.00457
G1 X107.218 Y101.881 E.1617
G1 X107.255 Y101.789 E.00311
G1 X111.325 Y98.544 E.16321
G1 X111.464 Y98.504 E.00454
G1 X115.015 Y98.912 E.11207
G1 X115.516 Y98.989 E.01589
G1 X116.021 Y99.113 E.0163
G1 X116.524 Y99.293 E.01675
;WIDTH:0.414962
G1 X116.881 Y99.649 E.0156
;WIDTH:0.419999
G1 X117.301 Y100.008 E.01732
G1 X117.698 Y100.415 E.01783
G1 X119.926 Y103.194 E.11168
G1 X119.966 Y103.334 E.00457
G1 X119.382 Y108.459 E.16173
G1 X119.312 Y108.585 E.00452
G1 X116.584 Y110.755 E.10929
;WIDTH:0.469767
G1 X116.496 Y110.857 E.00478
;WIDTH:0.519535
G1 X116.407 Y110.959 E.00536
;WIDTH:0.569303
G1 X116.318 Y111.062 E.00596
G1 X115.811 Y111.447 E.02786
;WIDTH:0.541503
G1 X115.304 Y111.833 E.02642
;WIDTH:0.513703
G1 X115.267 Y111.835 E.00145
M204 S1000
;WIPE_START
G1 F8640
G1 X115.207 Y111.838 E-.01387
G1 X115.136 Y111.842 E-.01642
G1 X113.732 Y111.676 E-.32645
G1 X111.825 Y111.459 E-.44326
;WIPE_END
G1 Z.6 F720
G1 X105.372 Y106.931 F10800
G1 Z.2 F720
G1 E.8 F2100
M204 S800
;TYPE:Perimeter
;WIDTH:0.419999
G1 F1200
G1 X105.361 Y107.019 E.00278
G1 X103.163 Y110.008 E.11633
G1 X102.822 Y110.417 E.0167
G1 X102.682 Y110.557 E.00621
G1 X103.31 Y110.464 E.01991
G1 X106.959 Y110.233 E.11464
G1 X107.369 Y110.374 E.01359
;WIDTH:0.459834
G1 X107.812 Y110.739 E.0199
;WIDTH:0.499668
G1 X108.254 Y111.104 E.02177
;WIDTH:0.539502
G1 X108.697 Y111.469 E.0237
;WIDTH:0.579336
G1 X109.14 Y111.834 E.0256
G1 X109.377 Y112.044 E.01412
G1 X109.441 Y112.127 E.00467
;WIDTH:0.53945
G1 X109.505 Y112.211 E.00436
;WIDTH:0.499633
G1 X109.57 Y112.294 E.004
;WIDTH:0.459816
G1 X109.634 Y112.378 E.00366
;WIDTH:0.419999
G1 X111.232 Y113.792 E.0669
G1 X111.326 Y113.898 E.00444
G1 X111.422 Y114.181 E.00937
G1 X111.737 Y119.33 E.16174
G1 X111.596 Y119.739 E.01356
G1 X108.178 Y123.602 E.16173
G1 X107.789 Y123.792 E.01357
G1 X102.64 Y124.107 E.16174
G1 X102.231 Y123.966 E.01356
G1 X98.368 Y120.548 E.16173
G1 X98.244 Y120.392 E.00625
G1 X98.178 Y120.159 E.00759
G1 X97.863 Y115.01 E.16174
G1 X98.005 Y114.6 E.0136
G1 X100.379 Y111.927 E.11209
G1 X100.657 Y111.652 E.01226
G1 X100.274 Y111.736 E.01229
G1 X96.754 Y112.269 E.11163
G1 X96.333 Y112.164 E.0136
G1 X92.187 Y109.096 E.16172
G1 X91.964 Y108.725 E.01357
G1 X91.201 Y103.623 E.16175
G1 X91.306 Y103.203 E.01357
G1 X94.374 Y99.057 E.16172
G1 X94.579 Y98.886 E.00837
G1 X94.745 Y98.834 E.00545
G1 X99.847 Y98.071 E.16175
G1 X100.103 Y98.092 E.00805
G1 X100.687 Y98.487 E.02211
G1 X104.414 Y101.244 E.14536
G1 X104.567 Y101.416 E.00722
G1 X104.675 Y101.876 E.01482
G1 X105.399 Y106.717 E.15347
G1 X105.38 Y106.872 E.0049
M204 S1000
G1 X105.008 Y106.843 F10800
M204 S800
;TYPE:External perimeter
G1 F1200
G1 X104.991 Y106.913 E.00226
G1 X102.86 Y109.783 E.11208
G1 X102.532 Y110.175 E.01603
G1 X102.151 Y110.525 E.01622
;WIDTH:0.391421
G1 X101.77 Y110.875 E.01499
;WIDTH:0.362843
G1 X101.694 Y110.915 E.00228
;WIDTH:0.389381
G1 X101.221 Y111.08 E.01443
;WIDTH:0.419999
G1 X100.749 Y111.244 E.01567
G1 X100.218 Y111.363 E.01706
G1 X96.698 Y111.896 E.11163
G1 X96.557 Y111.861 E.00456
G1 X92.411 Y108.793 E.16172
G1 X92.336 Y108.669 E.00454
G1 X91.574 Y103.567 E.16174
G1 X91.609 Y103.427 E.00452
G1 X94.677 Y99.281 E.16172
G1 X94.801 Y99.206 E.00454
G1 X99.903 Y98.444 E.16174
G1 X100.043 Y98.479 E.00452
G1 X104.189 Y101.547 E.16172
G1 X104.264 Y101.671 E.00454
G1 X105.026 Y106.773 E.16174
G1 X105.023 Y106.784 E.00036
M204 S1000
;WIPE_START
G1 F8640
G1 X105.008 Y106.843 E-.01406
G1 X104.991 Y106.913 E-.01663
G1 X103.005 Y109.588 E-.76931
;WIPE_END
G1 Z.6 F720
G1 X82.903 Y116.688 F10800
G1 Z.2 F720
G1 E.8 F2100
M204 S800
G1 F1200
G1 X82.908 Y116.616 E.00226
G1 X84.14 Y114.145 E.08657
G1 X84.591 Y113.239 E.03173
;WIDTH:0.452327
G1 X85.195 Y111.992 E.04717
;WIDTH:0.483159
G1 X85.24 Y111.93 E.0028
;WIDTH:0.51399
G1 X85.284 Y111.867 E.00301
;WIDTH:0.514888
G1 X85.303 Y111.86 E.00079
;WIDTH:0.542095
G1 X85.89 Y111.649 E.02589
;WIDTH:0.569302
G1 X86.477 Y111.438 E.0273
G1 X86.611 Y111.42 E.00592
;WIDTH:0.519535
G1 X86.745 Y111.401 E.00536
;WIDTH:0.469767
G1 X86.879 Y111.382 E.0048
;WIDTH:0.419999
G1 X90.21 Y110.268 E.11013
G1 X90.354 Y110.278 E.00453
G1 X94.971 Y112.58 E.16176
G1 X95.065 Y112.689 E.00451
G1 X96.702 Y117.58 E.16172
G1 X96.692 Y117.724 E.00453
G1 X94.39 Y122.341 E.16176
G1 X94.281 Y122.435 E.00451
G1 X89.39 Y124.072 E.16172
G1 X89.246 Y124.062 E.00453
G1 X84.629 Y121.76 E.16176
G1 X84.535 Y121.651 E.00451
G1 X82.898 Y116.76 E.16172
G1 X82.899 Y116.748 E.00038
M204 S1000
;WIPE_START
G1 F8640
G1 X82.903 Y116.688 E-.01388
G1 X82.908 Y116.616 E-.01667
G1 X84.14 Y114.145 E-.63755
G1 X84.395 Y113.634 E-.1319
;WIPE_END
G1 Z.6 F720
G1 X86.767 Y111.045 F10800
G1 Z.2 F720
G1 E.8 F2100
M204 S800
;TYPE:Perimeter
;WIDTH:0.41447
G1 F1200
G1 X87.174 Y110.889 E.01347
;WIDTH:0.452518
G1 X87.581 Y110.733 E.01485
;WIDTH:0.490566
G1 X87.988 Y110.577 E.01622
