; generated by PrusaSlicer 2.9.3 on 2025-11-23 at 22:16:01 UTC


;
;
; 

; external perimeters extrusion width = 0.45mm
; perimeters extrusion width = 0.45mm
; infill extrusion width = 0.45mm
; solid infill extrusion width = 0.45mm
; top infill extrusion width = 0.40mm
; support material extrusion width = 0.35mm
; first layer extrusion width = 0.42mm

M73 P0 R34
M73 Q0 S34
M201 X1000 Y1000 Z200 E5000 ; sets maximum accelerations, mm/sec^2
M203 X200 Y200 Z12 E120 ; sets maximum feedrates, mm / sec
M204 S1250 T1250 ; sets acceleration (S) and retract acceleration (R), mm/sec^2
M205 X8.00 Y8.00 Z0.40 E4.50 ; sets the jerk limits, mm/sec
M205 S0 T0 ; sets the minimum extruding and travel feed rate, mm/sec

; printing object pci-bracket.stl id:0 copy 0
; stop printing object pci-bracket.stl id:0 copy 0

;TYPE:Custom
M862.3 P "MK3S" ; printer model check
M862.1 P0.4 ; nozzle diameter check
M115 U3.14.1 ; tell printer latest fw version
G90 ; use absolute coordinates
M83 ; extruder relative mode
M104 S240 ; set extruder temp
M140 S85 ; set bed temp
M190 S85 ; wait for bed temp
M109 S240 ; wait for extruder temp
G28 W ; home all without mesh bed level
G80 X78.1521 Y87.9229 W93.6959 H38.5472 ; mesh bed levelling

G1 Z0.2 F720
G1 Y-3 F1000 ; go outside print area
G92 E0
G1 X60 E9 F1000 ; intro line
G1 X100 E12.5 F1000 ; intro line

G92 E0
M221 S95

; Don't change E values below. Excessive value can damage the printer.

M907 E538 ; set extruder motor current
G21 ; set units to millimeters
G90 ; use absolute coordinates
M83 ; use relative distances for extrusion

M900 K0.08 ; Filament gcode LA 1.5
M900 K45 ; Filament gcode LA 1.0




M107
;LAYER_CHANGE
;Z:0.2
;HEIGHT:0.2
G1 E-1 F2100
G1 Z.4 F720
G1 X79.608 Y97.764 F10800
G1 Z.2 F720
G1 E1 F2100
M204 S800
;TYPE:Skirt/Brim
;WIDTH:0.42
G1 F1200
G1 X99.963 Y88.315 E.70363
G1 X100.885 Y88.111 E.02961
G1 X162.885 Y88.111 E1.94397
G1 X164.133 Y88.502 E.04101
G1 X164.68 Y89.049 E.02425
G1 X171.266 Y98.498 E.36113
G1 X171.659 Y99.749 E.04111
G1 X171.659 Y124.093 E.76329
G1 X171.269 Y125.341 E.041
M73 P0 R33
G1 X170.236 Y126.144 E.04102
G1 X169.471 Y126.282 E.02437
G1 X158.59 Y126.248 E.34117
G1 X80.149 Y112.406 E2.49746
G1 X78.987 Y111.804 E.04103
G1 X78.341 Y110.251 E.05274
G1 X78.341 Y99.749 E.32928
G1 X78.731 Y98.501 E.041
G1 X79.562 Y97.803 E.03403
M204 S1000
;WIPE_START
G1 F8640
G1 X79.608 Y97.764 E-.01393
G1 X83.482 Y95.966 E-.98607
;WIPE_END
G1 Z.4 F720
; printing object pci-bracket.stl id:0 copy 0
G1 X169.471 Y124.093 F10800
G1 Z.2 F720
G1 E1 F2100
M204 S800
;TYPE:Support material
G1 F1200
G1 X158.97 Y124.093 E.32925
G1 X158.97 Y106.53 E.55068
M73 Q1 S34
G1 X163.954 Y106.53 E.15627
M73 P1 R33
G1 X164.235 Y106.249 E.01246
G1 X164.235 Y104.101 E.06735
G1 X163.954 Y103.82 E.01246
G1 X163.365 Y103.82 E.01847
G1 X163.365 Y99.749 E.12764
G1 X169.471 Y99.749 E.19145
G1 X169.471 Y124.036 E.7615
M204 S1000
G1 X168.993 Y123.923 F10800
M204 S800
G1 F1200
G1 X168.993 Y100.089 E.7473
G1 X168.574 Y100.089 E.01314
G1 X168.574 Y123.754 E.742
G1 X168.155 Y123.754 E.01314
G1 X168.155 Y100.089 E.742
G1 X167.736 Y100.089 E.01314
G1 X167.736 Y123.754 E.742
G1 X167.317 Y123.754 E.01314
G1 X167.317 Y100.089 E.742
G1 X166.898 Y100.089 E.01314
G1 X166.898 Y123.754 E.742
G1 X166.479 Y123.754 E.01314
G1 X166.479 Y100.089 E.742
G1 X166.06 Y100.089 E.01314
G1 X166.06 Y123.754 E.742
G1 X165.641 Y123.754 E.01314
G1 X165.641 Y100.089 E.742
G1 X165.222 Y100.089 E.01314
G1 X165.222 Y123.754 E.742
G1 X164.803 Y123.754 E.01314
G1 X164.803 Y100.089 E.742
G1 X164.384 Y100.089 E.01314
G1 X164.384 Y103.77 E.11542
G1 X164.094 Y103.481 E.01284
G1 X163.965 Y103.481 E.00404
G1 X163.965 Y99.919 E.11168
M204 S1000
G1 X164.384 Y123.923 F10800
M204 S800
G1 F1200
G1 X164.384 Y106.58 E.54378
G1 X164.094 Y106.869 E.01284
G1 X163.965 Y106.869 E.00404
G1 X163.965 Y123.754 E.52942
G1 X163.546 Y123.754 E.01314
G1 X163.546 Y106.869 E.52942
G1 X163.127 Y106.869 E.01314
M73 Q1 S33
G1 X163.127 Y123.754 E.52942
G1 X162.708 Y123.754 E.01314
M73 P2 R33
M73 Q2 S33
G1 X162.708 Y106.869 E.52942
G1 X162.289 Y106.869 E.01314
G1 X162.289 Y123.754 E.52942
G1 X161.87 Y123.754 E.01314
G1 X161.87 Y106.869 E.52942
G1 X161.451 Y106.869 E.01314
G1 X161.451 Y123.754 E.52942
G1 X161.032 Y123.754 E.01314
G1 X161.032 Y106.869 E.52942
G1 X160.613 Y106.869 E.01314
G1 X160.613 Y123.754 E.52942
G1 X160.194 Y123.754 E.01314
G1 X160.194 Y106.869 E.52942
G1 X159.775 Y106.869 E.01314
G1 X159.775 Y123.754 E.52942
G1 X159.356 Y123.754 E.01314
G1 X159.356 Y106.7 E.53472
M204 S1000
;WIPE_START
G1 F8640
G1 X159.356 Y111.031 E-1
;WIPE_END
G1 Z.4 F720
G1 X100.405 Y103.82 F10800
G1 Z.2 F720
G1 E1 F2100
M204 S800
G1 F1200
G1 X97.286 Y103.82 E.09779
G1 X97.005 Y104.101 E.01246
G1 X97.005 Y106.249 E.06735
G1 X97.286 Y106.53 E.01246
G1 X102.566 Y106.53 E.16555
G1 X102.566 Y110.251 E.11667
G1 X80.529 Y110.251 E.69095
G1 X80.529 Y99.749 E.32928
G1 X100.405 Y99.749 E.6232
G1 X100.405 Y103.763 E.12586
M204 S1000
;WIPE_START
G1 F8640
G1 X100.405 Y99.749 E-.92684
G1 X100.088 Y99.749 E-.07316
;WIPE_END
G1 Z.4 F720
G1 X101.956 Y110.081 F10800
G1 Z.2 F720
G1 E1 F2100
M204 S800
G1 F1200
G1 X101.956 Y106.869 E.10071
G1 X101.537 Y106.869 E.01314
G1 X101.537 Y109.911 E.09538
G1 X101.118 Y109.911 E.01314
G1 X101.118 Y106.869 E.09538
G1 X100.699 Y106.869 E.01314
G1 X100.699 Y109.911 E.09538
G1 X100.28 Y109.911 E.01314
G1 X100.28 Y106.869 E.09538
G1 X99.861 Y106.869 E.01314
G1 X99.861 Y109.911 E.09538
G1 X99.442 Y109.911 E.01314
G1 X99.442 Y106.869 E.09538
G1 X99.023 Y106.869 E.01314
G1 X99.023 Y109.911 E.09538
G1 X98.604 Y109.911 E.01314
G1 X98.604 Y106.869 E.09538
G1 X98.185 Y106.869 E.01314
G1 X98.185 Y109.911 E.09538
G1 X97.766 Y109.911 E.01314
G1 X97.766 Y106.869 E.09538
G1 X97.348 Y106.869 E.01311
G1 X97.348 Y109.911 E.09538
G1 X96.929 Y109.911 E.01314
G1 X96.929 Y106.652 E.10218
G1 X96.666 Y106.389 E.01166
G1 X96.666 Y103.961 E.07613
G1 X96.929 Y103.698 E.01166
G1 X96.929 Y100.089 E.11316
G1 X97.348 Y100.089 E.01314
G1 X97.348 Y103.481 E.10635
G1 X97.766 Y103.481 E.01311
G1 X97.766 Y100.089 E.10635
G1 X98.185 Y100.089 E.01314
G1 X98.185 Y103.481 E.10635
G1 X98.604 Y103.481 E.01314
G1 X98.604 Y100.089 E.10635
G1 X99.023 Y100.089 E.01314
G1 X99.023 Y103.481 E.10635
G1 X99.442 Y103.481 E.01314
G1 X99.442 Y100.089 E.10635
G1 X99.861 Y100.089 E.01314
G1 X99.861 Y103.65 E.11165
M204 S1000
;WIPE_START
G1 F8640
G1 X99.861 Y100.089 E-.82224
G1 X99.442 Y100.089 E-.09675
G1 X99.442 Y100.44 E-.08101
;WIPE_END
G1 Z.4 F720
G1 X96.51 Y110.081 F10800
G1 Z.2 F720
G1 E1 F2100
M204 S800
G1 F1200
G1 X96.51 Y100.089 E.31329
G1 X96.091 Y100.089 E.01314
G1 X96.091 Y109.911 E.30796
G1 X95.672 Y109.911 E.01314
G1 X95.672 Y100.089 E.30796
G1 X95.253 Y100.089 E.01314
G1 X95.253 Y109.911 E.30796
G1 X94.834 Y109.911 E.01314
G1 X94.834 Y100.089 E.30796
G1 X94.415 Y100.089 E.01314
G1 X94.415 Y109.911 E.30796
G1 X93.996 Y109.911 E.01314
M73 P3 R33
M73 Q3 S33
G1 X93.996 Y100.089 E.30796
G1 X93.577 Y100.089 E.01314
G1 X93.577 Y109.911 E.30796
G1 X93.158 Y109.911 E.01314
G1 X93.158 Y100.089 E.30796
G1 X92.739 Y100.089 E.01314
G1 X92.739 Y109.911 E.30796
G1 X92.32 Y109.911 E.01314
G1 X92.32 Y100.089 E.30796
G1 X91.901 Y100.089 E.01314
G1 X91.901 Y109.911 E.30796
G1 X91.482 Y109.911 E.01314
G1 X91.482 Y100.089 E.30796
G1 X91.063 Y100.089 E.01314
G1 X91.063 Y109.911 E.30796
G1 X90.644 Y109.911 E.01314
G1 X90.644 Y100.089 E.30796
G1 X90.225 Y100.089 E.01314
G1 X90.225 Y109.911 E.30796
G1 X89.806 Y109.911 E.01314
G1 X89.806 Y100.089 E.30796
G1 X89.387 Y100.089 E.01314
G1 X89.387 Y109.911 E.30796
G1 X88.968 Y109.911 E.01314
G1 X88.968 Y100.089 E.30796
G1 X88.549 Y100.089 E.01314
G1 X88.549 Y109.911 E.30796
G1 X88.13 Y109.911 E.01314
G1 X88.13 Y100.089 E.30796
G1 X87.711 Y100.089 E.01314
G1 X87.711 Y109.911 E.30796
G1 X87.292 Y109.911 E.01314
G1 X87.292 Y100.089 E.30796
G1 X86.873 Y100.089 E.01314
G1 X86.873 Y109.911 E.30796
G1 X86.454 Y109.911 E.01314
G1 X86.454 Y100.089 E.30796
G1 X86.035 Y100.089 E.01314
G1 X86.035 Y109.911 E.30796
G1 X85.616 Y109.911 E.01314
M73 P3 R32
G1 X85.616 Y100.089 E.30796
G1 X85.197 Y100.089 E.01314
G1 X85.197 Y109.911 E.30796
G1 X84.778 Y109.911 E.01314
G1 X84.778 Y100.089 E.30796
G1 X84.359 Y100.089 E.01314
G1 X84.359 Y109.911 E.30796
G1 X83.94 Y109.911 E.01314
G1 X83.94 Y100.089 E.30796
G1 X83.521 Y100.089 E.01314
G1 X83.521 Y109.911 E.30796
G1 X83.102 Y109.911 E.01314
G1 X83.102 Y100.089 E.30796
G1 X82.683 Y100.089 E.01314
G1 X82.683 Y109.911 E.30796
G1 X82.264 Y109.911 E.01314
G1 X82.264 Y100.089 E.30796
G1 X81.845 Y100.089 E.01314
G1 X81.845 Y109.911 E.30796
G1 X81.426 Y109.911 E.01314
G1 X81.426 Y100.089 E.30796
G1 X81.007 Y100.089 E.01314
G1 X81.007 Y110.081 E.31329
M204 S1000
;WIPE_START
G1 F8640
G1 X81.007 Y105.75 E-1
;WIPE_END
G1 Z.4 F720
G1 X105.009 Y94.325 F10800
G1 Z.2 F720
G1 E1 F2100
M204 S800
;TYPE:Perimeter
;WIDTH:0.419999
G1 F1200
G1 X105.309 Y94.36 E.00947
G1 X105.665 Y94.474 E.01172
G1 X105.993 Y94.653 E.01172
G1 X106.282 Y94.89 E.01172
G1 X106.523 Y95.179 E.0118
G1 X106.714 Y95.531 E.01256
G1 X106.845 Y95.98 E.01467
G1 X106.87 Y96.353 E.01172
G1 X106.825 Y96.724 E.01172
G1 X106.711 Y97.08 E.01172
G1 X106.532 Y97.408 E.01172
G1 X106.295 Y97.697 E.01172
G1 X105.993 Y97.946 E.01227
G1 X105.566 Y98.165 E.01505
G1 X105.205 Y98.26 E.0117
G1 X104.832 Y98.285 E.01172
G1 X104.443 Y98.234 E.0123
G1 X103.992 Y98.073 E.01501
G1 X103.675 Y97.874 E.01174
G1 X103.402 Y97.62 E.01169
G1 X103.181 Y97.319 E.01171
G1 X103.02 Y96.981 E.01174
G1 X102.925 Y96.62 E.0117
G1 X102.9 Y96.247 E.01172
G1 X102.945 Y95.876 E.01172
G1 X103.059 Y95.52 E.01172
G1 X103.238 Y95.192 E.01172
G1 X103.475 Y94.903 E.01172
G1 X103.761 Y94.663 E.01171
G1 X104.088 Y94.481 E.01173
G1 X104.459 Y94.362 E.01222
G1 X104.925 Y94.315 E.01469
G1 X104.95 Y94.318 E.00079
M204 S1000
G1 X104.986 Y94.7 F10800
M204 S800
;TYPE:External perimeter
G1 F1200
G1 X105.204 Y94.722 E.00687
G1 X105.494 Y94.81 E.0095
G1 X105.762 Y94.951 E.00949
G1 X106 Y95.139 E.00951
G1 X106.198 Y95.369 E.00952
G1 X106.355 Y95.647 E.01001
G1 X106.469 Y96.016 E.01211
G1 X106.494 Y96.318 E.0095
G1 X106.463 Y96.619 E.00949
G1 X106.375 Y96.909 E.0095
G1 X106.234 Y97.177 E.00949
G1 X106.046 Y97.415 E.00951
G1 X105.811 Y97.616 E.0097
G1 X105.461 Y97.803 E.01244
G1 X105.169 Y97.884 E.0095
G1 X104.867 Y97.909 E.0095
G1 X104.56 Y97.876 E.00968
G1 X104.184 Y97.749 E.01244
G1 X103.925 Y97.592 E.0095
G1 X103.7 Y97.389 E.0095
G1 X103.517 Y97.147 E.00951
G1 X103.382 Y96.876 E.00949
G1 X103.301 Y96.584 E.0095
G1 X103.276 Y96.282 E.0095
G1 X103.307 Y95.981 E.00949
G1 X103.395 Y95.691 E.0095
G1 X103.536 Y95.423 E.00949
G1 X103.724 Y95.185 E.00951
G1 X103.953 Y94.988 E.00947
G1 X104.216 Y94.836 E.00952
G1 X104.508 Y94.736 E.00968
G1 X104.891 Y94.691 E.01209
G1 X104.926 Y94.694 E.0011
M204 S1000
;WIPE_START
G1 F8640
G1 X104.986 Y94.7 E-.01392
G1 X105.204 Y94.722 E-.05059
G1 X105.494 Y94.81 E-.06998
G1 X105.762 Y94.951 E-.06992
G1 X106 Y95.139 E-.07003
G1 X106.198 Y95.369 E-.07008
G1 X106.355 Y95.647 E-.07372
G1 X106.469 Y96.016 E-.08918
G1 X106.494 Y96.318 E-.06997
G1 X106.463 Y96.619 E-.06987
G1 X106.375 Y96.909 E-.06998
G1 X106.234 Y97.177 E-.06992
G1 X106.046 Y97.415 E-.07003
G1 X105.811 Y97.616 E-.0714
G1 X105.538 Y97.762 E-.07141
;WIPE_END
G1 Z.4 F720
G1 X159.133 Y94.34 F10800
G1 Z.2 F720
G1 E1 F2100
M204 S800
;TYPE:Perimeter
G1 F1200
G1 X159.309 Y94.36 E.00555
G1 X159.665 Y94.474 E.01172
G1 X159.993 Y94.653 E.01172
G1 X160.282 Y94.89 E.01172
G1 X160.523 Y95.179 E.0118
G1 X160.714 Y95.531 E.01256
G1 X160.845 Y95.98 E.01467
G1 X160.87 Y96.353 E.01172
G1 X160.825 Y96.724 E.01172
G1 X160.711 Y97.08 E.01172
G1 X160.522 Y97.421 E.01222
G1 X160.214 Y97.774 E.01469
G1 X159.904 Y98.004 E.0121
G1 X159.566 Y98.165 E.01174
G1 X159.205 Y98.26 E.0117
G1 X158.832 Y98.285 E.01172
G1 X158.461 Y98.24 E.01172
G1 X158.105 Y98.126 E.01172
G1 X157.764 Y97.937 E.01222
G1 X157.411 Y97.629 E.01469
G1 X157.181 Y97.319 E.0121
G1 X157.02 Y96.981 E.01174
G1 X156.925 Y96.62 E.0117
G1 X156.9 Y96.247 E.01172
G1 X156.945 Y95.876 E.01172
G1 X157.059 Y95.52 E.01172
G1 X157.181 Y95.281 E.00841
G1 X157.475 Y94.903 E.01501
G1 X157.761 Y94.663 E.01171
G1 X158.088 Y94.481 E.01173
G1 X158.459 Y94.362 E.01222
G1 X158.925 Y94.315 E.01469
M73 P4 R32
G1 X159.073 Y94.333 E.00467
M204 S1000
G1 X159.086 Y94.711 F10800
M73 Q4 S33
M204 S800
;TYPE:External perimeter
G1 F1200
G1 X159.204 Y94.722 E.00372
G1 X159.494 Y94.81 E.0095
G1 X159.762 Y94.951 E.00949
G1 X160 Y95.139 E.00951
G1 X160.198 Y95.369 E.00952
G1 X160.355 Y95.647 E.01001
G1 X160.469 Y96.016 E.01211
G1 X160.494 Y96.318 E.0095
G1 X160.463 Y96.619 E.00949
G1 X160.375 Y96.909 E.0095
G1 X160.231 Y97.182 E.00968
G1 X159.982 Y97.477 E.0121
G1 X159.732 Y97.668 E.00986
G1 X159.461 Y97.803 E.00949
G1 X159.169 Y97.884 E.0095
G1 X158.867 Y97.909 E.0095
G1 X158.566 Y97.878 E.00949
G1 X158.276 Y97.79 E.0095
G1 X158.003 Y97.646 E.00968
G1 X157.708 Y97.397 E.0121
G1 X157.517 Y97.147 E.00986
G1 X157.382 Y96.876 E.00949
G1 X157.301 Y96.584 E.0095
G1 X157.276 Y96.282 E.0095
G1 X157.307 Y95.981 E.00949
G1 X157.395 Y95.691 E.0095
G1 X157.517 Y95.453 E.00839
G1 X157.724 Y95.185 E.01062
G1 X157.953 Y94.988 E.00947
G1 X158.216 Y94.836 E.00952
G1 X158.508 Y94.736 E.00968
G1 X158.891 Y94.691 E.01209
G1 X159.026 Y94.704 E.00425
M204 S1000
;WIPE_START
G1 F8640
G1 X159.086 Y94.711 E-.01395
G1 X159.204 Y94.722 E-.02736
G1 X159.494 Y94.81 E-.06998
G1 X159.762 Y94.951 E-.06992
G1 X160 Y95.139 E-.07003
G1 X160.198 Y95.369 E-.07008
G1 X160.355 Y95.647 E-.07372
G1 X160.469 Y96.016 E-.08918
G1 X160.494 Y96.318 E-.06997
G1 X160.463 Y96.619 E-.06987
G1 X160.375 Y96.909 E-.06998
G1 X160.231 Y97.182 E-.07127
G1 X159.982 Y97.477 E-.08914
G1 X159.732 Y97.668 E-.07264
G1 X159.461 Y97.803 E-.06991
G1 X159.448 Y97.806 E-.003
;WIPE_END
G1 Z.4 F720
G1 X98.36 Y105.175 F10800
G1 Z.2 F720
G1 E1 F2100
M204 S800
;TYPE:Perimeter
;WIDTH:0.595842
G1 F1200
G1 X101.106 Y105.175 E.12625
;WIDTH:0.605746
G1 X101.22 Y105.17 E.00534
M204 S1000
;WIPE_START
G1 F8640
G1 X101.106 Y105.175 E-.02635
G1 X98.36 Y105.175 E-.63406
;WIPE_END
G1 E-.33959 F2100
G1 Z.4 F720
G1 X105.157 Y91.087 F10800
G1 Z.2 F720
G1 E1 F2100
M204 S800
;WIDTH:0.419999
G1 F1200
G1 X108.098 Y91.087 E.09221
G1 X108.098 Y104.521 E.42121
G1 X108.211 Y104.861 E.01123
;WIDTH:0.46396
G1 X108.324 Y104.939 E.00481
;WIDTH:0.507921
G1 X108.437 Y105.018 E.00533
;WIDTH:0.551882
G1 X108.55 Y105.096 E.00581
;WIDTH:0.595842
G1 X108.664 Y105.175 E.00638
G1 X108.5 Y105.197 E.00761
;WIDTH:0.551882
G1 X108.337 Y105.219 E.00696
;WIDTH:0.507921
G1 X108.173 Y105.241 E.0064
;WIDTH:0.46396
G1 X108.01 Y105.263 E.00576
;WIDTH:0.419999
G1 X101.76 Y105.263 E.19596
;WIDTH:0.466436
G1 X101.625 Y105.24 E.00482
;WIDTH:0.512873
G1 X101.49 Y105.216 E.00536
;WIDTH:0.55931
G1 X101.355 Y105.193 E.00588
;WIDTH:0.605746
G1 X101.22 Y105.17 E.00641
G1 X101.305 Y105.093 E.00537
;WIDTH:0.55931
G1 X101.39 Y105.015 E.00495
;WIDTH:0.512873
G1 X101.474 Y104.938 E.00445
;WIDTH:0.466436
G1 X101.559 Y104.861 E.00404
;WIDTH:0.419999
G1 X101.672 Y104.521 E.01123
G1 X101.672 Y91.087 E.42121
G1 X105.097 Y91.087 E.10739
M204 S1000
;WIPE_START
G1 F8640
G1 X105.157 Y91.087 E-.01385
G1 X108.098 Y91.087 E-.67909
G1 X108.098 Y92.417 E-.30706
;WIPE_END
G1 Z.4 F720
G1 X159.419 Y91.087 F10800
G1 Z.2 F720
G1 E1 F2100
M204 S800
G1 F1200
G1 X162.098 Y91.087 E.084
G1 X162.098 Y104.521 E.42121
G1 X162.211 Y104.861 E.01123
;WIDTH:0.46396
G1 X162.324 Y104.939 E.00481
;WIDTH:0.507921
G1 X162.437 Y105.018 E.00533
;WIDTH:0.551882
G1 X162.55 Y105.096 E.00581
;WIDTH:0.595842
G1 X162.664 Y105.175 E.00638
G1 X162.5 Y105.197 E.00761
;WIDTH:0.551882
G1 X162.337 Y105.219 E.00696
;WIDTH:0.507921
G1 X162.173 Y105.241 E.0064
;WIDTH:0.46396
G1 X162.01 Y105.263 E.00576
;WIDTH:0.419999
G1 X155.76 Y105.263 E.19596
;WIDTH:0.466436
G1 X155.625 Y105.24 E.00482
;WIDTH:0.512873
G1 X155.49 Y105.216 E.00536
;WIDTH:0.55931
G1 X155.355 Y105.193 E.00588
;WIDTH:0.605746
G1 X155.22 Y105.17 E.00641
G1 X155.305 Y105.093 E.00537
;WIDTH:0.55931
G1 X155.39 Y105.015 E.00495
;WIDTH:0.512873
G1 X155.474 Y104.938 E.00445
;WIDTH:0.466436
