; generated by PrusaSlicer 2.9.3 on 2025-12-03 at 23:46:54 UTC


;
;
; 

; external perimeters extrusion width = 0.45mm
; perimeters extrusion width = 0.45mm
; infill extrusion width = 0.45mm
; solid infill extrusion width = 0.45mm
; top infill extrusion width = 0.40mm
; support material extrusion width = 0.35mm
; first layer extrusion width = 0.42mm

M73 P0 R32
M73 Q0 S33
M201 X1000 Y1000 Z200 E5000 ; sets maximum accelerations, mm/sec^2
M203 X200 Y200 Z12 E120 ; sets maximum feedrates, mm / sec
M204 S1250 T1250 ; sets acceleration (S) and retract acceleration (R), mm/sec^2
M205 X8.00 Y8.00 Z0.40 E4.50 ; sets the jerk limits, mm/sec
M205 S0 T0 ; sets the minimum extruding and travel feed rate, mm/sec

; printing object pci-bracket-asus-nic.stl id:0 copy 0
; stop printing object pci-bracket-asus-nic.stl id:0 copy 0

;TYPE:Custom
M862.3 P "MK3S" ; printer model check
M862.1 P0.4 ; nozzle diameter check
M115 U3.14.1 ; tell printer latest fw version
G90 ; use absolute coordinates
M83 ; extruder relative mode
M104 S240 ; set extruder temp
M140 S85 ; set bed temp
M190 S85 ; wait for bed temp
M109 S240 ; wait for extruder temp
G28 W ; home all without mesh bed level
G80 X78.1521 Y87.9229 W93.6959 H38.5472 ; mesh bed levelling

G1 Z0.2 F720
G1 Y-3 F1000 ; go outside print area
G92 E0
G1 X60 E9 F1000 ; intro line
G1 X100 E12.5 F1000 ; intro line

G92 E0
M221 S95

; Don't change E values below. Excessive value can damage the printer.

M907 E538 ; set extruder motor current
G21 ; set units to millimeters
G90 ; use absolute coordinates
M83 ; use relative distances for extrusion

M900 K0.08 ; Filament gcode LA 1.5
M900 K45 ; Filament gcode LA 1.0




M107
;LAYER_CHANGE
;Z:0.2
;HEIGHT:0.2
G1 E-1 F2100
G1 Z.4 F720
G1 X78.731 Y98.501 F10800
G1 Z.2 F720
G1 E1 F2100
M204 S800
;TYPE:Skirt/Brim
;WIDTH:0.42
G1 F1200
G1 X79.714 Y97.718 E.0394
G1 X103.27 Y88.269 E.79579
G1 X104.085 Y88.111 E.02603
G1 X159.985 Y88.111 E1.75271
G1 X161.53 Y88.749 E.05241
G1 X171.015 Y98.199 E.41981
G1 X171.659 Y99.749 E.05263
G1 X171.659 Y124.093 E.76329
G1 X171.269 Y125.341 E.041
G1 X170.236 Y126.144 E.04102
G1 X169.471 Y126.282 E.02437
G1 X158.59 Y126.248 E.34117
G1 X80.149 Y112.406 E2.49746
G1 X78.987 Y111.804 E.04103
M73 Q0 S32
G1 X78.341 Y110.251 E.05274
G1 X78.341 Y99.749 E.32928
G1 X78.714 Y98.559 E.0391
M204 S1000
;WIPE_START
G1 F8640
G1 X78.731 Y98.501 E-.01396
G1 X79.714 Y97.718 E-.29018
G1 X82.511 Y96.596 E-.69586
;WIPE_END
G1 Z.4 F720
; printing object pci-bracket-asus-nic.stl id:0 copy 0
G1 X169.471 Y124.093 F10800
G1 Z.2 F720
M73 P1 R32
M73 Q1 S32
G1 E1 F2100
M204 S800
;TYPE:Support material
G1 F1200
G1 X158.97 Y124.093 E.32925
G1 X158.97 Y106.53 E.55068
G1 X163.954 Y106.53 E.15627
G1 X164.235 Y106.249 E.01246
G1 X164.235 Y104.101 E.06735
G1 X163.954 Y103.82 E.01246
G1 X160.465 Y103.82 E.1094
G1 X160.465 Y99.749 E.12764
G1 X169.471 Y99.749 E.28238
G1 X169.471 Y124.036 E.7615
M204 S1000
G1 X168.993 Y123.923 F10800
M204 S800
G1 F1200
G1 X168.993 Y100.089 E.7473
G1 X168.574 Y100.089 E.01314
G1 X168.574 Y123.754 E.742
G1 X168.155 Y123.754 E.01314
G1 X168.155 Y100.089 E.742
G1 X167.736 Y100.089 E.01314
G1 X167.736 Y123.754 E.742
G1 X167.317 Y123.754 E.01314
G1 X167.317 Y100.089 E.742
G1 X166.898 Y100.089 E.01314
G1 X166.898 Y123.754 E.742
G1 X166.479 Y123.754 E.01314
G1 X166.479 Y100.089 E.742
G1 X166.06 Y100.089 E.01314
G1 X166.06 Y123.754 E.742
G1 X165.641 Y123.754 E.01314
G1 X165.641 Y100.089 E.742
G1 X165.222 Y100.089 E.01314
G1 X165.222 Y123.754 E.742
G1 X164.803 Y123.754 E.01314
G1 X164.803 Y100.089 E.742
G1 X164.384 Y100.089 E.01314
G1 X164.384 Y103.77 E.11542
G1 X164.094 Y103.481 E.01284
G1 X163.965 Y103.481 E.00404
G1 X163.965 Y100.089 E.10635
G1 X163.546 Y100.089 E.01314
G1 X163.546 Y103.481 E.10635
G1 X163.127 Y103.481 E.01314
G1 X163.127 Y100.089 E.10635
G1 X162.708 Y100.089 E.01314
G1 X162.708 Y103.481 E.10635
G1 X162.289 Y103.481 E.01314
G1 X162.289 Y100.089 E.10635
G1 X161.87 Y100.089 E.01314
G1 X161.87 Y103.481 E.10635
G1 X161.451 Y103.481 E.01314
G1 X161.451 Y100.089 E.10635
G1 X161.032 Y100.089 E.01314
G1 X161.032 Y103.65 E.11165
M204 S1000
;WIPE_START
G1 F8640
G1 X161.032 Y100.089 E-.82224
G1 X161.451 Y100.089 E-.09675
G1 X161.451 Y100.44 E-.08101
;WIPE_END
G1 Z.4 F720
G1 X164.384 Y123.923 F10800
M73 Q2 S32
G1 Z.2 F720
M73 P2 R32
G1 E1 F2100
M204 S800
G1 F1200
G1 X164.384 Y106.58 E.54378
G1 X164.094 Y106.869 E.01284
G1 X163.965 Y106.869 E.00404
G1 X163.965 Y123.754 E.52942
G1 X163.546 Y123.754 E.01314
G1 X163.546 Y106.869 E.52942
G1 X163.127 Y106.869 E.01314
G1 X163.127 Y123.754 E.52942
G1 X162.708 Y123.754 E.01314
G1 X162.708 Y106.869 E.52942
G1 X162.289 Y106.869 E.01314
G1 X162.289 Y123.754 E.52942
G1 X161.87 Y123.754 E.01314
G1 X161.87 Y106.869 E.52942
G1 X161.451 Y106.869 E.01314
G1 X161.451 Y123.754 E.52942
G1 X161.032 Y123.754 E.01314
G1 X161.032 Y106.869 E.52942
G1 X160.613 Y106.869 E.01314
G1 X160.613 Y123.754 E.52942
G1 X160.194 Y123.754 E.01314
G1 X160.194 Y106.869 E.52942
G1 X159.775 Y106.869 E.01314
M73 P2 R31
G1 X159.775 Y123.754 E.52942
G1 X159.356 Y123.754 E.01314
G1 X159.356 Y106.7 E.53472
M204 S1000
;WIPE_START
G1 F8640
G1 X159.356 Y111.031 E-1
;WIPE_END
G1 Z.4 F720
G1 X146.4 Y103.82 F10800
G1 Z.2 F720
G1 E1 F2100
M204 S800
G1 F1200
G1 X117.442 Y103.82 E.90796
G1 X117.442 Y99.749 E.12764
G1 X146.4 Y99.749 E.90796
G1 X146.4 Y103.763 E.12586
M204 S1000
G1 X145.949 Y103.65 F10800
M204 S800
G1 F1200
G1 X145.949 Y100.089 E.11165
G1 X145.53 Y100.089 E.01314
G1 X145.53 Y103.481 E.10635
G1 X145.111 Y103.481 E.01314
G1 X145.111 Y100.089 E.10635
G1 X144.692 Y100.089 E.01314
G1 X144.692 Y103.481 E.10635
G1 X144.273 Y103.481 E.01314
G1 X144.273 Y100.089 E.10635
G1 X143.854 Y100.089 E.01314
G1 X143.854 Y103.481 E.10635
G1 X143.435 Y103.481 E.01314
G1 X143.435 Y100.089 E.10635
G1 X143.016 Y100.089 E.01314
G1 X143.016 Y103.481 E.10635
G1 X142.597 Y103.481 E.01314
G1 X142.597 Y100.089 E.10635
G1 X142.178 Y100.089 E.01314
G1 X142.178 Y103.481 E.10635
G1 X141.759 Y103.481 E.01314
G1 X141.759 Y100.089 E.10635
G1 X141.34 Y100.089 E.01314
G1 X141.34 Y103.481 E.10635
G1 X140.921 Y103.481 E.01314
G1 X140.921 Y100.089 E.10635
G1 X140.502 Y100.089 E.01314
G1 X140.502 Y103.481 E.10635
G1 X140.083 Y103.481 E.01314
G1 X140.083 Y100.089 E.10635
G1 X139.664 Y100.089 E.01314
G1 X139.664 Y103.481 E.10635
G1 X139.245 Y103.481 E.01314
G1 X139.245 Y100.089 E.10635
G1 X138.826 Y100.089 E.01314
G1 X138.826 Y103.481 E.10635
G1 X138.407 Y103.481 E.01314
G1 X138.407 Y100.089 E.10635
G1 X137.988 Y100.089 E.01314
G1 X137.988 Y103.481 E.10635
G1 X137.569 Y103.481 E.01314
M73 P3 R31
M73 Q3 S32
G1 X137.569 Y100.089 E.10635
G1 X137.15 Y100.089 E.01314
G1 X137.15 Y103.481 E.10635
G1 X136.731 Y103.481 E.01314
G1 X136.731 Y100.089 E.10635
G1 X136.312 Y100.089 E.01314
G1 X136.312 Y103.481 E.10635
G1 X135.893 Y103.481 E.01314
G1 X135.893 Y100.089 E.10635
G1 X135.474 Y100.089 E.01314
G1 X135.474 Y103.481 E.10635
G1 X135.055 Y103.481 E.01314
G1 X135.055 Y100.089 E.10635
G1 X134.636 Y100.089 E.01314
G1 X134.636 Y103.481 E.10635
G1 X134.217 Y103.481 E.01314
G1 X134.217 Y100.089 E.10635
G1 X133.799 Y100.089 E.01311
G1 X133.799 Y103.481 E.10635
G1 X133.38 Y103.481 E.01314
G1 X133.38 Y100.089 E.10635
G1 X132.961 Y100.089 E.01314
G1 X132.961 Y103.481 E.10635
G1 X132.542 Y103.481 E.01314
G1 X132.542 Y100.089 E.10635
G1 X132.123 Y100.089 E.01314
G1 X132.123 Y103.481 E.10635
G1 X131.704 Y103.481 E.01314
G1 X131.704 Y100.089 E.10635
G1 X131.285 Y100.089 E.01314
G1 X131.285 Y103.481 E.10635
G1 X130.866 Y103.481 E.01314
G1 X130.866 Y100.089 E.10635
G1 X130.447 Y100.089 E.01314
G1 X130.447 Y103.481 E.10635
G1 X130.028 Y103.481 E.01314
G1 X130.028 Y100.089 E.10635
G1 X129.609 Y100.089 E.01314
G1 X129.609 Y103.481 E.10635
G1 X129.19 Y103.481 E.01314
G1 X129.19 Y100.089 E.10635
G1 X128.771 Y100.089 E.01314
G1 X128.771 Y103.481 E.10635
G1 X128.352 Y103.481 E.01314
G1 X128.352 Y100.089 E.10635
G1 X127.933 Y100.089 E.01314
G1 X127.933 Y103.481 E.10635
G1 X127.514 Y103.481 E.01314
G1 X127.514 Y100.089 E.10635
G1 X127.095 Y100.089 E.01314
G1 X127.095 Y103.481 E.10635
G1 X126.676 Y103.481 E.01314
G1 X126.676 Y100.089 E.10635
G1 X126.257 Y100.089 E.01314
G1 X126.257 Y103.481 E.10635
G1 X125.838 Y103.481 E.01314
G1 X125.838 Y100.089 E.10635
G1 X125.419 Y100.089 E.01314
G1 X125.419 Y103.481 E.10635
G1 X125 Y103.481 E.01314
G1 X125 Y100.089 E.10635
G1 X124.581 Y100.089 E.01314
G1 X124.581 Y103.481 E.10635
G1 X124.162 Y103.481 E.01314
G1 X124.162 Y100.089 E.10635
G1 X123.743 Y100.089 E.01314
G1 X123.743 Y103.481 E.10635
G1 X123.324 Y103.481 E.01314
G1 X123.324 Y100.089 E.10635
G1 X122.905 Y100.089 E.01314
G1 X122.905 Y103.481 E.10635
G1 X122.486 Y103.481 E.01314
G1 X122.486 Y100.089 E.10635
G1 X122.067 Y100.089 E.01314
G1 X122.067 Y103.481 E.10635
G1 X121.648 Y103.481 E.01314
G1 X121.648 Y100.089 E.10635
G1 X121.229 Y100.089 E.01314
G1 X121.229 Y103.481 E.10635
G1 X120.81 Y103.481 E.01314
G1 X120.81 Y100.089 E.10635
G1 X120.391 Y100.089 E.01314
G1 X120.391 Y103.481 E.10635
G1 X119.972 Y103.481 E.01314
G1 X119.972 Y100.089 E.10635
G1 X119.553 Y100.089 E.01314
G1 X119.553 Y103.481 E.10635
G1 X119.134 Y103.481 E.01314
G1 X119.134 Y100.089 E.10635
G1 X118.715 Y100.089 E.01314
G1 X118.715 Y103.481 E.10635
G1 X118.296 Y103.481 E.01314
G1 X118.296 Y100.089 E.10635
G1 X117.877 Y100.089 E.01314
G1 X117.877 Y103.65 E.11165
M204 S1000
;WIPE_START
G1 F8640
G1 X117.877 Y100.089 E-.82224
G1 X118.296 Y100.089 E-.09675
G1 X118.296 Y100.44 E-.08101
;WIPE_END
G1 Z.4 F720
G1 X102.566 Y103.82 F10800
G1 Z.2 F720
G1 E1 F2100
M204 S800
G1 F1200
G1 X97.286 Y103.82 E.16555
G1 X97.005 Y104.101 E.01246
G1 X97.005 Y106.249 E.06735
G1 X97.286 Y106.53 E.01246
G1 X102.566 Y106.53 E.16555
G1 X102.566 Y110.251 E.11667
G1 X80.529 Y110.251 E.69095
G1 X80.529 Y99.749 E.32928
G1 X102.566 Y99.749 E.69095
G1 X102.566 Y103.763 E.12586
M204 S1000
;WIPE_START
G1 F8640
G1 X102.566 Y99.749 E-.92684
G1 X102.249 Y99.749 E-.07316
;WIPE_END
G1 Z.4 F720
G1 X101.956 Y110.081 F10800
G1 Z.2 F720
G1 E1 F2100
M204 S800
G1 F1200
G1 X101.956 Y106.869 E.10071
G1 X101.537 Y106.869 E.01314
G1 X101.537 Y109.911 E.09538
G1 X101.118 Y109.911 E.01314
G1 X101.118 Y106.869 E.09538
G1 X100.699 Y106.869 E.01314
G1 X100.699 Y109.911 E.09538
G1 X100.28 Y109.911 E.01314
G1 X100.28 Y106.869 E.09538
G1 X99.861 Y106.869 E.01314
G1 X99.861 Y109.911 E.09538
G1 X99.442 Y109.911 E.01314
G1 X99.442 Y106.869 E.09538
G1 X99.023 Y106.869 E.01314
G1 X99.023 Y109.911 E.09538
G1 X98.604 Y109.911 E.01314
G1 X98.604 Y106.869 E.09538
G1 X98.185 Y106.869 E.01314
M73 Q3 S31
G1 X98.185 Y109.911 E.09538
G1 X97.766 Y109.911 E.01314
G1 X97.766 Y106.869 E.09538
G1 X97.348 Y106.869 E.01311
G1 X97.348 Y109.911 E.09538
G1 X96.929 Y109.911 E.01314
G1 X96.929 Y106.652 E.10218
G1 X96.666 Y106.389 E.01166
G1 X96.666 Y103.961 E.07613
G1 X96.929 Y103.698 E.01166
G1 X96.929 Y100.089 E.11316
G1 X97.348 Y100.089 E.01314
G1 X97.348 Y103.481 E.10635
G1 X97.766 Y103.481 E.01311
G1 X97.766 Y100.089 E.10635
G1 X98.185 Y100.089 E.01314
G1 X98.185 Y103.481 E.10635
G1 X98.604 Y103.481 E.01314
G1 X98.604 Y100.089 E.10635
G1 X99.023 Y100.089 E.01314
G1 X99.023 Y103.481 E.10635
G1 X99.442 Y103.481 E.01314
G1 X99.442 Y100.089 E.10635
G1 X99.861 Y100.089 E.01314
G1 X99.861 Y103.481 E.10635
G1 X100.28 Y103.481 E.01314
G1 X100.28 Y100.089 E.10635
G1 X100.699 Y100.089 E.01314
G1 X100.699 Y103.481 E.10635
G1 X101.118 Y103.481 E.01314
M73 P4 R31
G1 X101.118 Y100.089 E.10635
G1 X101.537 Y100.089 E.01314
G1 X101.537 Y103.481 E.10635
G1 X101.956 Y103.481 E.01314
M73 Q4 S31
G1 X101.956 Y99.919 E.11168
M204 S1000
;WIPE_START
G1 F8640
G1 X101.956 Y103.481 E-.82248
G1 X101.537 Y103.481 E-.09675
G1 X101.537 Y103.131 E-.08077
;WIPE_END
G1 Z.4 F720
G1 X96.51 Y110.081 F10800
G1 Z.2 F720
G1 E1 F2100
M204 S800
G1 F1200
G1 X96.51 Y100.089 E.31329
G1 X96.091 Y100.089 E.01314
G1 X96.091 Y109.911 E.30796
G1 X95.672 Y109.911 E.01314
G1 X95.672 Y100.089 E.30796
G1 X95.253 Y100.089 E.01314
G1 X95.253 Y109.911 E.30796
G1 X94.834 Y109.911 E.01314
G1 X94.834 Y100.089 E.30796
G1 X94.415 Y100.089 E.01314
G1 X94.415 Y109.911 E.30796
G1 X93.996 Y109.911 E.01314
G1 X93.996 Y100.089 E.30796
G1 X93.577 Y100.089 E.01314
G1 X93.577 Y109.911 E.30796
G1 X93.158 Y109.911 E.01314
G1 X93.158 Y100.089 E.30796
G1 X92.739 Y100.089 E.01314
G1 X92.739 Y109.911 E.30796
G1 X92.32 Y109.911 E.01314
G1 X92.32 Y100.089 E.30796
G1 X91.901 Y100.089 E.01314
G1 X91.901 Y109.911 E.30796
G1 X91.482 Y109.911 E.01314
G1 X91.482 Y100.089 E.30796
G1 X91.063 Y100.089 E.01314
G1 X91.063 Y109.911 E.30796
G1 X90.644 Y109.911 E.01314
G1 X90.644 Y100.089 E.30796
G1 X90.225 Y100.089 E.01314
G1 X90.225 Y109.911 E.30796
G1 X89.806 Y109.911 E.01314
G1 X89.806 Y100.089 E.30796
G1 X89.387 Y100.089 E.01314
G1 X89.387 Y109.911 E.30796
G1 X88.968 Y109.911 E.01314
G1 X88.968 Y100.089 E.30796
G1 X88.549 Y100.089 E.01314
G1 X88.549 Y109.911 E.30796
G1 X88.13 Y109.911 E.01314
G1 X88.13 Y100.089 E.30796
G1 X87.711 Y100.089 E.01314
G1 X87.711 Y109.911 E.30796
G1 X87.292 Y109.911 E.01314
G1 X87.292 Y100.089 E.30796
G1 X86.873 Y100.089 E.01314
G1 X86.873 Y109.911 E.30796
G1 X86.454 Y109.911 E.01314
G1 X86.454 Y100.089 E.30796
G1 X86.035 Y100.089 E.01314
G1 X86.035 Y109.911 E.30796
G1 X85.616 Y109.911 E.01314
G1 X85.616 Y100.089 E.30796
G1 X85.197 Y100.089 E.01314
G1 X85.197 Y109.911 E.30796
G1 X84.778 Y109.911 E.01314
G1 X84.778 Y100.089 E.30796
G1 X84.359 Y100.089 E.01314
G1 X84.359 Y109.911 E.30796
G1 X83.94 Y109.911 E.01314
G1 X83.94 Y100.089 E.30796
G1 X83.521 Y100.089 E.01314
G1 X83.521 Y109.911 E.30796
G1 X83.102 Y109.911 E.01314
G1 X83.102 Y100.089 E.30796
G1 X82.683 Y100.089 E.01314
G1 X82.683 Y109.911 E.30796
G1 X82.264 Y109.911 E.01314
G1 X82.264 Y100.089 E.30796
G1 X81.845 Y100.089 E.01314
M73 P5 R31
G1 X81.845 Y109.911 E.30796
G1 X81.426 Y109.911 E.01314
G1 X81.426 Y100.089 E.30796
G1 X81.007 Y100.089 E.01314
M73 Q5 S31
G1 X81.007 Y110.081 E.31329
M204 S1000
;WIPE_START
G1 F8640
G1 X81.007 Y105.75 E-1
;WIPE_END
G1 Z.4 F720
G1 X146.4 Y110.251 F10800
G1 Z.2 F720
G1 E1 F2100
M204 S800
G1 F1200
G1 X117.442 Y110.251 E.90796
G1 X117.442 Y106.53 E.11667
G1 X146.4 Y106.53 E.90796
G1 X146.4 Y110.194 E.11488
M204 S1000
G1 X145.949 Y110.081 F10800
M204 S800
G1 F1200
G1 X145.949 Y106.869 E.10071
G1 X145.53 Y106.869 E.01314
G1 X145.53 Y109.911 E.09538
G1 X145.111 Y109.911 E.01314
G1 X145.111 Y106.869 E.09538
G1 X144.692 Y106.869 E.01314
G1 X144.692 Y109.911 E.09538
G1 X144.273 Y109.911 E.01314
G1 X144.273 Y106.869 E.09538
G1 X143.854 Y106.869 E.01314
G1 X143.854 Y109.911 E.09538
G1 X143.435 Y109.911 E.01314
G1 X143.435 Y106.869 E.09538
G1 X143.016 Y106.869 E.01314
G1 X143.016 Y109.911 E.09538
G1 X142.597 Y109.911 E.01314
G1 X142.597 Y106.869 E.09538
G1 X142.178 Y106.869 E.01314
G1 X142.178 Y109.911 E.09538
G1 X141.759 Y109.911 E.01314
G1 X141.759 Y106.869 E.09538
G1 X141.34 Y106.869 E.01314
G1 X141.34 Y109.911 E.09538
G1 X140.921 Y109.911 E.01314
G1 X140.921 Y106.869 E.09538
G1 X140.502 Y106.869 E.01314
G1 X140.502 Y109.911 E.09538
G1 X140.083 Y109.911 E.01314
G1 X140.083 Y106.869 E.09538
G1 X139.664 Y106.869 E.01314
G1 X139.664 Y109.911 E.09538
G1 X139.245 Y109.911 E.01314
G1 X139.245 Y106.869 E.09538
G1 X138.826 Y106.869 E.01314
G1 X138.826 Y109.911 E.09538
G1 X138.407 Y109.911 E.01314
G1 X138.407 Y106.869 E.09538
G1 X137.988 Y106.869 E.01314
G1 X137.988 Y109.911 E.09538
G1 X137.569 Y109.911 E.01314
G1 X137.569 Y106.869 E.09538
G1 X137.15 Y106.869 E.01314
G1 X137.15 Y109.911 E.09538
G1 X136.731 Y109.911 E.01314
G1 X136.731 Y106.869 E.09538
G1 X136.312 Y106.869 E.01314
G1 X136.312 Y109.911 E.09538
G1 X135.893 Y109.911 E.01314
G1 X135.893 Y106.869 E.09538
G1 X135.474 Y106.869 E.01314
M73 P5 R30
G1 X135.474 Y109.911 E.09538
G1 X135.055 Y109.911 E.01314
G1 X135.055 Y106.869 E.09538
G1 X134.636 Y106.869 E.01314
G1 X134.636 Y109.911 E.09538
G1 X134.217 Y109.911 E.01314
G1 X134.217 Y106.869 E.09538
G1 X133.799 Y106.869 E.01311
G1 X133.799 Y109.911 E.09538
G1 X133.38 Y109.911 E.01314
G1 X133.38 Y106.869 E.09538
G1 X132.961 Y106.869 E.01314
G1 X132.961 Y109.911 E.09538
