; generated by PrusaSlicer 2.9.3 on 2026-03-31 at 22:24:41 UTC


;
;
; 

; external perimeters extrusion width = 0.45mm
; perimeters extrusion width = 0.45mm
; infill extrusion width = 0.45mm
; solid infill extrusion width = 0.45mm
; top infill extrusion width = 0.40mm
; support material extrusion width = 0.35mm
; first layer extrusion width = 0.42mm

M73 P0 R62
M73 Q0 S64
M201 X1000 Y1000 Z200 E5000 ; sets maximum accelerations, mm/sec^2
M203 X200 Y200 Z12 E120 ; sets maximum feedrates, mm / sec
M204 S1250 T1250 ; sets acceleration (S) and retract acceleration (R), mm/sec^2
M205 X8.00 Y8.00 Z0.40 E4.50 ; sets the jerk limits, mm/sec
M205 S0 T0 ; sets the minimum extruding and travel feed rate, mm/sec

; printing object oneplus4-wall-bracket.stl id:0 copy 0
; stop printing object oneplus4-wall-bracket.stl id:0 copy 0

;TYPE:Custom
M862.3 P "MK3S" ; printer model check
M862.1 P0.4 ; nozzle diameter check
M115 U3.14.1 ; tell printer latest fw version
G90 ; use absolute coordinates
M83 ; extruder relative mode
M104 S215 ; set extruder temp
M140 S60 ; set bed temp
M190 S60 ; wait for bed temp
M109 S215 ; wait for extruder temp
G28 W ; home all without mesh bed level
G80 X80.4591 Y37.6229 W89.0818 H134.754 ; mesh bed levelling

G1 Z0.2 F720
G1 Y-3 F1000 ; go outside print area
G92 E0
G1 X60 E9 F1000 ; intro line
G1 X100 E12.5 F1000 ; intro line

G92 E0
M221 S95

; Don't change E values below. Excessive value can damage the printer.
M907 E430 ; set extruder motor current
G21 ; set units to millimeters
G90 ; use absolute coordinates
M83 ; use relative distances for extrusion

M900 K0.05 ; Filament gcode LA 1.5
M900 K30 ; Filament gcode LA 1.0




M107
;LAYER_CHANGE
;Z:0.2
;HEIGHT:0.2
G1 E-.8 F2100
G1 Z.6 F720
G1 X81.276 Y56.688 F10800
G1 Z.2 F720
G1 E.8 F2100
M204 S800
;TYPE:Skirt/Brim
;WIDTH:0.42
G1 F1200
G1 X99.189 Y38.466 E.80117
G1 X100.75 Y37.811 E.05308
G1 X145.25 Y37.811 E1.39527
G1 X146.649 Y38.317 E.04665
G1 X168.563 Y56.539 E.89361
G1 X169.352 Y58.222 E.05828
G1 X169.352 Y167.928 E3.43975
G1 X168.961 Y169.176 E.04101
M73 Q0 S63
G1 X167.37 Y170.106 E.05778
G1 X145.25 Y172.189 E.69663
G1 X100.75 Y172.189 E1.39527
G1 X82.585 Y170.102 E.5733
G1 X81.39 Y169.57 E.04101
G1 X80.648 Y167.928 E.0565
G1 X80.648 Y58.222 E3.43975
G1 X81.253 Y56.743 E.0501
M73 P0 R61
M204 S1000
;WIPE_START
G1 F8640
G1 X81.276 Y56.688 E-.01377
G1 X83.663 Y54.26 E-.78623
;WIPE_END
G1 Z.6 F720
; printing object oneplus4-wall-bracket.stl id:0 copy 0
G1 X167.164 Y167.928 F10800
G1 Z.2 F720
G1 E.8 F2100
M204 S800
;TYPE:Support material
G1 F1200
G1 X156.663 Y167.928 E.32925
G1 X156.663 Y164.48 E.10811
G1 X164.449 Y164.48 E.24412
G1 X164.73 Y164.199 E.01246
G1 X164.73 Y159.956 E.13304
G1 X165.686 Y159 E.04239
G1 X164.73 Y158.044 E.04239
G1 X164.73 Y153.801 E.13304
G1 X164.449 Y153.52 E.01246
G1 X156.663 Y153.52 E.24412
G1 X156.663 Y150.505 E.09453
G1 X167.164 Y150.505 E.32925
G1 X167.164 Y167.871 E.5445
M204 S1000
G1 X166.479 Y167.758 F10800
M204 S800
G1 F1200
G1 X166.479 Y150.845 E.5303
G1 X166.06 Y150.845 E.01314
G1 X166.06 Y167.588 E.52497
G1 X165.641 Y167.588 E.01314
G1 X165.641 Y159.526 E.25278
G1 X165.222 Y159.944 E.01856
G1 X165.222 Y167.588 E.23967
G1 X164.803 Y167.588 E.01314
G1 X164.803 Y164.606 E.0935
G1 X164.589 Y164.819 E.00947
G1 X164.384 Y164.819 E.00643
G1 X164.384 Y167.588 E.08682
G1 X163.965 Y167.588 E.01314
G1 X163.965 Y164.819 E.08682
G1 X163.546 Y164.819 E.01314
G1 X163.546 Y167.588 E.08682
G1 X163.127 Y167.588 E.01314
G1 X163.127 Y164.819 E.08682
G1 X162.708 Y164.819 E.01314
G1 X162.708 Y167.588 E.08682
G1 X162.289 Y167.588 E.01314
G1 X162.289 Y164.819 E.08682
G1 X161.87 Y164.819 E.01314
G1 X161.87 Y167.588 E.08682
G1 X161.451 Y167.588 E.01314
G1 X161.451 Y164.819 E.08682
G1 X161.032 Y164.819 E.01314
G1 X161.032 Y167.588 E.08682
G1 X160.613 Y167.588 E.01314
G1 X160.613 Y164.819 E.08682
G1 X160.194 Y164.819 E.01314
G1 X160.194 Y167.588 E.08682
G1 X159.775 Y167.588 E.01314
M73 P1 R61
G1 X159.775 Y164.819 E.08682
G1 X159.356 Y164.819 E.01314
G1 X159.356 Y167.588 E.08682
G1 X158.937 Y167.588 E.01314
G1 X158.937 Y164.819 E.08682
G1 X158.518 Y164.819 E.01314
M73 Q1 S63
G1 X158.518 Y167.588 E.08682
G1 X158.099 Y167.588 E.01314
G1 X158.099 Y164.819 E.08682
G1 X157.68 Y164.819 E.01314
G1 X157.68 Y167.588 E.08682
G1 X157.261 Y167.588 E.01314
G1 X157.261 Y164.65 E.09212
M204 S1000
;WIPE_START
G1 F8640
G1 X157.261 Y167.588 E-.67839
G1 X157.68 Y167.588 E-.09675
G1 X157.68 Y167.48 E-.02486
;WIPE_END
G1 Z.6 F720
G1 X165.641 Y158.714 F10800
G1 Z.2 F720
G1 E.8 F2100
M204 S800
G1 F1200
G1 X165.641 Y150.845 E.24673
G1 X165.222 Y150.845 E.01314
G1 X165.222 Y158.056 E.2261
G1 X165.069 Y157.903 E.00678
G1 X165.069 Y153.661 E.133
G1 X164.803 Y153.394 E.01182
G1 X164.803 Y150.845 E.07992
G1 X164.384 Y150.845 E.01314
G1 X164.384 Y153.181 E.07324
G1 X163.965 Y153.181 E.01314
G1 X163.965 Y150.845 E.07324
G1 X163.546 Y150.845 E.01314
G1 X163.546 Y153.181 E.07324
G1 X163.127 Y153.181 E.01314
G1 X163.127 Y150.845 E.07324
G1 X162.708 Y150.845 E.01314
G1 X162.708 Y153.181 E.07324
G1 X162.289 Y153.181 E.01314
G1 X162.289 Y150.845 E.07324
G1 X161.87 Y150.845 E.01314
G1 X161.87 Y153.181 E.07324
G1 X161.451 Y153.181 E.01314
G1 X161.451 Y150.845 E.07324
G1 X161.032 Y150.845 E.01314
G1 X161.032 Y153.181 E.07324
G1 X160.613 Y153.181 E.01314
G1 X160.613 Y150.845 E.07324
G1 X160.194 Y150.845 E.01314
G1 X160.194 Y153.181 E.07324
G1 X159.775 Y153.181 E.01314
G1 X159.775 Y150.845 E.07324
G1 X159.356 Y150.845 E.01314
G1 X159.356 Y153.181 E.07324
G1 X158.937 Y153.181 E.01314
G1 X158.937 Y150.845 E.07324
G1 X158.518 Y150.845 E.01314
G1 X158.518 Y153.181 E.07324
G1 X158.099 Y153.181 E.01314
G1 X158.099 Y150.845 E.07324
G1 X157.68 Y150.845 E.01314
G1 X157.68 Y153.181 E.07324
G1 X157.261 Y153.181 E.01314
G1 X157.261 Y150.675 E.07857
M204 S1000
;WIPE_START
G1 F8640
G1 X157.261 Y153.181 E-.57864
G1 X157.68 Y153.181 E-.09675
G1 X157.68 Y152.641 E-.12461
;WIPE_END
G1 Z.6 F720
G1 X93.337 Y153.52 F10800
G1 Z.2 F720
G1 E.8 F2100
M204 S800
G1 F1200
G1 X85.551 Y153.52 E.24412
G1 X85.27 Y153.801 E.01246
G1 X85.27 Y158.044 E.13304
G1 X84.314 Y159 E.04239
G1 X85.27 Y159.956 E.04239
G1 X85.27 Y164.199 E.13304
G1 X85.551 Y164.48 E.01246
G1 X93.337 Y164.48 E.24412
G1 X93.337 Y167.928 E.10811
G1 X82.836 Y167.928 E.32925
G1 X82.836 Y150.505 E.54629
G1 X93.337 Y150.505 E.32925
G1 X93.337 Y153.463 E.09275
M204 S1000
;WIPE_START
G1 F8640
G1 X93.337 Y150.505 E-.68301
G1 X92.83 Y150.505 E-.11699
;WIPE_END
G1 Z.6 F720
G1 X92.739 Y167.758 F10800
G1 Z.2 F720
G1 E.8 F2100
M204 S800
G1 F1200
G1 X92.739 Y164.819 E.09215
G1 X92.32 Y164.819 E.01314
G1 X92.32 Y167.588 E.08682
G1 X91.901 Y167.588 E.01314
G1 X91.901 Y164.819 E.08682
G1 X91.482 Y164.819 E.01314
G1 X91.482 Y167.588 E.08682
G1 X91.063 Y167.588 E.01314
G1 X91.063 Y164.819 E.08682
G1 X90.644 Y164.819 E.01314
G1 X90.644 Y167.588 E.08682
G1 X90.225 Y167.588 E.01314
G1 X90.225 Y164.819 E.08682
G1 X89.806 Y164.819 E.01314
G1 X89.806 Y167.588 E.08682
G1 X89.387 Y167.588 E.01314
G1 X89.387 Y164.819 E.08682
G1 X88.968 Y164.819 E.01314
G1 X88.968 Y167.588 E.08682
G1 X88.549 Y167.588 E.01314
G1 X88.549 Y164.819 E.08682
G1 X88.13 Y164.819 E.01314
G1 X88.13 Y167.588 E.08682
G1 X87.711 Y167.588 E.01314
G1 X87.711 Y164.819 E.08682
G1 X87.292 Y164.819 E.01314
G1 X87.292 Y167.588 E.08682
G1 X86.873 Y167.588 E.01314
G1 X86.873 Y164.819 E.08682
G1 X86.454 Y164.819 E.01314
G1 X86.454 Y167.588 E.08682
G1 X86.035 Y167.588 E.01314
G1 X86.035 Y164.819 E.08682
G1 X85.616 Y164.819 E.01314
G1 X85.616 Y167.588 E.08682
G1 X85.197 Y167.588 E.01314
G1 X85.197 Y164.606 E.0935
G1 X84.931 Y164.339 E.01182
G1 X84.931 Y160.097 E.133
G1 X84.778 Y159.944 E.00678
G1 X84.778 Y167.588 E.23967
G1 X84.359 Y167.588 E.01314
G1 X84.359 Y159.286 E.2603
M204 S1000
;WIPE_START
G1 F8640
G1 X84.359 Y162.751 E-.8
;WIPE_END
G1 Z.6 F720
G1 X92.739 Y153.35 F10800
G1 Z.2 F720
G1 E.8 F2100
M204 S800
G1 F1200
G1 X92.739 Y150.845 E.07854
G1 X92.32 Y150.845 E.01314
G1 X92.32 Y153.181 E.07324
G1 X91.901 Y153.181 E.01314
G1 X91.901 Y150.845 E.07324
G1 X91.482 Y150.845 E.01314
G1 X91.482 Y153.181 E.07324
G1 X91.063 Y153.181 E.01314
G1 X91.063 Y150.845 E.07324
G1 X90.644 Y150.845 E.01314
G1 X90.644 Y153.181 E.07324
G1 X90.225 Y153.181 E.01314
G1 X90.225 Y150.845 E.07324
G1 X89.806 Y150.845 E.01314
G1 X89.806 Y153.181 E.07324
G1 X89.387 Y153.181 E.01314
G1 X89.387 Y150.845 E.07324
G1 X88.968 Y150.845 E.01314
G1 X88.968 Y153.181 E.07324
G1 X88.549 Y153.181 E.01314
G1 X88.549 Y150.845 E.07324
G1 X88.13 Y150.845 E.01314
G1 X88.13 Y153.181 E.07324
G1 X87.711 Y153.181 E.01314
G1 X87.711 Y150.845 E.07324
G1 X87.292 Y150.845 E.01314
G1 X87.292 Y153.181 E.07324
G1 X86.873 Y153.181 E.01314
G1 X86.873 Y150.845 E.07324
G1 X86.454 Y150.845 E.01314
G1 X86.454 Y153.181 E.07324
G1 X86.035 Y153.181 E.01314
G1 X86.035 Y150.845 E.07324
G1 X85.616 Y150.845 E.01314
G1 X85.616 Y153.181 E.07324
G1 X85.411 Y153.181 E.00643
G1 X85.197 Y153.394 E.00947
G1 X85.197 Y150.845 E.07992
G1 X84.778 Y150.845 E.01314
G1 X84.778 Y158.056 E.2261
G1 X84.359 Y158.475 E.01858
G1 X84.359 Y150.845 E.23923
G1 X83.94 Y150.845 E.01314
G1 X83.94 Y167.588 E.52497
G1 X83.521 Y167.588 E.01314
G1 X83.521 Y150.675 E.5303
M204 S1000
;WIPE_START
G1 F8640
G1 X83.521 Y154.14 E-.8
;WIPE_END
G1 Z.6 F720
G1 X93.337 Y61.52 F10800
G1 Z.2 F720
G1 E.8 F2100
M204 S800
G1 F1200
G1 X85.551 Y61.52 E.24412
G1 X85.27 Y61.801 E.01246
G1 X85.27 Y66.044 E.13304
G1 X84.314 Y67 E.04239
G1 X85.27 Y67.956 E.04239
G1 X85.27 Y72.199 E.13304
G1 X85.551 Y72.48 E.01246
G1 X93.337 Y72.48 E.24412
G1 X93.337 Y75.644 E.0992
G1 X82.836 Y75.644 E.32925
G1 X82.836 Y58.222 E.54625
G1 X93.337 Y58.222 E.32925
G1 X93.337 Y61.463 E.10162
M204 S1000
;WIPE_START
G1 F8640
G1 X93.337 Y58.222 E-.74836
G1 X93.113 Y58.222 E-.05164
;WIPE_END
G1 Z.6 F720
G1 X92.739 Y75.475 F10800
G1 Z.2 F720
G1 E.8 F2100
M204 S800
G1 F1200
G1 X92.739 Y72.819 E.08328
G1 X92.32 Y72.819 E.01314
G1 X92.32 Y75.305 E.07795
G1 X91.901 Y75.305 E.01314
G1 X91.901 Y72.819 E.07795
G1 X91.482 Y72.819 E.01314
G1 X91.482 Y75.305 E.07795
G1 X91.063 Y75.305 E.01314
G1 X91.063 Y72.819 E.07795
G1 X90.644 Y72.819 E.01314
G1 X90.644 Y75.305 E.07795
G1 X90.225 Y75.305 E.01314
G1 X90.225 Y72.819 E.07795
G1 X89.806 Y72.819 E.01314
G1 X89.806 Y75.305 E.07795
G1 X89.387 Y75.305 E.01314
G1 X89.387 Y72.819 E.07795
G1 X88.968 Y72.819 E.01314
G1 X88.968 Y75.305 E.07795
G1 X88.549 Y75.305 E.01314
G1 X88.549 Y72.819 E.07795
G1 X88.13 Y72.819 E.01314
G1 X88.13 Y75.305 E.07795
G1 X87.711 Y75.305 E.01314
G1 X87.711 Y72.819 E.07795
G1 X87.292 Y72.819 E.01314
G1 X87.292 Y75.305 E.07795
G1 X86.873 Y75.305 E.01314
G1 X86.873 Y72.819 E.07795
G1 X86.454 Y72.819 E.01314
G1 X86.454 Y75.305 E.07795
G1 X86.035 Y75.305 E.01314
G1 X86.035 Y72.819 E.07795
G1 X85.616 Y72.819 E.01314
G1 X85.616 Y75.305 E.07795
G1 X85.197 Y75.305 E.01314
G1 X85.197 Y72.606 E.08463
G1 X84.931 Y72.339 E.01182
G1 X84.931 Y68.097 E.133
G1 X84.778 Y67.944 E.00678
G1 X84.778 Y75.305 E.2308
G1 X84.359 Y75.305 E.01314
G1 X84.359 Y67.286 E.25143
M204 S1000
;WIPE_START
G1 F8640
G1 X84.359 Y70.751 E-.8
;WIPE_END
G1 Z.6 F720
G1 X92.739 Y61.35 F10800
G1 Z.2 F720
G1 E.8 F2100
M204 S800
G1 F1200
G1 X92.739 Y58.561 E.08745
G1 X92.32 Y58.561 E.01314
G1 X92.32 Y61.181 E.08215
G1 X91.901 Y61.181 E.01314
G1 X91.901 Y58.561 E.08215
G1 X91.482 Y58.561 E.01314
G1 X91.482 Y61.181 E.08215
G1 X91.063 Y61.181 E.01314
G1 X91.063 Y58.561 E.08215
G1 X90.644 Y58.561 E.01314
G1 X90.644 Y61.181 E.08215
G1 X90.225 Y61.181 E.01314
G1 X90.225 Y58.561 E.08215
G1 X89.806 Y58.561 E.01314
G1 X89.806 Y61.181 E.08215
G1 X89.387 Y61.181 E.01314
G1 X89.387 Y58.561 E.08215
G1 X88.968 Y58.561 E.01314
G1 X88.968 Y61.181 E.08215
G1 X88.549 Y61.181 E.01314
G1 X88.549 Y58.561 E.08215
G1 X88.13 Y58.561 E.01314
G1 X88.13 Y61.181 E.08215
G1 X87.711 Y61.181 E.01314
G1 X87.711 Y58.561 E.08215
G1 X87.292 Y58.561 E.01314
G1 X87.292 Y61.181 E.08215
G1 X86.873 Y61.181 E.01314
G1 X86.873 Y58.561 E.08215
G1 X86.454 Y58.561 E.01314
G1 X86.454 Y61.181 E.08215
G1 X86.035 Y61.181 E.01314
G1 X86.035 Y58.561 E.08215
G1 X85.616 Y58.561 E.01314
G1 X85.616 Y61.181 E.08215
G1 X85.411 Y61.181 E.00643
M73 Q1 S62
G1 X85.197 Y61.394 E.00947
G1 X85.197 Y58.561 E.08883
G1 X84.778 Y58.561 E.01314
G1 X84.778 Y66.056 E.235
G1 X84.359 Y66.475 E.01858
G1 X84.359 Y58.561 E.24814
G1 X83.94 Y58.561 E.01314
G1 X83.94 Y75.305 E.525
G1 X83.521 Y75.305 E.01314
G1 X83.521 Y58.392 E.5303
M204 S1000
;WIPE_START
G1 F8640
G1 X83.521 Y61.857 E-.8
;WIPE_END
G1 Z.6 F720
G1 X167.164 Y75.644 F10800
M73 P2 R61
G1 Z.2 F720
G1 E.8 F2100
M204 S800
G1 F1200
G1 X156.663 Y75.644 E.32925
G1 X156.663 Y72.48 E.0992
M73 Q2 S62
G1 X164.449 Y72.48 E.24412
G1 X164.73 Y72.199 E.01246
G1 X164.73 Y67.956 E.13304
G1 X165.686 Y67 E.04239
G1 X164.73 Y66.044 E.04239
G1 X164.73 Y61.801 E.13304
G1 X164.449 Y61.52 E.01246
G1 X156.663 Y61.52 E.24412
G1 X156.663 Y58.222 E.10341
G1 X167.164 Y58.222 E.32925
G1 X167.164 Y75.588 E.5445
M204 S1000
G1 X166.479 Y75.475 F10800
M204 S800
G1 F1200
G1 X166.479 Y58.561 E.53033
G1 X166.06 Y58.561 E.01314
G1 X166.06 Y75.305 E.525
G1 X165.641 Y75.305 E.01314
G1 X165.641 Y67.525 E.24394
G1 X165.222 Y67.944 E.01858
G1 X165.222 Y75.305 E.2308
G1 X164.803 Y75.305 E.01314
G1 X164.803 Y72.606 E.08463
G1 X164.589 Y72.819 E.00947
G1 X164.384 Y72.819 E.00643
G1 X164.384 Y75.305 E.07795
G1 X163.965 Y75.305 E.01314
G1 X163.965 Y72.819 E.07795
G1 X163.546 Y72.819 E.01314
G1 X163.546 Y75.305 E.07795
G1 X163.127 Y75.305 E.01314
G1 X163.127 Y72.819 E.07795
G1 X162.708 Y72.819 E.01314
G1 X162.708 Y75.305 E.07795
G1 X162.289 Y75.305 E.01314
G1 X162.289 Y72.819 E.07795
G1 X161.87 Y72.819 E.01314
G1 X161.87 Y75.305 E.07795
G1 X161.451 Y75.305 E.01314
G1 X161.451 Y72.819 E.07795
G1 X161.032 Y72.819 E.01314
G1 X161.032 Y75.305 E.07795
G1 X160.613 Y75.305 E.01314
G1 X160.613 Y72.819 E.07795
G1 X160.194 Y72.819 E.01314
G1 X160.194 Y75.305 E.07795
G1 X159.775 Y75.305 E.01314
M73 P2 R60
G1 X159.775 Y72.819 E.07795
G1 X159.356 Y72.819 E.01314
G1 X159.356 Y75.305 E.07795
G1 X158.937 Y75.305 E.01314
G1 X158.937 Y72.819 E.07795
G1 X158.518 Y72.819 E.01314
G1 X158.518 Y75.305 E.07795
G1 X158.099 Y75.305 E.01314
G1 X158.099 Y72.819 E.07795
G1 X157.68 Y72.819 E.01314
G1 X157.68 Y75.305 E.07795
G1 X157.261 Y75.305 E.01314
G1 X157.261 Y72.65 E.08325
M204 S1000
;WIPE_START
G1 F8640
G1 X157.261 Y75.305 E-.61305
G1 X157.68 Y75.305 E-.09675
G1 X157.68 Y74.914 E-.0902
;WIPE_END
G1 Z.6 F720
G1 X165.641 Y66.714 F10800
G1 Z.2 F720
G1 E.8 F2100
M204 S800
G1 F1200
G1 X165.641 Y58.561 E.25563
G1 X165.222 Y58.561 E.01314
G1 X165.222 Y66.056 E.235
G1 X165.069 Y65.903 E.00678
G1 X165.069 Y61.661 E.133
G1 X164.803 Y61.394 E.01182
G1 X164.803 Y58.561 E.08883
G1 X164.384 Y58.561 E.01314
G1 X164.384 Y61.181 E.08215
G1 X163.965 Y61.181 E.01314
G1 X163.965 Y58.561 E.08215
G1 X163.546 Y58.561 E.01314
G1 X163.546 Y61.181 E.08215
G1 X163.127 Y61.181 E.01314
G1 X163.127 Y58.561 E.08215
G1 X162.708 Y58.561 E.01314
G1 X162.708 Y61.181 E.08215
G1 X162.289 Y61.181 E.01314
G1 X162.289 Y58.561 E.08215
G1 X161.87 Y58.561 E.01314
G1 X161.87 Y61.181 E.08215
G1 X161.451 Y61.181 E.01314
G1 X161.451 Y58.561 E.08215
G1 X161.032 Y58.561 E.01314
G1 X161.032 Y61.181 E.08215
G1 X160.613 Y61.181 E.01314
G1 X160.613 Y58.561 E.08215
G1 X160.194 Y58.561 E.01314
G1 X160.194 Y61.181 E.08215
G1 X159.775 Y61.181 E.01314
G1 X159.775 Y58.561 E.08215
G1 X159.356 Y58.561 E.01314
G1 X159.356 Y61.181 E.08215
G1 X158.937 Y61.181 E.01314
G1 X158.937 Y58.561 E.08215
G1 X158.518 Y58.561 E.01314
G1 X158.518 Y61.181 E.08215
G1 X158.099 Y61.181 E.01314
G1 X158.099 Y58.561 E.08215
G1 X157.68 Y58.561 E.01314
G1 X157.68 Y61.181 E.08215
G1 X157.261 Y61.181 E.01314
G1 X157.261 Y58.392 E.08745
M204 S1000
;WIPE_START
G1 F8640
G1 X157.261 Y61.181 E-.64399
G1 X157.68 Y61.181 E-.09675
G1 X157.68 Y60.924 E-.05926
;WIPE_END
G1 Z.6 F720
G1 X135.862 Y154.605 F10800
G1 Z.2 F720
G1 E.8 F2100
M204 S800
;TYPE:Perimeter
;WIDTH:0.419999
G1 F1200
G1 X135.785 Y154.692 E.00364
G1 X135.564 Y154.779 E.00745
G1 X135.471 Y154.787 E.00293
G1 X110.529 Y154.787 E.78204
