; generated by PrusaSlicer 2.9.3 on 2025-12-04 at 17:47:16 UTC


;
;
; 

; external perimeters extrusion width = 0.45mm
; perimeters extrusion width = 0.45mm
; infill extrusion width = 0.45mm
; solid infill extrusion width = 0.45mm
; top infill extrusion width = 0.40mm
; support material extrusion width = 0.35mm
; first layer extrusion width = 0.42mm

M73 P0 R44
M73 Q0 S44
M201 X1000 Y1000 Z200 E5000 ; sets maximum accelerations, mm/sec^2
M203 X200 Y200 Z12 E120 ; sets maximum feedrates, mm / sec
M204 S1250 T1250 ; sets acceleration (S) and retract acceleration (R), mm/sec^2
M205 X8.00 Y8.00 Z0.40 E4.50 ; sets the jerk limits, mm/sec
M205 S0 T0 ; sets the minimum extruding and travel feed rate, mm/sec

; printing object bit-case.stl id:0 copy 0
; stop printing object bit-case.stl id:0 copy 0

;TYPE:Custom
M862.3 P "MK3S" ; printer model check
M862.1 P0.4 ; nozzle diameter check
M115 U3.14.1 ; tell printer latest fw version
G90 ; use absolute coordinates
M83 ; extruder relative mode
M104 S215 ; set extruder temp
M140 S60 ; set bed temp
M190 S60 ; wait for bed temp
M109 S215 ; wait for extruder temp
G28 W ; home all without mesh bed level
G80 X63.4229 Y76.6087 W123.154 H51.9817 ; mesh bed levelling

G1 Z0.2 F720
G1 Y-3 F1000 ; go outside print area
G92 E0
G1 X60 E9 F1000 ; intro line
G1 X100 E12.5 F1000 ; intro line
M73 P0 R43

G92 E0
M221 S95

; Don't change E values below. Excessive value can damage the printer.

M907 E538 ; set extruder motor current
G21 ; set units to millimeters
G90 ; use absolute coordinates
M83 ; use relative distances for extrusion

M900 K0.05 ; Filament gcode LA 1.5
M900 K30 ; Filament gcode LA 1.0




M107
;LAYER_CHANGE
;Z:0.2
;HEIGHT:0.2
G1 E-.8 F2100
G1 Z.6 F720
G1 X64.002 Y84.065 F10800
G1 Z.2 F720
G1 E.8 F2100
M204 S800
;TYPE:Skirt/Brim
;WIDTH:0.42
G1 F1200
G1 X65.186 Y83.213 E.04574
G1 X86.836 Y76.885 E.70722
G1 X87.45 Y76.797 E.01945
G1 X100.335 Y76.799 E.404
G1 X166.361 Y79.106 E2.07146
G1 X184.679 Y83.178 E.58837
G1 X185.812 Y83.833 E.04103
G1 X186.389 Y85.313 E.04981
G1 X186.389 Y126.213 E1.28239
G1 X185.998 Y127.461 E.04101
G1 X184.965 Y128.264 E.04102
G1 X184.2 Y128.402 E.02437
G1 X67.901 Y128.402 E3.64647
G1 X66.653 Y128.011 E.04101
G1 X65.839 Y126.947 E.042
G1 X63.738 Y121.047 E.19637
G1 X63.611 Y120.313 E.02336
G1 X63.611 Y85.313 E1.0974
G1 X63.984 Y84.122 E.03913
M204 S1000
;WIPE_START
G1 F8640
G1 X64.002 Y84.065 E-.0138
G1 X65.186 Y83.213 E-.33681
G1 X67.054 Y82.667 E-.44939
;WIPE_END
G1 Z.6 F720
; printing object bit-case.stl id:0 copy 0
G1 X163.08 Y84.497 F10800
G1 Z.2 F720
G1 E.8 F2100
M204 S800
;TYPE:Support material
G1 F1200
G1 X163.08 Y84.114 E.01201
G1 X162.799 Y83.833 E.01246
G1 X159.501 Y83.833 E.10341
G1 X159.22 Y84.114 E.01246
G1 X159.22 Y84.833 E.02254
G1 X153.98 Y84.833 E.1643
G1 X153.98 Y84.114 E.02254
G1 X153.699 Y83.833 E.01246
G1 X150.401 Y83.833 E.10341
G1 X150.12 Y84.114 E.01246
G1 X150.12 Y84.497 E.01201
G1 X146.916 Y81.293 E.14207
G1 X166.284 Y81.293 E.60727
G1 X163.12 Y84.457 E.1403
M73 P1 R43
M73 Q1 S44
M204 S1000
G1 X165.222 Y82.115 F10800
M204 S800
G1 F1200
G1 X165.222 Y81.632 E.01514
G1 X164.803 Y81.632 E.01314
G1 X164.803 Y82.294 E.02076
G1 X164.384 Y82.713 E.01858
G1 X164.384 Y81.632 E.03389
G1 X163.965 Y81.632 E.01314
G1 X163.965 Y83.132 E.04703
G1 X163.546 Y83.551 E.01858
G1 X163.546 Y81.632 E.06017
G1 X163.127 Y81.632 E.01314
G1 X163.127 Y83.681 E.06424
G1 X162.939 Y83.494 E.00831
G1 X162.708 Y83.494 E.00724
G1 X162.708 Y81.632 E.05838
G1 X162.289 Y81.632 E.01314
G1 X162.289 Y83.494 E.05838
G1 X161.87 Y83.494 E.01314
G1 X161.87 Y81.632 E.05838
G1 X161.451 Y81.632 E.01314
G1 X161.451 Y83.494 E.05838
G1 X161.032 Y83.494 E.01314
G1 X161.032 Y81.632 E.05838
G1 X160.613 Y81.632 E.01314
G1 X160.613 Y83.494 E.05838
G1 X160.194 Y83.494 E.01314
G1 X160.194 Y81.632 E.05838
G1 X159.775 Y81.632 E.01314
G1 X159.775 Y83.494 E.05838
G1 X159.356 Y83.498 E.01314
G1 X159.356 Y81.632 E.05851
G1 X158.937 Y81.632 E.01314
G1 X158.881 Y84.494 E.08975
G1 X158.518 Y84.494 E.01138
G1 X158.518 Y81.632 E.08974
G1 X158.099 Y81.632 E.01314
G1 X158.099 Y84.494 E.08974
G1 X157.68 Y84.494 E.01314
G1 X157.68 Y81.632 E.08974
G1 X157.261 Y81.632 E.01314
G1 X157.261 Y84.494 E.08974
G1 X156.842 Y84.494 E.01314
G1 X156.842 Y81.632 E.08974
G1 X156.423 Y81.632 E.01314
G1 X156.423 Y84.494 E.08974
G1 X156.004 Y84.494 E.01314
G1 X156.004 Y81.632 E.08974
G1 X155.585 Y81.632 E.01314
G1 X155.585 Y84.494 E.08974
G1 X155.166 Y84.494 E.01314
G1 X155.166 Y81.632 E.08974
G1 X154.747 Y81.632 E.01314
G1 X154.747 Y84.494 E.08974
G1 X154.328 Y84.494 E.01314
G1 X154.328 Y81.632 E.08974
G1 X153.909 Y81.632 E.01314
G1 X153.909 Y83.564 E.06058
G1 X153.839 Y83.494 E.0031
G1 X153.49 Y83.494 E.01094
G1 X153.49 Y81.632 E.05838
G1 X153.071 Y81.632 E.01314
G1 X153.071 Y83.494 E.05838
G1 X152.652 Y83.494 E.01314
G1 X152.652 Y81.632 E.05838
G1 X152.234 Y81.632 E.01311
G1 X152.234 Y83.494 E.05838
G1 X151.815 Y83.494 E.01314
G1 X151.815 Y81.632 E.05838
G1 X151.396 Y81.632 E.01314
G1 X151.396 Y83.494 E.05838
G1 X150.977 Y83.494 E.01314
G1 X150.977 Y81.632 E.05838
G1 X150.558 Y81.632 E.01314
G1 X150.558 Y83.494 E.05838
G1 X150.261 Y83.494 E.00931
G1 X150.139 Y83.616 E.00541
G1 X150.139 Y81.632 E.06221
G1 X149.72 Y81.632 E.01314
G1 X149.72 Y83.617 E.06224
G1 X149.301 Y83.198 E.01858
G1 X149.301 Y81.632 E.0491
G1 X148.882 Y81.632 E.01314
G1 X148.882 Y82.779 E.03596
G1 X148.463 Y82.36 E.01858
G1 X148.463 Y81.632 E.02283
G1 X148.044 Y81.632 E.01314
G1 X148.044 Y82.181 E.01721
M204 S1000
;WIPE_START
G1 F8640
G1 X148.044 Y81.632 E-.12677
G1 X148.463 Y81.632 E-.09675
G1 X148.463 Y82.36 E-.1681
G1 X148.882 Y82.779 E-.13682
G1 X148.882 Y81.632 E-.26485
G1 X148.911 Y81.632 E-.00671
;WIPE_END
G1 Z.6 F720
G1 X100.259 Y84.833 F10800
G1 Z.2 F720
G1 E.8 F2100
M204 S800
G1 F1200
G1 X87.45 Y84.833 E.40162
G1 X87.45 Y78.986 E.18333
G1 X100.259 Y78.986 E.40162
G1 X100.259 Y84.777 E.18157
M204 S1000
G1 X99.861 Y84.664 F10800
M204 S800
G1 F1200
G1 X99.861 Y79.325 E.1674
G1 X99.442 Y79.325 E.01314
G1 X99.442 Y84.494 E.16207
G1 X99.023 Y84.494 E.01314
G1 X99.023 Y79.325 E.16207
G1 X98.604 Y79.325 E.01314
G1 X98.604 Y84.494 E.16207
G1 X98.185 Y84.494 E.01314
G1 X98.185 Y79.325 E.16207
G1 X97.766 Y79.325 E.01314
G1 X97.766 Y84.494 E.16207
G1 X97.348 Y84.494 E.01311
G1 X97.348 Y79.325 E.16207
G1 X96.929 Y79.325 E.01314
G1 X96.929 Y84.494 E.16207
G1 X96.51 Y84.494 E.01314
G1 X96.51 Y79.325 E.16207
G1 X96.091 Y79.325 E.01314
G1 X96.091 Y84.494 E.16207
G1 X95.672 Y84.494 E.01314
G1 X95.672 Y79.325 E.16207
G1 X95.253 Y79.325 E.01314
G1 X95.253 Y84.494 E.16207
G1 X94.834 Y84.494 E.01314
G1 X94.834 Y79.325 E.16207
G1 X94.415 Y79.325 E.01314
G1 X94.415 Y84.494 E.16207
G1 X93.996 Y84.494 E.01314
G1 X93.996 Y79.325 E.16207
G1 X93.577 Y79.325 E.01314
G1 X93.577 Y84.494 E.16207
G1 X93.158 Y84.494 E.01314
G1 X93.158 Y79.325 E.16207
G1 X92.739 Y79.325 E.01314
G1 X92.739 Y84.494 E.16207
G1 X92.32 Y84.494 E.01314
G1 X92.32 Y79.325 E.16207
G1 X91.901 Y79.325 E.01314
G1 X91.901 Y84.494 E.16207
G1 X91.482 Y84.494 E.01314
G1 X91.482 Y79.325 E.16207
G1 X91.063 Y79.325 E.01314
G1 X91.063 Y84.494 E.16207
G1 X90.644 Y84.494 E.01314
G1 X90.644 Y79.325 E.16207
G1 X90.225 Y79.325 E.01314
G1 X90.225 Y84.494 E.16207
G1 X89.806 Y84.494 E.01314
G1 X89.806 Y79.325 E.16207
G1 X89.387 Y79.325 E.01314
G1 X89.387 Y84.494 E.16207
G1 X88.968 Y84.494 E.01314
G1 X88.968 Y79.325 E.16207
G1 X88.549 Y79.325 E.01314
G1 X88.549 Y84.494 E.16207
G1 X88.13 Y84.494 E.01314
G1 X88.13 Y79.155 E.1674
M204 S1000
;WIPE_START
G1 F8640
G1 X88.13 Y82.62 E-.8
;WIPE_END
G1 Z.6 F720
G1 X160.302 Y85.935 F10800
G1 Z.2 F720
G1 E.8 F2100
M204 S800
;TYPE:Perimeter
;WIDTH:0.419999
G1 F1200
G1 X160.356 Y85.896 E.00209
G1 X160.475 Y85.65 E.00857
G1 X160.487 Y85.1 E.01725
G1 X161.813 Y85.1 E.04158
G1 X161.825 Y85.65 E.01725
G1 X161.944 Y85.896 E.00857
G1 X162.134 Y86.045 E.00757
G1 X162.379 Y86.1 E.00787
G1 X183.413 Y86.1 E.65951
G1 X183.413 Y105.763 E.61652
G1 X183.413 Y125.426 E.61652
M73 Q1 S43
G1 X129.787 Y125.426 E1.6814
G1 X129.787 Y86.1 E1.23304
G1 X150.821 Y86.1 E.65951
M73 P2 R43
M73 Q2 S43
G1 X151.018 Y86.065 E.00627
G1 X151.256 Y85.896 E.00915
G1 X151.375 Y85.65 E.00857
G1 X151.387 Y85.1 E.01725
G1 X152.713 Y85.1 E.04158
G1 X152.725 Y85.65 E.01725
G1 X152.844 Y85.896 E.00857
G1 X153.034 Y86.045 E.00757
G1 X153.279 Y86.1 E.00787
G1 X159.921 Y86.1 E.20825
G1 X160.118 Y86.065 E.00627
G1 X160.253 Y85.97 E.00518
M204 S1000
G1 X160.056 Y85.638 F10800
M204 S800
;TYPE:External perimeter
G1 F1200
G1 X160.11 Y85.535 E.00365
G1 X160.11 Y84.723 E.02546
G1 X162.19 Y84.723 E.06522
G1 X162.19 Y85.535 E.02546
G1 X162.234 Y85.655 E.00401
G1 X162.379 Y85.723 E.00502
G1 X183.79 Y85.723 E.67133
G1 X183.79 Y105.763 E.62834
G1 X183.79 Y125.803 E.62834
G1 X129.41 Y125.803 E1.70504
G1 X129.41 Y85.723 E1.25668
G1 X150.821 Y85.723 E.67133
M73 P2 R42
G1 X150.928 Y85.69 E.00351
G1 X151.01 Y85.535 E.0055
G1 X151.01 Y84.723 E.02546
G1 X153.09 Y84.723 E.06522
G1 X153.09 Y85.535 E.02546
G1 X153.134 Y85.655 E.00401
G1 X153.279 Y85.723 E.00502
G1 X159.921 Y85.723 E.20825
G1 X160.027 Y85.69 E.00348
M204 S1000
;WIPE_START
G1 F8640
G1 X160.056 Y85.638 E-.01375
G1 X160.11 Y85.535 E-.02685
G1 X160.11 Y84.723 E-.18749
G1 X162.19 Y84.723 E-.48028
G1 X162.19 Y85.12 E-.09163
;WIPE_END
G1 Z.6 F720
G1 X182.48 Y86.27 F10800
G1 Z.2 F720
G1 E.8 F2100
M204 S800
;TYPE:Solid infill
;WIDTH:0.420377
G1 F1200
G1 X183.074 Y86.863 E.02634
G1 X183.074 Y87.397 E.01676
G1 X182.116 Y86.44 E.0425
G1 X181.582 Y86.44 E.01676
G1 X183.074 Y87.931 E.0662
G1 X183.074 Y88.465 E.01676
G1 X181.048 Y86.44 E.0899
G1 X180.514 Y86.44 E.01676
G1 X183.074 Y88.999 E.11361
G1 X183.074 Y89.532 E.01673
G1 X179.981 Y86.439 E.13729
G1 X179.447 Y86.439 E.01676
G1 X183.074 Y90.066 E.16099
G1 X183.074 Y90.6 E.01676
G1 X178.913 Y86.439 E.18469
G1 X178.379 Y86.439 E.01676
G1 X183.074 Y91.134 E.20839
G1 X183.074 Y91.668 E.01676
G1 X177.845 Y86.439 E.23209
G1 X177.311 Y86.439 E.01676
G1 X183.074 Y92.201 E.25577
G1 X183.074 Y92.735 E.01676
G1 X176.778 Y86.439 E.27945
G1 X176.244 Y86.439 E.01676
G1 X183.074 Y93.269 E.30316
G1 X183.074 Y93.803 E.01676
G1 X175.71 Y86.439 E.32686
G1 X175.176 Y86.439 E.01676
G1 X183.074 Y94.337 E.35056
G1 X183.074 Y94.87 E.01673
G1 X174.642 Y86.439 E.37424
G1 X174.108 Y86.439 E.01676
G1 X183.074 Y95.404 E.39794
G1 X183.074 Y95.938 E.01676
G1 X173.575 Y86.439 E.42162
G1 X173.041 Y86.439 E.01676
G1 X183.074 Y96.472 E.44533
G1 X183.074 Y97.006 E.01676
G1 X172.507 Y86.439 E.46903
G1 X171.973 Y86.439 E.01676
G1 X183.074 Y97.539 E.49271
G1 X183.074 Y98.073 E.01676
G1 X171.439 Y86.439 E.51641
G1 X170.905 Y86.439 E.01676
G1 X183.074 Y98.607 E.54011
G1 X183.074 Y99.141 E.01676
G1 X170.371 Y86.439 E.56381
G1 X169.838 Y86.439 E.01673
G1 X183.074 Y99.675 E.58749
G1 X183.074 Y100.209 E.01676
G1 X169.304 Y86.439 E.6112
G1 X168.77 Y86.439 E.01676
G1 X183.074 Y100.742 E.63488
G1 X183.074 Y101.276 E.01676
M73 P3 R42
M73 Q3 S43
G1 X168.236 Y86.439 E.65858
G1 X167.702 Y86.439 E.01676
G1 X183.074 Y101.81 E.68228
G1 X183.074 Y102.344 E.01676
G1 X167.168 Y86.439 E.70598
G1 X166.635 Y86.439 E.01673
G1 X183.074 Y102.878 E.72966
G1 X183.074 Y103.411 E.01673
G1 X166.101 Y86.439 E.75334
G1 X165.567 Y86.439 E.01676
G1 X183.074 Y103.945 E.77704
G1 X183.074 Y104.479 E.01676
G1 X165.033 Y86.438 E.80077
G1 X164.499 Y86.438 E.01676
G1 X183.074 Y105.013 E.82447
G1 X183.074 Y105.547 E.01676
G1 X163.965 Y86.438 E.84817
G1 X163.432 Y86.438 E.01673
G1 X183.074 Y106.08 E.87183
G1 X183.074 Y106.614 E.01676
G1 X162.728 Y86.269 E.90306
M204 S1000
;WIPE_START
G1 F8640
G1 X165.178 Y88.719 E-.8
;WIPE_END
G1 Z.6 F720
G1 X161.196 Y85.27 F10800
G1 Z.2 F720
G1 E.8 F2100
M204 S800
G1 F1200
G1 X161.484 Y85.558 E.01278
G1 X161.491 Y85.725 E.00525
G1 X161.676 Y86.109 E.01338
G1 X161.862 Y86.279 E.00791
G1 X161.988 Y86.352 E.00457
G1 X162.156 Y86.413 E.00561
G1 X162.364 Y86.438 E.00658
G1 X183.074 Y107.148 E.91924
G1 X183.074 Y107.682 E.01676
G1 X160.821 Y85.44 E.98748
G1 X160.809 Y85.725 E.00895
G1 X160.736 Y85.878 E.00532
G1 X183.074 Y108.216 E.9915
G1 X183.074 Y108.749 E.01673
G1 X160.524 Y86.2 E1.00088
G1 X160.438 Y86.279 E.00367
G1 X160.308 Y86.354 E.00471
G1 X160.181 Y86.391 E.00415
G1 X183.074 Y109.283 E1.01611
G1 X183.074 Y109.817 E.01676
G1 X159.691 Y86.435 E1.03786
G1 X159.158 Y86.435 E.01673
G1 X183.074 Y110.351 E1.06154
G1 X183.074 Y110.885 E.01676
M73 P4 R42
G1 X158.624 Y86.435 E1.08524
G1 X158.091 Y86.436 E.01673
M73 Q4 S42
G1 X183.074 Y111.418 E1.10887
G1 X183.074 Y111.952 E.01676
G1 X157.557 Y86.436 E1.13258
G1 X157.024 Y86.437 E.01673
G1 X183.074 Y112.486 E1.15623
G1 X183.074 Y113.02 E.01676
G1 X156.491 Y86.437 E1.17991
G1 X155.957 Y86.437 E.01676
G1 X183.074 Y113.554 E1.20362
G1 X183.074 Y114.087 E.01673
G1 X155.424 Y86.438 E1.22725
G1 X154.89 Y86.438 E.01676
G1 X183.074 Y114.621 E1.25095
G1 X183.074 Y115.155 E.01676
M73 P4 R41
G1 X154.357 Y86.439 E1.27461
G1 X153.824 Y86.439 E.01673
G1 X183.074 Y115.689 E1.29829
G1 X183.074 Y116.223 E.01676
G1 X153.29 Y86.439 E1.32199
G1 X153.057 Y86.413 E.00736
G1 X152.888 Y86.352 E.00564
G1 X152.762 Y86.279 E.00457
G1 X152.576 Y86.109 E.00791
G1 X152.391 Y85.725 E.01338
G1 X152.383 Y85.532 E.00606
G1 X152.291 Y85.44 E.00408
G1 X151.757 Y85.44 E.01676
G1 X183.074 Y116.756 E1.39002
G1 X183.074 Y117.29 E.01676
G1 X151.644 Y85.861 E1.39503
G1 X151.524 Y86.109 E.00865
M73 P5 R41
G1 X151.438 Y86.188 E.00367
G1 X183.074 Y117.824 E1.4042
G1 X183.074 Y118.358 E.01676
M73 Q5 S42
G1 X151.106 Y86.39 E1.41893
G1 X150.855 Y86.439 E.00803
G1 X150.621 Y86.439 E.00734
G1 X183.074 Y118.892 E1.44046
G1 X183.074 Y119.425 E.01673
G1 X150.087 Y86.439 E1.46414
G1 X149.554 Y86.439 E.01673
G1 X183.074 Y119.959 E1.48782
G1 X183.074 Y120.493 E.01676
G1 X149.02 Y86.439 E1.51152
G1 X148.486 Y86.439 E.01676
G1 X183.074 Y121.027 E1.53522
G1 X183.074 Y121.561 E.01676
G1 X147.952 Y86.439 E1.55893
G1 X147.418 Y86.439 E.01676
G1 X183.074 Y122.095 E1.58263
G1 X183.074 Y122.628 E.01673
G1 X146.885 Y86.439 E1.60629
G1 X146.351 Y86.439 E.01676
G1 X183.074 Y123.162 E1.62999
G1 X183.074 Y123.696 E.01676
M73 P6 R41
G1 X145.817 Y86.439 E1.65369
G1 X145.283 Y86.439 E.01676
M73 Q6 S42
G1 X183.074 Y124.23 E1.67739
G1 X183.074 Y124.764 E.01676
G1 X144.749 Y86.439 E1.7011
G1 X144.216 Y86.439 E.01673
M73 Q6 S41
G1 X182.863 Y125.087 E1.71541
G1 X182.329 Y125.087 E.01676
G1 X143.682 Y86.439 E1.71541
G1 X143.148 Y86.439 E.01676
G1 X181.795 Y125.087 E1.71541
G1 X181.262 Y125.087 E.01673
G1 X142.614 Y86.439 E1.71543
G1 X142.08 Y86.439 E.01676
G1 X180.728 Y125.087 E1.71543
G1 X180.194 Y125.087 E.01676
M73 P6 R40
G1 X141.547 Y86.44 E1.71539
G1 X141.013 Y86.44 E.01676
G1 X179.66 Y125.087 E1.71539
G1 X179.126 Y125.087 E.01676
M73 P7 R40
G1 X140.479 Y86.44 E1.71539
G1 X139.945 Y86.44 E.01676
M73 Q7 S41
G1 X178.593 Y125.087 E1.71541
G1 X178.059 Y125.087 E.01676
G1 X139.412 Y86.44 E1.71539
G1 X138.878 Y86.44 E.01676
G1 X177.525 Y125.087 E1.71539
G1 X176.991 Y125.087 E.01676
G1 X138.344 Y86.44 E1.71539
G1 X137.81 Y86.44 E.01676
G1 X176.457 Y125.087 E1.71539
G1 X175.924 Y125.087 E.01673
G1 X137.276 Y86.44 E1.71541
G1 X136.743 Y86.44 E.01673
G1 X175.39 Y125.087 E1.71539
G1 X174.856 Y125.087 E.01676
G1 X136.209 Y86.44 E1.71539
G1 X135.675 Y86.44 E.01676
M73 P8 R40
G1 X174.322 Y125.087 E1.71539
G1 X173.788 Y125.087 E.01676
M73 Q8 S41
G1 X135.141 Y86.44 E1.71539
G1 X134.607 Y86.44 E.01676
G1 X173.255 Y125.087 E1.71541
G1 X172.721 Y125.087 E.01676
G1 X134.074 Y86.44 E1.71539
G1 X133.54 Y86.44 E.01676
G1 X172.187 Y125.087 E1.71539
G1 X171.653 Y125.087 E.01676
G1 X133.006 Y86.44 E1.71539
G1 X132.472 Y86.44 E.01676
M73 Q8 S40
G1 X171.119 Y125.087 E1.71539
G1 X170.586 Y125.087 E.01673
G1 X131.938 Y86.44 E1.71541
G1 X131.405 Y86.44 E.01673
G1 X170.052 Y125.087 E1.71539
G1 X169.518 Y125.087 E.01676
G1 X130.871 Y86.44 E1.71539
G1 X130.337 Y86.44 E.01676
M73 P9 R40
G1 X168.984 Y125.087 E1.71539
G1 X168.45 Y125.087 E.01676
M73 P9 R39
M73 Q9 S40
G1 X130.126 Y86.763 E1.70105
G1 X130.126 Y87.297 E.01676
G1 X167.916 Y125.087 E1.67735
G1 X167.383 Y125.087 E.01673
G1 X130.126 Y87.831 E1.65367
