; generated by PrusaSlicer 2.9.3 on 2025-11-28 at 02:18:35 UTC


;
;
; 

; external perimeters extrusion width = 0.45mm
; perimeters extrusion width = 0.45mm
; infill extrusion width = 0.45mm
; solid infill extrusion width = 0.45mm
; top infill extrusion width = 0.40mm
; first layer extrusion width = 0.42mm

M73 P0 R96
M73 Q0 S96
M201 X1000 Y1000 Z200 E5000 ; sets maximum accelerations, mm/sec^2
M203 X200 Y200 Z12 E120 ; sets maximum feedrates, mm / sec
M204 S1250 T1250 ; sets acceleration (S) and retract acceleration (R), mm/sec^2
M205 X8.00 Y8.00 Z0.40 E4.50 ; sets the jerk limits, mm/sec
M205 S0 T0 ; sets the minimum extruding and travel feed rate, mm/sec

; printing object shelly-pro-2-case-top.stl id:0 copy 0
; stop printing object shelly-pro-2-case-top.stl id:0 copy 0

;TYPE:Custom
M862.3 P "MK3S" ; printer model check
M862.1 P0.4 ; nozzle diameter check
M115 U3.14.1 ; tell printer latest fw version
G90 ; use absolute coordinates
M83 ; extruder relative mode
M104 S240 ; set extruder temp
M140 S85 ; set bed temp
M190 S85 ; wait for bed temp
M109 S240 ; wait for extruder temp
G28 W ; home all without mesh bed level
G80 X47.1229 Y66.6229 W155.754 H76.7542 ; mesh bed levelling

G1 Z0.2 F720
G1 Y-3 F1000 ; go outside print area
G92 E0
G1 X60 E9 F1000 ; intro line
G1 X100 E12.5 F1000 ; intro line

G92 E0
M221 S95

; Don't change E values below. Excessive value can damage the printer.

M907 E538 ; set extruder motor current
G21 ; set units to millimeters
G90 ; use absolute coordinates
M83 ; use relative distances for extrusion

M900 K0.08 ; Filament gcode LA 1.5
M900 K45 ; Filament gcode LA 1.0




M107
;LAYER_CHANGE
;Z:0.2
;HEIGHT:0.2
G1 E-1 F2100
G1 Z.4 F720
G1 X48.735 Y66.949 F10800
G1 Z.2 F720
G1 E1 F2100
M204 S800
;TYPE:Skirt/Brim
;WIDTH:0.42
G1 F1200
G1 X49.5 Y66.811 E.02437
G1 X200.5 Y66.811 E4.7345
G1 X201.748 Y67.202 E.04101
G1 X202.551 Y68.235 E.04102
G1 X202.689 Y69 E.02437
G1 X202.689 Y141 E2.25751
G1 X202.298 Y142.248 E.04101
G1 X201.265 Y143.051 E.04102
G1 X200.5 Y143.189 E.02437
G1 X49.5 Y143.189 E4.7345
G1 X48.252 Y142.798 E.04101
G1 X47.449 Y141.765 E.04102
G1 X47.311 Y141 E.02437
G1 X47.311 Y69 E2.25751
G1 X47.702 Y67.752 E.04101
M73 P0 R95
G1 X48.688 Y66.986 E.03915
M204 S1000
;WIPE_START
G1 F8640
G1 X48.735 Y66.949 E-.01381
G1 X49.5 Y66.811 E-.17949
G1 X52.994 Y66.811 E-.8067
;WIPE_END
G1 Z.4 F720
; printing object shelly-pro-2-case-top.stl id:0 copy 0
G1 X193.662 Y72.664 F10800
G1 Z.2 F720
G1 E1 F2100
M204 S800
;TYPE:Perimeter
;WIDTH:0.419999
G1 F1200
G1 X194.087 Y72.205 E.01961
G1 X194.71 Y71.856 E.02239
G1 X195.412 Y71.717 E.02244
G1 X196.121 Y71.802 E.02239
G1 X196.77 Y72.101 E.0224
G1 X197.295 Y72.587 E.02243
G1 X197.644 Y73.21 E.02239
G1 X197.783 Y73.912 E.02244
G1 X197.698 Y74.621 E.02239
G1 X197.399 Y75.27 E.0224
G1 X196.913 Y75.795 E.02243
G1 X196.29 Y76.144 E.02239
G1 X195.588 Y76.283 E.02244
G1 X194.879 Y76.198 E.02239
G1 X194.23 Y75.899 E.0224
G1 X193.705 Y75.413 E.02243
G1 X193.356 Y74.79 E.02239
G1 X193.302 Y74.621 E.00556
G1 X193.217 Y74.088 E.01692
G1 X193.302 Y73.379 E.02239
G1 X193.601 Y72.73 E.0224
G1 X193.621 Y72.708 E.00093
M204 S1000
G1 X193.958 Y72.879 F10800
M204 S800
;TYPE:External perimeter
G1 F1200
G1 X194.353 Y72.472 E.01778
G1 X194.882 Y72.192 E.01877
G1 X195.471 Y72.09 E.01874
G1 X196.062 Y72.174 E.01872
G1 X196.599 Y72.437 E.01875
G1 X197.028 Y72.853 E.01874
G1 X197.308 Y73.382 E.01877
G1 X197.41 Y73.971 E.01874
G1 X197.326 Y74.562 E.01872
G1 X197.063 Y75.099 E.01875
G1 X196.647 Y75.528 E.01874
G1 X196.118 Y75.808 E.01877
G1 X195.529 Y75.91 E.01874
G1 X194.938 Y75.826 E.01872
G1 X194.401 Y75.563 E.01875
G1 X193.972 Y75.147 E.01874
G1 X193.674 Y74.562 E.02058
G1 X193.59 Y74.029 E.01692
G1 X193.674 Y73.438 E.01872
G1 X193.924 Y72.928 E.01781
M204 S1000
;WIPE_START
G1 F8640
G1 X193.958 Y72.879 E-.01377
G1 X194.353 Y72.472 E-.13096
G1 X194.882 Y72.192 E-.1382
G1 X195.471 Y72.09 E-.13803
G1 X196.062 Y72.174 E-.13784
G1 X196.599 Y72.437 E-.13807
G1 X197.028 Y72.853 E-.13798
G1 X197.308 Y73.382 E-.1382
G1 X197.328 Y73.497 E-.02695
;WIPE_END
G1 Z.4 F720
G1 X196.203 Y133.839 F10800
G1 Z.2 F720
G1 E1 F2100
M204 S800
;TYPE:Perimeter
G1 F1200
G1 X196.77 Y134.101 E.01958
G1 X197.295 Y134.587 E.02243
G1 X197.644 Y135.21 E.02239
G1 X197.783 Y135.912 E.02244
G1 X197.698 Y136.621 E.02239
G1 X197.399 Y137.27 E.0224
G1 X196.913 Y137.795 E.02243
G1 X196.29 Y138.144 E.02239
G1 X195.588 Y138.283 E.02244
G1 X194.879 Y138.198 E.02239
G1 X194.23 Y137.899 E.0224
G1 X193.705 Y137.413 E.02243
G1 X193.356 Y136.79 E.02239
G1 X193.217 Y136.088 E.02244
G1 X193.302 Y135.379 E.02239
G1 X193.601 Y134.73 E.0224
G1 X194.087 Y134.205 E.02243
G1 X194.71 Y133.856 E.02239
G1 X194.812 Y133.816 E.00344
G1 X195.412 Y133.717 E.01907
G1 X196.121 Y133.802 E.02239
G1 X196.148 Y133.814 E.00093
M204 S1000
G1 X196.09 Y134.187 F10800
M204 S800
;TYPE:External perimeter
G1 F1200
G1 X196.599 Y134.437 E.01778
G1 X197.028 Y134.853 E.01874
G1 X197.308 Y135.382 E.01877
G1 X197.41 Y135.971 E.01874
G1 X197.326 Y136.562 E.01872
G1 X197.063 Y137.099 E.01875
G1 X196.647 Y137.528 E.01874
G1 X196.118 Y137.808 E.01877
G1 X195.529 Y137.91 E.01874
G1 X194.938 Y137.826 E.01872
G1 X194.401 Y137.563 E.01875
G1 X193.972 Y137.147 E.01874
G1 X193.692 Y136.618 E.01877
G1 X193.59 Y136.029 E.01874
G1 X193.674 Y135.438 E.01872
G1 X193.937 Y134.901 E.01875
G1 X194.353 Y134.472 E.01874
G1 X194.916 Y134.179 E.0199
G1 X195.471 Y134.09 E.01762
G1 X196.033 Y134.17 E.0178
M204 S1000
;WIPE_START
G1 F8640
G1 X196.09 Y134.187 E-.01373
G1 X196.599 Y134.437 E-.13094
G1 X197.028 Y134.853 E-.13798
G1 X197.308 Y135.382 E-.1382
G1 X197.41 Y135.971 E-.13803
G1 X197.326 Y136.562 E-.13784
G1 X197.063 Y137.099 E-.13807
G1 X196.647 Y137.528 E-.13798
G1 X196.543 Y137.583 E-.02723
;WIPE_END
G1 Z.4 F720
G1 X54.501 Y133.728 F10800
G1 Z.2 F720
G1 E1 F2100
M204 S800
;TYPE:Perimeter
G1 F1200
G1 X55.121 Y133.802 E.01958
G1 X55.77 Y134.101 E.0224
G1 X55.878 Y134.173 E.00407
G1 X56.295 Y134.587 E.01842
G1 X56.644 Y135.21 E.02239
G1 X56.783 Y135.912 E.02244
G1 X56.698 Y136.621 E.02239
G1 X56.399 Y137.27 E.0224
G1 X55.913 Y137.795 E.02243
G1 X55.29 Y138.144 E.02239
G1 X54.588 Y138.283 E.02244
G1 X53.879 Y138.198 E.02239
G1 X53.23 Y137.899 E.0224
G1 X52.705 Y137.413 E.02243
G1 X52.356 Y136.79 E.02239
G1 X52.217 Y136.088 E.02244
G1 X52.302 Y135.379 E.02239
G1 X52.601 Y134.73 E.0224
G1 X53.087 Y134.205 E.02243
G1 X53.71 Y133.856 E.02239
G1 X54.412 Y133.717 E.02244
G1 X54.441 Y133.721 E.00092
M204 S1000
G1 X54.501 Y134.094 F10800
M204 S800
;TYPE:External perimeter
G1 F1200
G1 X55.062 Y134.174 E.01777
G1 X55.635 Y134.461 E.02009
G1 X56.028 Y134.853 E.0174
G1 X56.308 Y135.382 E.01877
G1 X56.41 Y135.971 E.01874
G1 X56.326 Y136.562 E.01872
G1 X56.063 Y137.099 E.01875
G1 X55.647 Y137.528 E.01874
G1 X55.118 Y137.808 E.01877
G1 X54.529 Y137.91 E.01874
G1 X53.938 Y137.826 E.01872
G1 X53.401 Y137.563 E.01875
G1 X52.972 Y137.147 E.01874
G1 X52.692 Y136.618 E.01877
G1 X52.59 Y136.029 E.01874
G1 X52.674 Y135.438 E.01872
G1 X52.937 Y134.901 E.01875
G1 X53.353 Y134.472 E.01874
G1 X53.882 Y134.192 E.01877
G1 X54.441 Y134.095 E.01779
M204 S1000
;WIPE_START
G1 F8640
G1 X54.501 Y134.094 E-.01386
G1 X55.062 Y134.174 E-.13085
G1 X55.635 Y134.461 E-.14798
G1 X56.028 Y134.853 E-.12817
G1 X56.308 Y135.382 E-.1382
G1 X56.41 Y135.971 E-.13803
G1 X56.326 Y136.562 E-.13784
G1 X56.063 Y137.099 E-.13807
G1 X55.982 Y137.183 E-.027
;WIPE_END
G1 Z.4 F720
G1 X52.228 Y73.999 F10800
G1 Z.2 F720
G1 E1 F2100
M204 S800
;TYPE:Perimeter
G1 F1200
G1 X52.302 Y73.379 E.01958
G1 X52.601 Y72.73 E.0224
G1 X53.087 Y72.205 E.02243
G1 X53.71 Y71.856 E.02239
G1 X54.412 Y71.717 E.02244
G1 X55.121 Y71.802 E.02239
G1 X55.77 Y72.101 E.0224
G1 X56.295 Y72.587 E.02243
G1 X56.644 Y73.21 E.02239
G1 X56.783 Y73.912 E.02244
G1 X56.698 Y74.621 E.02239
G1 X56.399 Y75.27 E.0224
G1 X55.913 Y75.795 E.02243
G1 X55.29 Y76.144 E.02239
G1 X54.588 Y76.283 E.02244
G1 X53.879 Y76.198 E.02239
G1 X53.23 Y75.899 E.0224
G1 X52.705 Y75.413 E.02243
G1 X52.356 Y74.79 E.02239
G1 X52.217 Y74.088 E.02244
G1 X52.221 Y74.059 E.00092
M204 S1000
G1 X52.594 Y73.999 F10800
M204 S800
;TYPE:External perimeter
G1 F1200
G1 X52.674 Y73.438 E.01777
G1 X52.937 Y72.901 E.01875
G1 X53.353 Y72.472 E.01874
G1 X53.882 Y72.192 E.01877
G1 X54.471 Y72.09 E.01874
G1 X55.062 Y72.174 E.01872
G1 X55.599 Y72.437 E.01875
G1 X56.028 Y72.853 E.01874
G1 X56.308 Y73.382 E.01877
G1 X56.41 Y73.971 E.01874
G1 X56.326 Y74.562 E.01872
G1 X56.063 Y75.099 E.01875
G1 X55.647 Y75.528 E.01874
G1 X55.118 Y75.808 E.01877
G1 X54.529 Y75.91 E.01874
G1 X53.938 Y75.826 E.01872
G1 X53.401 Y75.563 E.01875
G1 X52.972 Y75.147 E.01874
G1 X52.692 Y74.618 E.01877
G1 X52.595 Y74.059 E.01779
M204 S1000
;WIPE_START
G1 F8640
G1 X52.594 Y73.999 E-.01386
G1 X52.674 Y73.438 E-.13085
G1 X52.937 Y72.901 E-.13807
G1 X53.353 Y72.472 E-.13798
G1 X53.882 Y72.192 E-.1382
G1 X54.471 Y72.09 E-.13803
G1 X55.062 Y72.174 E-.13784
G1 X55.599 Y72.437 E-.13807
G1 X55.683 Y72.519 E-.0271
;WIPE_END
G1 Z.4 F720
G1 X50.287 Y140.213 F10800
G1 Z.2 F720
G1 E1 F2100
M204 S800
;TYPE:Perimeter
G1 F1200
G1 X50.287 Y69.787 E2.20815
G1 X199.713 Y69.787 E4.68514
G1 X199.713 Y71.315 E.04791
G1 X199.713 Y140.213 E2.16024
G1 X50.347 Y140.213 E4.68326
M73 Q0 S95
M204 S1000
G1 X49.91 Y140.59 F10800
M73 P1 R95
M73 Q1 S95
M204 S800
;TYPE:External perimeter
G1 F1200
G1 X49.91 Y69.41 E2.2318
G1 X200.09 Y69.41 E4.70878
G1 X200.09 Y71.315 E.05973
G1 X200.09 Y140.59 E2.17207
G1 X49.97 Y140.59 E4.7069
M204 S1000
;WIPE_START
G1 F8640
G1 X49.91 Y140.59 E-.01385
G1 X49.91 Y136.319 E-.98615
;WIPE_END
G1 Z.4 F720
G1 X199.543 Y70.719 F10800
G1 Z.2 F720
G1 E1 F2100
M204 S800
;TYPE:Solid infill
;WIDTH:0.420126
G1 F1200
G1 X198.95 Y70.126 E.0263
G1 X198.417 Y70.126 E.01672
G1 X199.374 Y71.083 E.04245
G1 X199.374 Y71.617 E.01675
G1 X197.883 Y70.126 E.06614
G1 X197.35 Y70.126 E.01672
G1 X199.374 Y72.15 E.08978
G1 X199.374 Y72.683 E.01672
G1 X196.817 Y70.126 E.11342
G1 X196.283 Y70.126 E.01675
G1 X199.374 Y73.217 E.13711
G1 X199.374 Y73.75 E.01672
G1 X195.75 Y70.126 E.16075
G1 X195.216 Y70.126 E.01675
G1 X199.543 Y74.453 E.19193
M204 S1000
;WIPE_START
G1 F8640
G1 X196.481 Y71.391 E-1
;WIPE_END
G1 Z.4 F720
G1 X197.845 Y73.289 F10800
G1 Z.2 F720
G1 E1 F2100
M204 S800
G1 F1200
G1 X199.374 Y74.817 E.0678
G1 X199.374 Y75.351 E.01675
M73 P1 R94
G1 X198.117 Y74.094 E.05576
G1 X198.05 Y74.56 E.01477
G1 X199.374 Y75.884 E.05873
G1 X199.374 Y76.418 E.01675
G1 X197.93 Y74.974 E.06405
G1 X197.75 Y75.328 E.01246
G1 X199.374 Y76.951 E.07201
G1 X199.374 Y77.484 E.01672
G1 X197.539 Y75.65 E.08137
G1 X197.272 Y75.916 E.01182
G1 X199.374 Y78.018 E.09324
G1 X199.374 Y78.551 E.01672
G1 X196.983 Y76.161 E.10603
G1 X196.637 Y76.348 E.01234
G1 X199.374 Y79.085 E.1214
G1 X199.374 Y79.618 E.01672
G1 X196.262 Y76.507 E.13802
G1 X195.808 Y76.586 E.01445
G1 X199.374 Y80.152 E.15818
G1 X199.374 Y80.685 E.01672
G1 X195.089 Y76.401 E.19005
M204 S1000
;WIPE_START
G1 F8640
G1 X198.151 Y79.463 E-1
;WIPE_END
G1 Z.4 F720
G1 X196.211 Y71.655 F10800
G1 Z.2 F720
G1 E1 F2100
M204 S800
G1 F1200
G1 X194.683 Y70.126 E.0678
G1 X194.149 Y70.126 E.01675
G1 X195.403 Y71.38 E.05562
G1 X194.938 Y71.449 E.01474
G1 X193.616 Y70.126 E.05866
G1 X193.082 Y70.126 E.01675
G1 X194.526 Y71.57 E.06405
G1 X194.172 Y71.75 E.01246
G1 X192.549 Y70.126 E.07201
G1 X192.016 Y70.126 E.01672
G1 X193.85 Y71.961 E.08137
G1 X193.584 Y72.228 E.01182
G1 X191.482 Y70.126 E.09324
G1 X190.949 Y70.126 E.01672
G1 X193.339 Y72.517 E.10603
G1 X193.152 Y72.863 E.01234
G1 X190.415 Y70.126 E.1214
G1 X189.882 Y70.126 E.01672
G1 X192.993 Y73.238 E.13802
G1 X192.914 Y73.692 E.01445
G1 X189.348 Y70.126 E.15818
G1 X188.815 Y70.126 E.01672
G1 X193.099 Y74.411 E.19005
M204 S1000
;WIPE_START
G1 F8640
G1 X190.037 Y71.349 E-1
;WIPE_END
G1 Z.4 F720
G1 X188.112 Y69.957 F10800
G1 Z.2 F720
G1 E1 F2100
M204 S800
G1 F1200
G1 X193.029 Y74.874 E.2181
G1 X193.383 Y75.562 E.02427
G1 X193.853 Y76.041 E.02105
G1 X194.019 Y76.17 E.00659
G1 X194.638 Y76.483 E.02176
G1 X199.374 Y81.219 E.21007
G1 X199.374 Y81.752 E.01672
G1 X187.748 Y70.126 E.51569
G1 X187.214 Y70.126 E.01675
G1 X199.374 Y82.286 E.53938
G1 X199.374 Y82.819 E.01672
G1 X186.681 Y70.126 E.56302
G1 X186.148 Y70.126 E.01672
G1 X199.374 Y83.352 E.58666
G1 X199.374 Y83.886 E.01675
G1 X185.614 Y70.126 E.61035
G1 X185.081 Y70.126 E.01672
G1 X199.374 Y84.419 E.63399
G1 X199.374 Y84.953 E.01675
G1 X184.547 Y70.126 E.65767
G1 X184.014 Y70.126 E.01672
G1 X199.374 Y85.486 E.68132
G1 X199.374 Y86.02 E.01675
G1 X183.48 Y70.126 E.705
G1 X182.947 Y70.126 E.01672
G1 X199.374 Y86.553 E.72864
G1 X199.374 Y87.087 E.01675
G1 X182.413 Y70.126 E.75233
G1 X181.88 Y70.126 E.01672
G1 X199.374 Y87.62 E.77597
G1 X199.374 Y88.153 E.01672
G1 X181.347 Y70.126 E.79962
G1 X180.813 Y70.126 E.01675
G1 X199.374 Y88.687 E.8233
G1 X199.374 Y89.22 E.01672
G1 X180.28 Y70.126 E.84694
G1 X179.746 Y70.126 E.01675
G1 X199.374 Y89.754 E.87063
G1 X199.374 Y90.287 E.01672
G1 X179.213 Y70.126 E.89427
M73 Q1 S94
G1 X178.679 Y70.126 E.01675
M73 Q2 S94
G1 X199.374 Y90.821 E.91796
G1 X199.374 Y91.354 E.01672
G1 X178.146 Y70.126 E.9416
G1 X177.612 Y70.126 E.01675
M73 P2 R94
G1 X199.374 Y91.888 E.96529
G1 X199.374 Y92.421 E.01672
G1 X177.079 Y70.126 E.98893
G1 X176.545 Y70.126 E.01675
G1 X199.374 Y92.955 E1.01262
G1 X199.374 Y93.488 E.01672
G1 X176.012 Y70.126 E1.03626
G1 X175.479 Y70.126 E.01672
G1 X199.374 Y94.021 E1.0599
G1 X199.374 Y94.555 E.01675
G1 X174.945 Y70.126 E1.08359
G1 X174.412 Y70.126 E.01672
G1 X199.374 Y95.088 E1.10723
G1 X199.374 Y95.622 E.01675
G1 X173.878 Y70.126 E1.13091
G1 X173.345 Y70.126 E.01672
G1 X199.374 Y96.155 E1.15456
G1 X199.374 Y96.689 E.01675
G1 X172.811 Y70.126 E1.17824
G1 X172.278 Y70.126 E.01672
G1 X199.374 Y97.222 E1.20188
G1 X199.374 Y97.756 E.01675
G1 X171.744 Y70.126 E1.22557
G1 X171.211 Y70.126 E.01672
G1 X199.374 Y98.289 E1.24921
G1 X199.374 Y98.822 E.01672
G1 X170.678 Y70.126 E1.27286
G1 X170.144 Y70.126 E.01675
G1 X199.374 Y99.356 E1.29654
G1 X199.374 Y99.889 E.01672
G1 X169.611 Y70.126 E1.32018
G1 X169.077 Y70.126 E.01675
G1 X199.374 Y100.423 E1.34387
G1 X199.374 Y100.956 E.01672
M73 P2 R93
G1 X168.544 Y70.126 E1.36751
G1 X168.01 Y70.126 E.01675
G1 X199.374 Y101.49 E1.3912
G1 X199.374 Y102.023 E.01672
G1 X167.477 Y70.126 E1.41484
G1 X166.943 Y70.126 E.01675
G1 X199.374 Y102.557 E1.43853
G1 X199.374 Y103.09 E.01672
G1 X166.41 Y70.126 E1.46217
G1 X165.876 Y70.126 E.01675
G1 X199.374 Y103.624 E1.48586
G1 X199.374 Y104.157 E.01672
G1 X165.343 Y70.126 E1.5095
G1 X164.81 Y70.126 E.01672
G1 X199.374 Y104.69 E1.53314
G1 X199.374 Y105.224 E.01675
G1 X164.276 Y70.126 E1.55683
G1 X163.743 Y70.126 E.01672
G1 X199.374 Y105.757 E1.58047
G1 X199.374 Y106.291 E.01675
M73 Q3 S93
G1 X163.209 Y70.126 E1.60415
G1 X162.676 Y70.126 E.01672
M73 P3 R93
G1 X199.374 Y106.824 E1.6278
G1 X199.374 Y107.358 E.01675
G1 X162.142 Y70.126 E1.65148
G1 X161.609 Y70.126 E.01672
G1 X199.374 Y107.891 E1.67512
G1 X199.374 Y108.425 E.01675
G1 X161.075 Y70.126 E1.69881
G1 X160.542 Y70.126 E.01672
G1 X199.374 Y108.958 E1.72245
G1 X199.374 Y109.491 E.01672
G1 X160.009 Y70.126 E1.7461
G1 X159.475 Y70.126 E.01675
G1 X199.374 Y110.025 E1.76978
G1 X199.374 Y110.558 E.01672
G1 X158.942 Y70.126 E1.79342
G1 X158.408 Y70.126 E.01675
G1 X199.374 Y111.092 E1.81711
G1 X199.374 Y111.625 E.01672
G1 X157.875 Y70.126 E1.84075
G1 X157.341 Y70.126 E.01675
G1 X199.374 Y112.159 E1.86444
G1 X199.374 Y112.692 E.01672
G1 X156.808 Y70.126 E1.88808
G1 X156.274 Y70.126 E.01675
M73 P3 R92
G1 X199.374 Y113.226 E1.91177
G1 X199.374 Y113.759 E.01672
G1 X155.741 Y70.126 E1.93541
G1 X155.207 Y70.126 E.01675
G1 X199.374 Y114.293 E1.9591
G1 X199.374 Y114.826 E.01672
G1 X154.674 Y70.126 E1.98274
G1 X154.141 Y70.126 E.01672
G1 X199.374 Y115.359 E2.00638
G1 X199.374 Y115.893 E.01675
G1 X153.607 Y70.126 E2.03007
G1 X153.074 Y70.126 E.01672
G1 X199.374 Y116.426 E2.05371
G1 X199.374 Y116.96 E.01675
M73 P4 R92
M73 Q4 S93
G1 X152.54 Y70.126 E2.07739
G1 X152.007 Y70.126 E.01672
M73 Q4 S92
G1 X199.374 Y117.493 E2.10104
G1 X199.374 Y118.027 E.01675
G1 X151.473 Y70.126 E2.12472
