; generated by PrusaSlicer 2.9.3 on 2025-11-22 at 18:49:31 UTC


;
;
; 

; external perimeters extrusion width = 0.45mm
; perimeters extrusion width = 0.45mm
; infill extrusion width = 0.45mm
; solid infill extrusion width = 0.45mm
; top infill extrusion width = 0.40mm
; first layer extrusion width = 0.42mm

M73 P0 R232
M73 Q0 S238
M201 X1000 Y1000 Z200 E5000 ; sets maximum accelerations, mm/sec^2
M203 X200 Y200 Z12 E120 ; sets maximum feedrates, mm / sec
M204 S1250 T1250 ; sets acceleration (S) and retract acceleration (R), mm/sec^2
M205 X8.00 Y8.00 Z0.40 E4.50 ; sets the jerk limits, mm/sec
M205 S0 T0 ; sets the minimum extruding and travel feed rate, mm/sec

; printing object shelly-pro-2-case.stl id:0 copy 0
; stop printing object shelly-pro-2-case.stl id:0 copy 0

;TYPE:Custom
M862.3 P "MK3S" ; printer model check
M862.1 P0.4 ; nozzle diameter check
M115 U3.14.1 ; tell printer latest fw version
G90 ; use absolute coordinates
M83 ; extruder relative mode
M104 S215 ; set extruder temp
M140 S60 ; set bed temp
M190 S60 ; wait for bed temp
M109 S215 ; wait for extruder temp
G28 W ; home all without mesh bed level
G80 X47.1229 Y66.6229 W155.754 H76.7542 ; mesh bed levelling

G1 Z0.2 F720
G1 Y-3 F1000 ; go outside print area
G92 E0
G1 X60 E9 F1000 ; intro line
G1 X100 E12.5 F1000 ; intro line

G92 E0
M221 S95

; Don't change E values below. Excessive value can damage the printer.

M907 E538 ; set extruder motor current
G21 ; set units to millimeters
G90 ; use absolute coordinates
M83 ; use relative distances for extrusion

M900 K0.05 ; Filament gcode LA 1.5
M900 K30 ; Filament gcode LA 1.0




M107
;LAYER_CHANGE
;Z:0.2
;HEIGHT:0.2
G1 E-.8 F2100
G1 Z.6 F720
G1 X48.735 Y66.949 F10800
G1 Z.2 F720
G1 E.8 F2100
M204 S800
;TYPE:Skirt/Brim
;WIDTH:0.42
G1 F1200
G1 X49.5 Y66.811 E.02437
G1 X200.5 Y66.811 E4.7345
G1 X201.748 Y67.202 E.04101
G1 X202.551 Y68.235 E.04102
G1 X202.689 Y69 E.02437
G1 X202.689 Y141 E2.25751
G1 X202.298 Y142.248 E.04101
G1 X201.265 Y143.051 E.04102
G1 X200.5 Y143.189 E.02437
G1 X49.5 Y143.189 E4.7345
G1 X48.252 Y142.798 E.04101
G1 X47.449 Y141.765 E.04102
G1 X47.311 Y141 E.02437
G1 X47.311 Y69 E2.25751
G1 X47.702 Y67.752 E.04101
G1 X48.688 Y66.986 E.03915
M204 S1000
;WIPE_START
G1 F8640
G1 X48.735 Y66.949 E-.01381
G1 X49.5 Y66.811 E-.17949
G1 X52.128 Y66.811 E-.6067
;WIPE_END
G1 Z.6 F720
; printing object shelly-pro-2-case.stl id:0 copy 0
G1 X162.393 Y112.113 F10800
G1 Z.2 F720
G1 E.8 F2100
M204 S800
;TYPE:Perimeter
;WIDTH:0.419999
G1 F1200
G1 X162.512 Y112.221 E.00504
G1 X162.779 Y112.287 E.00862
G1 X199.713 Y112.287 E1.15804
G1 X199.713 Y126.25 E.4378
G1 X199.713 Y140.213 E.4378
G1 X50.287 Y140.213 E4.68514
G1 X50.287 Y69.787 E2.20815
M73 P0 R231
M73 Q0 S237
G1 X199.713 Y69.787 E4.68514
G1 X199.713 Y96.713 E.84424
G1 X162.779 Y96.713 E1.15804
G1 X162.714 Y96.717 E.00204
G1 X162.455 Y96.815 E.00868
G1 X162.279 Y97.012 E.00828
G1 X162.213 Y97.279 E.00862
G1 X162.213 Y111.721 E.45282
G1 X162.312 Y112.041 E.0105
G1 X162.348 Y112.073 E.00151
M204 S1000
G1 X162.676 Y111.862 F10800
M204 S800
;TYPE:External perimeter
G1 F1200
G1 X162.779 Y111.91 E.00356
G1 X200.09 Y111.91 E1.16986
G1 X200.09 Y126.25 E.44962
G1 X200.09 Y140.59 E.44962
G1 X49.91 Y140.59 E4.70878
G1 X49.91 Y69.41 E2.2318
G1 X200.09 Y69.41 E4.70878
G1 X200.09 Y97.09 E.86789
G1 X162.779 Y97.09 E1.16986
G1 X162.655 Y97.136 E.00415
G1 X162.59 Y97.279 E.00493
G1 X162.59 Y111.721 E.45282
G1 X162.629 Y111.83 E.00363
M204 S1000
;WIPE_START
G1 F8640
G1 X162.676 Y111.862 E-.01313
G1 X162.779 Y111.91 E-.02624
G1 X166.073 Y111.91 E-.76063
;WIPE_END
G1 Z.6 F720
G1 X199.543 Y70.719 F10800
G1 Z.2 F720
G1 E.8 F2100
M204 S800
;TYPE:Solid infill
;WIDTH:0.420126
G1 F1200
G1 X198.95 Y70.126 E.0263
G1 X198.417 Y70.126 E.01672
G1 X199.374 Y71.083 E.04245
G1 X199.374 Y71.617 E.01675
G1 X197.883 Y70.126 E.06614
G1 X197.35 Y70.126 E.01672
G1 X199.374 Y72.15 E.08978
G1 X199.374 Y72.683 E.01672
G1 X196.817 Y70.126 E.11342
G1 X196.283 Y70.126 E.01675
G1 X199.374 Y73.217 E.13711
G1 X199.374 Y73.75 E.01672
G1 X195.75 Y70.126 E.16075
G1 X195.216 Y70.126 E.01675
G1 X199.374 Y74.284 E.18443
G1 X199.374 Y74.817 E.01672
G1 X194.683 Y70.126 E.20808
G1 X194.149 Y70.126 E.01675
G1 X199.374 Y75.351 E.23176
G1 X199.374 Y75.884 E.01672
G1 X193.616 Y70.126 E.2554
G1 X193.082 Y70.126 E.01675
G1 X199.374 Y76.418 E.27909
G1 X199.374 Y76.951 E.01672
G1 X192.549 Y70.126 E.30273
G1 X192.016 Y70.126 E.01672
G1 X199.374 Y77.484 E.32638
G1 X199.374 Y78.018 E.01675
G1 X191.482 Y70.126 E.35006
G1 X190.949 Y70.126 E.01672
G1 X199.374 Y78.551 E.3737
G1 X199.374 Y79.085 E.01675
G1 X190.415 Y70.126 E.39739
G1 X189.882 Y70.126 E.01672
G1 X199.374 Y79.618 E.42103
G1 X199.374 Y80.152 E.01675
G1 X189.348 Y70.126 E.44472
G1 X188.815 Y70.126 E.01672
G1 X199.374 Y80.685 E.46836
G1 X199.374 Y81.219 E.01675
G1 X188.281 Y70.126 E.49205
G1 X187.748 Y70.126 E.01672
G1 X199.374 Y81.752 E.51569
G1 X199.374 Y82.286 E.01675
G1 X187.214 Y70.126 E.53938
G1 X186.681 Y70.126 E.01672
G1 X199.374 Y82.819 E.56302
G1 X199.374 Y83.352 E.01672
M73 P0 R230
G1 X186.148 Y70.126 E.58666
G1 X185.614 Y70.126 E.01675
G1 X199.374 Y83.886 E.61035
G1 X199.374 Y84.419 E.01672
M73 Q0 S236
G1 X185.081 Y70.126 E.63399
G1 X184.547 Y70.126 E.01675
G1 X199.374 Y84.953 E.65767
G1 X199.374 Y85.486 E.01672
G1 X184.014 Y70.126 E.68132
G1 X183.48 Y70.126 E.01675
G1 X199.374 Y86.02 E.705
G1 X199.374 Y86.553 E.01672
G1 X182.947 Y70.126 E.72864
G1 X182.413 Y70.126 E.01675
G1 X199.374 Y87.087 E.75233
G1 X199.374 Y87.62 E.01672
G1 X181.88 Y70.126 E.77597
G1 X181.347 Y70.126 E.01672
G1 X199.374 Y88.153 E.79962
G1 X199.374 Y88.687 E.01675
G1 X180.813 Y70.126 E.8233
G1 X180.28 Y70.126 E.01672
G1 X199.374 Y89.22 E.84694
G1 X199.374 Y89.754 E.01675
G1 X179.746 Y70.126 E.87063
G1 X179.213 Y70.126 E.01672
G1 X199.374 Y90.287 E.89427
G1 X199.374 Y90.821 E.01675
G1 X178.679 Y70.126 E.91796
G1 X178.146 Y70.126 E.01672
G1 X199.374 Y91.354 E.9416
G1 X199.374 Y91.888 E.01675
G1 X177.612 Y70.126 E.96529
G1 X177.079 Y70.126 E.01672
G1 X199.374 Y92.421 E.98893
G1 X199.374 Y92.955 E.01675
G1 X176.545 Y70.126 E1.01262
G1 X176.012 Y70.126 E.01672
G1 X199.374 Y93.488 E1.03626
G1 X199.374 Y94.021 E.01672
G1 X175.479 Y70.126 E1.0599
G1 X174.945 Y70.126 E.01675
G1 X199.374 Y94.555 E1.08359
G1 X199.374 Y95.088 E.01672
G1 X174.412 Y70.126 E1.10723
G1 X173.878 Y70.126 E.01675
G1 X199.374 Y95.622 E1.13091
G1 X199.374 Y96.155 E.01672
G1 X173.345 Y70.126 E1.15456
G1 X172.811 Y70.126 E.01675
G1 X199.058 Y96.374 E1.16425
G1 X198.525 Y96.374 E.01672
G1 X172.278 Y70.126 E1.16425
G1 X171.744 Y70.126 E.01675
G1 X197.992 Y96.374 E1.16427
G1 X197.458 Y96.374 E.01675
G1 X171.211 Y70.126 E1.16425
G1 X170.678 Y70.126 E.01672
G1 X196.925 Y96.374 E1.16425
G1 X196.391 Y96.374 E.01675
M73 P1 R230
G1 X170.144 Y70.126 E1.16425
G1 X169.611 Y70.126 E.01672
M73 Q1 S236
G1 X195.858 Y96.374 E1.16425
G1 X195.324 Y96.374 E.01675
G1 X169.077 Y70.126 E1.16425
G1 X168.544 Y70.126 E.01672
G1 X194.791 Y96.374 E1.16425
G1 X194.257 Y96.374 E.01675
G1 X168.01 Y70.126 E1.16425
G1 X167.477 Y70.126 E.01672
G1 X193.724 Y96.374 E1.16425
G1 X193.19 Y96.374 E.01675
G1 X166.943 Y70.126 E1.16425
G1 X166.41 Y70.126 E.01672
G1 X192.657 Y96.374 E1.16425
G1 X192.124 Y96.374 E.01672
M73 P1 R229
G1 X165.876 Y70.126 E1.16427
G1 X165.343 Y70.126 E.01672
M73 Q1 S235
G1 X191.59 Y96.374 E1.16425
G1 X191.057 Y96.374 E.01672
G1 X164.81 Y70.126 E1.16425
G1 X164.276 Y70.126 E.01675
G1 X190.523 Y96.374 E1.16425
G1 X189.99 Y96.374 E.01672
G1 X163.743 Y70.126 E1.16425
G1 X163.209 Y70.126 E.01675
G1 X189.456 Y96.374 E1.16425
G1 X188.923 Y96.374 E.01672
G1 X162.676 Y70.126 E1.16425
G1 X162.142 Y70.126 E.01675
G1 X188.389 Y96.374 E1.16425
G1 X187.856 Y96.374 E.01672
G1 X161.609 Y70.126 E1.16425
G1 X161.075 Y70.126 E.01675
G1 X187.323 Y96.374 E1.16427
G1 X186.789 Y96.374 E.01675
G1 X160.542 Y70.126 E1.16425
G1 X160.009 Y70.126 E.01672
G1 X186.256 Y96.374 E1.16425
G1 X185.722 Y96.374 E.01675
G1 X159.475 Y70.126 E1.16425
G1 X158.942 Y70.126 E.01672
G1 X185.189 Y96.374 E1.16425
G1 X184.655 Y96.374 E.01675
G1 X158.408 Y70.126 E1.16425
G1 X157.875 Y70.126 E.01672
G1 X184.122 Y96.374 E1.16425
G1 X183.588 Y96.374 E.01675
G1 X157.341 Y70.126 E1.16425
G1 X156.808 Y70.126 E.01672
G1 X183.055 Y96.374 E1.16425
G1 X182.522 Y96.374 E.01672
G1 X156.274 Y70.126 E1.16427
G1 X155.741 Y70.126 E.01672
G1 X181.988 Y96.374 E1.16425
G1 X181.455 Y96.374 E.01672
G1 X155.207 Y70.126 E1.16427
G1 X154.674 Y70.126 E.01672
G1 X180.921 Y96.374 E1.16425
G1 X180.388 Y96.374 E.01672
G1 X154.141 Y70.126 E1.16425
G1 X153.607 Y70.126 E.01675
G1 X179.854 Y96.374 E1.16425
G1 X179.321 Y96.374 E.01672
G1 X153.074 Y70.126 E1.16425
G1 X152.54 Y70.126 E.01675
G1 X178.787 Y96.374 E1.16425
G1 X178.254 Y96.374 E.01672
G1 X152.007 Y70.126 E1.16425
G1 X151.473 Y70.126 E.01675
G1 X177.72 Y96.374 E1.16425
G1 X177.187 Y96.374 E.01672
G1 X150.94 Y70.126 E1.16425
G1 X150.406 Y70.126 E.01675
G1 X176.654 Y96.374 E1.16427
G1 X176.12 Y96.374 E.01675
G1 X149.873 Y70.126 E1.16425
G1 X149.34 Y70.126 E.01672
G1 X175.587 Y96.374 E1.16425
G1 X175.053 Y96.374 E.01675
M73 P1 R228
G1 X148.806 Y70.126 E1.16425
G1 X148.273 Y70.126 E.01672
M73 Q1 S234
G1 X174.52 Y96.374 E1.16425
G1 X173.986 Y96.374 E.01675
G1 X147.739 Y70.126 E1.16425
G1 X147.206 Y70.126 E.01672
G1 X173.453 Y96.374 E1.16425
G1 X172.919 Y96.374 E.01675
G1 X146.672 Y70.126 E1.16425
G1 X146.139 Y70.126 E.01672
G1 X172.386 Y96.374 E1.16425
G1 X171.853 Y96.374 E.01672
G1 X145.605 Y70.126 E1.16427
G1 X145.072 Y70.126 E.01672
G1 X171.319 Y96.374 E1.16425
G1 X170.786 Y96.374 E.01672
G1 X144.539 Y70.126 E1.16425
G1 X144.005 Y70.126 E.01675
G1 X170.252 Y96.374 E1.16425
G1 X169.719 Y96.374 E.01672
G1 X143.472 Y70.126 E1.16425
G1 X142.938 Y70.126 E.01675
G1 X169.185 Y96.374 E1.16425
G1 X168.652 Y96.374 E.01672
G1 X142.405 Y70.126 E1.16425
G1 X141.871 Y70.126 E.01675
G1 X168.118 Y96.374 E1.16425
G1 X167.585 Y96.374 E.01672
G1 X141.338 Y70.126 E1.16425
G1 X140.804 Y70.126 E.01675
G1 X167.051 Y96.374 E1.16425
G1 X166.518 Y96.374 E.01672
G1 X140.271 Y70.126 E1.16425
G1 X139.737 Y70.126 E.01675
G1 X165.985 Y96.374 E1.16427
G1 X165.451 Y96.374 E.01675
G1 X139.204 Y70.126 E1.16425
G1 X138.671 Y70.126 E.01672
G1 X164.918 Y96.374 E1.16425
G1 X164.384 Y96.374 E.01675
G1 X138.137 Y70.126 E1.16425
G1 X137.604 Y70.126 E.01672
G1 X163.851 Y96.374 E1.16425
G1 X163.317 Y96.374 E.01675
G1 X137.07 Y70.126 E1.16425
G1 X136.537 Y70.126 E.01672
G1 X162.784 Y96.374 E1.16425
G1 X162.62 Y96.387 E.00516
G1 X162.43 Y96.442 E.0062
G1 X162.359 Y96.482 E.00256
G1 X136.003 Y70.126 E1.16906
G1 X135.47 Y70.126 E.01672
G1 X162.067 Y96.724 E1.17977
G1 X161.934 Y96.951 E.00825
G1 X161.896 Y97.086 E.0044
G1 X134.936 Y70.126 E1.19585
G1 X134.403 Y70.126 E.01672
G1 X161.874 Y97.597 E1.21852
G1 X161.874 Y98.131 E.01675
G1 X133.87 Y70.126 E1.24218
G1 X133.336 Y70.126 E.01675
G1 X161.874 Y98.664 E1.26585
G1 X161.874 Y99.197 E.01672
G1 X132.803 Y70.126 E1.28949
G1 X132.269 Y70.126 E.01675
M73 P1 R227
G1 X161.874 Y99.731 E1.31318
G1 X161.874 Y100.264 E.01672
M73 Q1 S233
G1 X131.736 Y70.126 E1.33682
G1 X131.202 Y70.126 E.01675
M73 P2 R227
G1 X161.874 Y100.798 E1.3605
G1 X161.874 Y101.331 E.01672
G1 X130.669 Y70.126 E1.38415
G1 X130.135 Y70.126 E.01675
G1 X161.874 Y101.865 E1.40783
G1 X161.874 Y102.398 E.01672
M73 Q2 S233
G1 X129.602 Y70.126 E1.43147
G1 X129.068 Y70.126 E.01675
G1 X161.874 Y102.932 E1.45516
G1 X161.874 Y103.465 E.01672
G1 X128.535 Y70.126 E1.4788
G1 X128.002 Y70.126 E.01672
G1 X161.874 Y103.999 E1.50247
G1 X161.874 Y104.532 E.01672
G1 X127.468 Y70.126 E1.52613
G1 X126.935 Y70.126 E.01672
G1 X161.874 Y105.066 E1.5498
G1 X161.874 Y105.599 E.01672
G1 X126.401 Y70.126 E1.57346
G1 X125.868 Y70.126 E.01672
G1 X161.874 Y106.132 E1.5971
G1 X161.874 Y106.666 E.01675
G1 X125.334 Y70.126 E1.62079
G1 X124.801 Y70.126 E.01672
G1 X161.874 Y107.199 E1.64443
G1 X161.874 Y107.733 E.01675
G1 X124.267 Y70.126 E1.66812
G1 X123.734 Y70.126 E.01672
G1 X161.874 Y108.266 E1.69176
G1 X161.874 Y108.8 E.01675
G1 X123.201 Y70.126 E1.71542
G1 X122.667 Y70.126 E.01675
G1 X161.874 Y109.333 E1.73909
G1 X161.874 Y109.867 E.01675
G1 X122.134 Y70.126 E1.76275
G1 X121.6 Y70.126 E.01675
G1 X161.874 Y110.4 E1.78642
G1 X161.874 Y110.934 E.01675
G1 X121.067 Y70.126 E1.81008
G1 X120.533 Y70.126 E.01675
G1 X162.044 Y111.637 E1.84128
M204 S1000
;WIPE_START
G1 F8640
G1 X159.594 Y109.187 E-.8
;WIPE_END
G1 Z.6 F720
G1 X199.138 Y112.457 F10800
G1 Z.2 F720
G1 E.8 F2100
M204 S800
G1 F1200
G1 X199.374 Y112.692 E.01045
G1 X199.374 Y113.226 E.01675
G1 X198.774 Y112.626 E.02661
G1 X198.241 Y112.626 E.01672
G1 X199.374 Y113.759 E.05026
G1 X199.374 Y114.293 E.01675
M73 P2 R226
G1 X197.707 Y112.626 E.07394
G1 X197.174 Y112.626 E.01672
G1 X199.374 Y114.826 E.09758
G1 X199.374 Y115.359 E.01672
G1 X196.641 Y112.626 E.12123
G1 X196.107 Y112.626 E.01675
G1 X199.374 Y115.893 E.14491
G1 X199.374 Y116.426 E.01672
G1 X195.574 Y112.626 E.16855
G1 X195.04 Y112.626 E.01675
M73 Q2 S232
G1 X199.374 Y116.96 E.19224
G1 X199.374 Y117.493 E.01672
G1 X194.507 Y112.626 E.21588
G1 X193.973 Y112.626 E.01675
G1 X199.374 Y118.027 E.23957
G1 X199.374 Y118.56 E.01672
G1 X193.44 Y112.626 E.26321
G1 X192.906 Y112.626 E.01675
G1 X199.374 Y119.094 E.2869
G1 X199.374 Y119.627 E.01672
G1 X192.373 Y112.626 E.31054
G1 X191.84 Y112.626 E.01672
G1 X199.374 Y120.16 E.33418
G1 X199.374 Y120.694 E.01675
G1 X191.306 Y112.626 E.35787
G1 X190.773 Y112.626 E.01672
G1 X199.374 Y121.227 E.38151
G1 X199.374 Y121.761 E.01675
G1 X190.239 Y112.626 E.4052
G1 X189.706 Y112.626 E.01672
G1 X199.374 Y122.294 E.42884
G1 X199.374 Y122.828 E.01675
G1 X189.172 Y112.626 E.45253
G1 X188.639 Y112.626 E.01672
G1 X199.374 Y123.361 E.47617
G1 X199.374 Y123.895 E.01675
G1 X188.105 Y112.626 E.49985
G1 X187.572 Y112.626 E.01672
G1 X199.374 Y124.428 E.5235
G1 X199.374 Y124.962 E.01675
G1 X187.039 Y112.626 E.54716
G1 X186.505 Y112.626 E.01675
G1 X199.374 Y125.495 E.57082
G1 X199.374 Y126.028 E.01672
G1 X185.972 Y112.626 E.59447
G1 X185.438 Y112.626 E.01675
G1 X199.374 Y126.562 E.61815
G1 X199.374 Y127.095 E.01672
G1 X184.905 Y112.626 E.64179
G1 X184.371 Y112.626 E.01675
G1 X199.374 Y127.629 E.66548
G1 X199.374 Y128.162 E.01672
G1 X183.838 Y112.626 E.68912
G1 X183.304 Y112.626 E.01675
G1 X199.374 Y128.696 E.71281
G1 X199.374 Y129.229 E.01672
G1 X182.771 Y112.626 E.73645
G1 X182.237 Y112.626 E.01675
G1 X199.374 Y129.763 E.76014
G1 X199.374 Y130.296 E.01672
G1 X181.704 Y112.626 E.78378
G1 X181.171 Y112.626 E.01672
G1 X199.374 Y130.829 E.80742
G1 X199.374 Y131.363 E.01675
G1 X180.637 Y112.626 E.83111
G1 X180.104 Y112.626 E.01672
G1 X199.374 Y131.896 E.85475
G1 X199.374 Y132.43 E.01675
G1 X179.57 Y112.626 E.87844
G1 X179.037 Y112.626 E.01672
G1 X199.374 Y132.963 E.90208
G1 X199.374 Y133.497 E.01675
G1 X178.503 Y112.626 E.92577
G1 X177.97 Y112.626 E.01672
G1 X199.374 Y134.03 E.94941
G1 X199.374 Y134.564 E.01675
G1 X177.436 Y112.626 E.97309
G1 X176.903 Y112.626 E.01672
G1 X199.374 Y135.097 E.99674
G1 X199.374 Y135.63 E.01672
G1 X176.37 Y112.626 E1.02038
G1 X175.836 Y112.626 E.01675
G1 X199.374 Y136.164 E1.04406
G1 X199.374 Y136.697 E.01672
G1 X175.303 Y112.626 E1.06771
G1 X174.769 Y112.626 E.01675
G1 X199.374 Y137.231 E1.09139
G1 X199.374 Y137.764 E.01672
G1 X174.236 Y112.626 E1.11503
G1 X173.702 Y112.626 E.01675
G1 X199.374 Y138.298 E1.13872
G1 X199.374 Y138.831 E.01672
G1 X173.169 Y112.626 E1.16236
G1 X172.635 Y112.626 E.01675
G1 X199.374 Y139.365 E1.18605
G1 X199.374 Y139.874 E.01596
G1 X199.349 Y139.874 E.00078
G1 X172.102 Y112.626 E1.2086
G1 X171.568 Y112.626 E.01675
G1 X198.816 Y139.874 E1.20863
G1 X198.282 Y139.874 E.01675
G1 X171.035 Y112.626 E1.2086
G1 X170.502 Y112.626 E.01672
G1 X197.749 Y139.874 E1.2086
G1 X197.215 Y139.874 E.01675
G1 X169.968 Y112.626 E1.2086
G1 X169.435 Y112.626 E.01672
M73 P2 R225
G1 X196.682 Y139.874 E1.2086
G1 X196.148 Y139.874 E.01675
M73 Q2 S231
G1 X168.901 Y112.626 E1.2086
G1 X168.368 Y112.626 E.01672
G1 X195.615 Y139.874 E1.2086
G1 X195.081 Y139.874 E.01675
G1 X167.834 Y112.626 E1.2086
G1 X167.301 Y112.626 E.01672
G1 X194.548 Y139.874 E1.2086
