; generated by PrusaSlicer 2.9.3 on 2026-01-10 at 11:32:10 UTC


;
;
; 

; external perimeters extrusion width = 0.45mm
; perimeters extrusion width = 0.45mm
; infill extrusion width = 0.45mm
; solid infill extrusion width = 0.45mm
; top infill extrusion width = 0.40mm
; support material extrusion width = 0.35mm
; first layer extrusion width = 0.42mm

M73 P0 R109
M73 Q0 S114
M201 X1000 Y1000 Z200 E5000 ; sets maximum accelerations, mm/sec^2
M203 X200 Y200 Z12 E120 ; sets maximum feedrates, mm / sec
M204 S1250 T1250 ; sets acceleration (S) and retract acceleration (R), mm/sec^2
M205 X8.00 Y8.00 Z0.40 E4.50 ; sets the jerk limits, mm/sec
M205 S0 T0 ; sets the minimum extruding and travel feed rate, mm/sec

; printing object raspberry-pi-cm4-poe-board-rack.stl id:0 copy 0
; stop printing object raspberry-pi-cm4-poe-board-rack.stl id:0 copy 0

;TYPE:Custom
M862.3 P "MK3S" ; printer model check
M862.1 P0.4 ; nozzle diameter check
M115 U3.14.1 ; tell printer latest fw version
G90 ; use absolute coordinates
M83 ; extruder relative mode
M104 S240 ; set extruder temp
M140 S85 ; set bed temp
M190 S85 ; wait for bed temp
M109 S240 ; wait for extruder temp
G28 W ; home all without mesh bed level
G80 X22.4229 Y53.5379 W205.154 H98.7392 ; mesh bed levelling

G1 Z0.2 F720
G1 Y-3 F1000 ; go outside print area
G92 E0
G1 X60 E9 F1000 ; intro line
G1 X100 E12.5 F1000 ; intro line

G92 E0
M221 S95

; Don't change E values below. Excessive value can damage the printer.

M907 E538 ; set extruder motor current
G21 ; set units to millimeters
G90 ; use absolute coordinates
M83 ; use relative distances for extrusion

M900 K0.08 ; Filament gcode LA 1.5
M900 K45 ; Filament gcode LA 1.0




M107
;LAYER_CHANGE
;Z:0.2
;HEIGHT:0.2
G1 E-1 F2100
G1 Z.4 F720
G1 X28.364 Y54.24 F10800
G1 Z.2 F720
G1 E1 F2100
M204 S800
;TYPE:Skirt/Brim
;WIDTH:0.42
G1 F1200
G1 X29.773 Y53.726 E.04703
G1 X220.227 Y53.726 E5.97155
G1 X221.636 Y54.24 E.04703
M73 Q0 S113
G1 X226.609 Y58.425 E.20379
G1 X227.389 Y60.1 E.05793
G1 X227.334 Y62.586 E.07797
G1 X207.334 Y150.386 E2.82343
G1 X206.676 Y151.516 E.041
G1 X205.2 Y152.089 E.04964
G1 X44.8 Y152.089 E5.02923
G1 X43.552 Y151.698 E.04101
G1 X42.666 Y150.386 E.04964
G1 X22.666 Y62.586 E2.82343
G1 X22.611 Y60.1 E.07797
G1 X23.391 Y58.425 E.05793
G1 X28.318 Y54.279 E.2019
M204 S1000
;WIPE_START
G1 F8640
G1 X28.364 Y54.24 E-.01393
G1 X29.773 Y53.726 E-.34631
G1 X32.544 Y53.726 E-.63976
;WIPE_END
G1 Z.4 F720
; printing object raspberry-pi-cm4-poe-board-rack.stl id:0 copy 0
G1 X220.227 Y66.416 F10800
G1 Z.2 F720
G1 E1 F2100
M204 S800
;TYPE:Support material
G1 F1200
G1 X209.726 Y66.416 E.32925
G1 X209.726 Y62.58 E.12028
G1 X220.227 Y62.58 E.32925
G1 X220.227 Y66.359 E.11849
M204 S1000
G1 X219.689 Y66.246 F10800
M204 S800
G1 F1200
G1 X219.689 Y62.919 E.10432
G1 X219.27 Y62.919 E.01314
G1 X219.27 Y66.077 E.09902
G1 X218.851 Y66.077 E.01314
G1 X218.851 Y62.919 E.09902
G1 X218.432 Y62.919 E.01314
G1 X218.432 Y66.077 E.09902
G1 X218.013 Y66.077 E.01314
G1 X218.013 Y62.919 E.09902
G1 X217.594 Y62.919 E.01314
G1 X217.594 Y66.077 E.09902
G1 X217.175 Y66.077 E.01314
G1 X217.175 Y62.919 E.09902
G1 X216.756 Y62.919 E.01314
G1 X216.756 Y66.077 E.09902
G1 X216.337 Y66.077 E.01314
G1 X216.337 Y62.919 E.09902
G1 X215.918 Y62.919 E.01314
G1 X215.918 Y66.077 E.09902
G1 X215.499 Y66.077 E.01314
G1 X215.499 Y62.919 E.09902
G1 X215.08 Y62.919 E.01314
G1 X215.08 Y66.077 E.09902
G1 X214.661 Y66.077 E.01314
G1 X214.661 Y62.919 E.09902
G1 X214.242 Y62.919 E.01314
G1 X214.242 Y66.077 E.09902
G1 X213.823 Y66.077 E.01314
G1 X213.823 Y62.919 E.09902
G1 X213.404 Y62.919 E.01314
G1 X213.404 Y66.077 E.09902
G1 X212.985 Y66.077 E.01314
G1 X212.985 Y62.919 E.09902
G1 X212.566 Y62.919 E.01314
G1 X212.566 Y66.077 E.09902
G1 X212.147 Y66.077 E.01314
G1 X212.147 Y62.919 E.09902
G1 X211.728 Y62.919 E.01314
G1 X211.728 Y66.077 E.09902
G1 X211.309 Y66.077 E.01314
G1 X211.309 Y62.919 E.09902
G1 X210.89 Y62.919 E.01314
G1 X210.89 Y66.077 E.09902
G1 X210.471 Y66.077 E.01314
G1 X210.471 Y62.75 E.10432
M204 S1000
;WIPE_START
G1 F8640
G1 X210.471 Y66.077 E-.76821
G1 X210.89 Y66.077 E-.09675
G1 X210.89 Y65.492 E-.13504
;WIPE_END
G1 Z.4 F720
G1 X208.691 Y59.62 F10800
G1 Z.2 F720
G1 E1 F2100
M204 S800
G1 F1200
G1 X41.309 Y59.62 E5.24815
G1 X41.309 Y55.915 E.11617
G1 X208.691 Y55.915 E5.24815
G1 X208.691 Y59.563 E.11438
M73 P0 R108
M204 S1000
G1 X207.957 Y59.45 F10800
M204 S800
G1 F1200
G1 X207.957 Y56.254 E.10021
G1 X207.538 Y56.254 E.01314
G1 X207.538 Y59.281 E.09491
G1 X207.119 Y59.281 E.01314
G1 X207.119 Y56.254 E.09491
G1 X206.701 Y56.254 E.01311
G1 X206.701 Y59.281 E.09491
G1 X206.282 Y59.281 E.01314
G1 X206.282 Y56.254 E.09491
G1 X205.863 Y56.254 E.01314
G1 X205.863 Y59.281 E.09491
G1 X205.444 Y59.281 E.01314
G1 X205.444 Y56.254 E.09491
G1 X205.025 Y56.254 E.01314
G1 X205.025 Y59.281 E.09491
G1 X204.606 Y59.281 E.01314
G1 X204.606 Y56.254 E.09491
G1 X204.187 Y56.254 E.01314
G1 X204.187 Y59.281 E.09491
G1 X203.768 Y59.281 E.01314
G1 X203.768 Y56.254 E.09491
G1 X203.349 Y56.254 E.01314
G1 X203.349 Y59.281 E.09491
G1 X202.93 Y59.281 E.01314
G1 X202.93 Y56.254 E.09491
G1 X202.511 Y56.254 E.01314
G1 X202.511 Y59.281 E.09491
G1 X202.092 Y59.281 E.01314
G1 X202.092 Y56.254 E.09491
G1 X201.673 Y56.254 E.01314
G1 X201.673 Y59.281 E.09491
G1 X201.254 Y59.281 E.01314
G1 X201.254 Y56.254 E.09491
G1 X200.835 Y56.254 E.01314
G1 X200.835 Y59.281 E.09491
G1 X200.416 Y59.281 E.01314
G1 X200.416 Y56.254 E.09491
G1 X199.997 Y56.254 E.01314
G1 X199.997 Y59.281 E.09491
G1 X199.578 Y59.281 E.01314
G1 X199.578 Y56.254 E.09491
G1 X199.159 Y56.254 E.01314
G1 X199.159 Y59.281 E.09491
G1 X198.74 Y59.281 E.01314
G1 X198.74 Y56.254 E.09491
G1 X198.321 Y56.254 E.01314
G1 X198.321 Y59.281 E.09491
G1 X197.902 Y59.281 E.01314
G1 X197.902 Y56.254 E.09491
G1 X197.483 Y56.254 E.01314
G1 X197.483 Y59.281 E.09491
G1 X197.064 Y59.281 E.01314
G1 X197.064 Y56.254 E.09491
G1 X196.645 Y56.254 E.01314
G1 X196.645 Y59.281 E.09491
G1 X196.226 Y59.281 E.01314
G1 X196.226 Y56.254 E.09491
G1 X195.807 Y56.254 E.01314
G1 X195.807 Y59.281 E.09491
G1 X195.388 Y59.281 E.01314
M73 P1 R108
G1 X195.388 Y56.254 E.09491
G1 X194.969 Y56.254 E.01314
G1 X194.969 Y59.281 E.09491
G1 X194.55 Y59.281 E.01314
G1 X194.55 Y56.254 E.09491
G1 X194.131 Y56.254 E.01314
G1 X194.131 Y59.281 E.09491
G1 X193.712 Y59.281 E.01314
G1 X193.712 Y56.254 E.09491
G1 X193.293 Y56.254 E.01314
G1 X193.293 Y59.281 E.09491
G1 X192.874 Y59.281 E.01314
G1 X192.874 Y56.254 E.09491
G1 X192.455 Y56.254 E.01314
G1 X192.455 Y59.281 E.09491
G1 X192.036 Y59.281 E.01314
G1 X192.036 Y56.254 E.09491
G1 X191.617 Y56.254 E.01314
M73 Q1 S113
G1 X191.617 Y59.281 E.09491
G1 X191.198 Y59.281 E.01314
G1 X191.198 Y56.254 E.09491
G1 X190.779 Y56.254 E.01314
G1 X190.779 Y59.281 E.09491
G1 X190.36 Y59.281 E.01314
G1 X190.36 Y56.254 E.09491
G1 X189.941 Y56.254 E.01314
G1 X189.941 Y59.281 E.09491
G1 X189.522 Y59.281 E.01314
G1 X189.522 Y56.254 E.09491
G1 X189.103 Y56.254 E.01314
G1 X189.103 Y59.281 E.09491
G1 X188.685 Y59.281 E.01311
G1 X188.685 Y56.254 E.09491
G1 X188.266 Y56.254 E.01314
M73 Q1 S112
G1 X188.266 Y59.281 E.09491
G1 X187.847 Y59.281 E.01314
G1 X187.847 Y56.254 E.09491
G1 X187.428 Y56.254 E.01314
G1 X187.428 Y59.281 E.09491
G1 X187.009 Y59.281 E.01314
G1 X187.009 Y56.254 E.09491
G1 X186.59 Y56.254 E.01314
G1 X186.59 Y59.281 E.09491
G1 X186.171 Y59.281 E.01314
G1 X186.171 Y56.254 E.09491
G1 X185.752 Y56.254 E.01314
G1 X185.752 Y59.281 E.09491
G1 X185.333 Y59.281 E.01314
G1 X185.333 Y56.254 E.09491
G1 X184.914 Y56.254 E.01314
G1 X184.914 Y59.281 E.09491
G1 X184.495 Y59.281 E.01314
G1 X184.495 Y56.254 E.09491
G1 X184.076 Y56.254 E.01314
G1 X184.076 Y59.281 E.09491
G1 X183.657 Y59.281 E.01314
G1 X183.657 Y56.254 E.09491
G1 X183.238 Y56.254 E.01314
G1 X183.238 Y59.281 E.09491
G1 X182.819 Y59.281 E.01314
G1 X182.819 Y56.254 E.09491
G1 X182.4 Y56.254 E.01314
G1 X182.4 Y59.281 E.09491
G1 X181.981 Y59.281 E.01314
G1 X181.981 Y56.254 E.09491
G1 X181.562 Y56.254 E.01314
G1 X181.562 Y59.281 E.09491
G1 X181.143 Y59.281 E.01314
G1 X181.143 Y56.254 E.09491
G1 X180.724 Y56.254 E.01314
G1 X180.724 Y59.281 E.09491
G1 X180.305 Y59.281 E.01314
G1 X180.305 Y56.254 E.09491
G1 X179.886 Y56.254 E.01314
G1 X179.886 Y59.281 E.09491
G1 X179.467 Y59.281 E.01314
G1 X179.467 Y56.254 E.09491
G1 X179.048 Y56.254 E.01314
G1 X179.048 Y59.281 E.09491
G1 X178.629 Y59.281 E.01314
G1 X178.629 Y56.254 E.09491
G1 X178.21 Y56.254 E.01314
G1 X178.21 Y59.281 E.09491
G1 X177.791 Y59.281 E.01314
G1 X177.791 Y56.254 E.09491
G1 X177.372 Y56.254 E.01314
G1 X177.372 Y59.281 E.09491
G1 X176.953 Y59.281 E.01314
G1 X176.953 Y56.254 E.09491
G1 X176.534 Y56.254 E.01314
G1 X176.534 Y59.281 E.09491
G1 X176.115 Y59.281 E.01314
G1 X176.115 Y56.254 E.09491
G1 X175.696 Y56.254 E.01314
G1 X175.696 Y59.281 E.09491
G1 X175.277 Y59.281 E.01314
G1 X175.277 Y56.254 E.09491
G1 X174.858 Y56.254 E.01314
G1 X174.858 Y59.281 E.09491
G1 X174.439 Y59.281 E.01314
G1 X174.439 Y56.254 E.09491
G1 X174.02 Y56.254 E.01314
G1 X174.02 Y59.281 E.09491
G1 X173.601 Y59.281 E.01314
G1 X173.601 Y56.254 E.09491
G1 X173.182 Y56.254 E.01314
G1 X173.182 Y59.281 E.09491
G1 X172.763 Y59.281 E.01314
G1 X172.763 Y56.254 E.09491
G1 X172.344 Y56.254 E.01314
G1 X172.344 Y59.281 E.09491
G1 X171.925 Y59.281 E.01314
G1 X171.925 Y56.254 E.09491
G1 X171.506 Y56.254 E.01314
G1 X171.506 Y59.281 E.09491
G1 X171.087 Y59.281 E.01314
G1 X171.087 Y56.254 E.09491
G1 X170.668 Y56.254 E.01314
G1 X170.668 Y59.281 E.09491
G1 X170.25 Y59.281 E.01311
G1 X170.25 Y56.254 E.09491
G1 X169.831 Y56.254 E.01314
G1 X169.831 Y59.281 E.09491
G1 X169.412 Y59.281 E.01314
G1 X169.412 Y56.254 E.09491
G1 X168.993 Y56.254 E.01314
G1 X168.993 Y59.281 E.09491
G1 X168.574 Y59.281 E.01314
G1 X168.574 Y56.254 E.09491
G1 X168.155 Y56.254 E.01314
G1 X168.155 Y59.281 E.09491
G1 X167.736 Y59.281 E.01314
G1 X167.736 Y56.254 E.09491
G1 X167.317 Y56.254 E.01314
G1 X167.317 Y59.281 E.09491
G1 X166.898 Y59.281 E.01314
G1 X166.898 Y56.254 E.09491
G1 X166.479 Y56.254 E.01314
G1 X166.479 Y59.281 E.09491
G1 X166.06 Y59.281 E.01314
G1 X166.06 Y56.254 E.09491
G1 X165.641 Y56.254 E.01314
G1 X165.641 Y59.281 E.09491
G1 X165.222 Y59.281 E.01314
G1 X165.222 Y56.254 E.09491
G1 X164.803 Y56.254 E.01314
G1 X164.803 Y59.281 E.09491
G1 X164.384 Y59.281 E.01314
G1 X164.384 Y56.254 E.09491
G1 X163.965 Y56.254 E.01314
G1 X163.965 Y59.281 E.09491
G1 X163.546 Y59.281 E.01314
G1 X163.546 Y56.254 E.09491
G1 X163.127 Y56.254 E.01314
G1 X163.127 Y59.281 E.09491
G1 X162.708 Y59.281 E.01314
G1 X162.708 Y56.254 E.09491
G1 X162.289 Y56.254 E.01314
G1 X162.289 Y59.281 E.09491
G1 X161.87 Y59.281 E.01314
G1 X161.87 Y56.254 E.09491
G1 X161.451 Y56.254 E.01314
G1 X161.451 Y59.281 E.09491
G1 X161.032 Y59.281 E.01314
G1 X161.032 Y56.254 E.09491
G1 X160.613 Y56.254 E.01314
G1 X160.613 Y59.281 E.09491
G1 X160.194 Y59.281 E.01314
G1 X160.194 Y56.254 E.09491
G1 X159.775 Y56.254 E.01314
G1 X159.775 Y59.281 E.09491
G1 X159.356 Y59.281 E.01314
G1 X159.356 Y56.254 E.09491
G1 X158.937 Y56.254 E.01314
G1 X158.937 Y59.281 E.09491
G1 X158.518 Y59.281 E.01314
G1 X158.518 Y56.254 E.09491
G1 X158.099 Y56.254 E.01314
G1 X158.099 Y59.281 E.09491
G1 X157.68 Y59.281 E.01314
G1 X157.68 Y56.254 E.09491
G1 X157.261 Y56.254 E.01314
G1 X157.261 Y59.281 E.09491
G1 X156.842 Y59.281 E.01314
G1 X156.842 Y56.254 E.09491
G1 X156.423 Y56.254 E.01314
G1 X156.423 Y59.281 E.09491
G1 X156.004 Y59.281 E.01314
G1 X156.004 Y56.254 E.09491
G1 X155.585 Y56.254 E.01314
G1 X155.585 Y59.281 E.09491
G1 X155.166 Y59.281 E.01314
G1 X155.166 Y56.254 E.09491
G1 X154.747 Y56.254 E.01314
G1 X154.747 Y59.281 E.09491
G1 X154.328 Y59.281 E.01314
G1 X154.328 Y56.254 E.09491
G1 X153.909 Y56.254 E.01314
G1 X153.909 Y59.281 E.09491
G1 X153.49 Y59.281 E.01314
G1 X153.49 Y56.254 E.09491
G1 X153.071 Y56.254 E.01314
G1 X153.071 Y59.281 E.09491
G1 X152.652 Y59.281 E.01314
G1 X152.652 Y56.254 E.09491
G1 X152.234 Y56.254 E.01311
G1 X152.234 Y59.281 E.09491
G1 X151.815 Y59.281 E.01314
G1 X151.815 Y56.254 E.09491
G1 X151.396 Y56.254 E.01314
G1 X151.396 Y59.281 E.09491
G1 X150.977 Y59.281 E.01314
G1 X150.977 Y56.254 E.09491
G1 X150.558 Y56.254 E.01314
G1 X150.558 Y59.281 E.09491
G1 X150.139 Y59.281 E.01314
G1 X150.139 Y56.254 E.09491
G1 X149.72 Y56.254 E.01314
G1 X149.72 Y59.281 E.09491
G1 X149.301 Y59.281 E.01314
G1 X149.301 Y56.254 E.09491
G1 X148.882 Y56.254 E.01314
G1 X148.882 Y59.281 E.09491
G1 X148.463 Y59.281 E.01314
G1 X148.463 Y56.254 E.09491
G1 X148.044 Y56.254 E.01314
G1 X148.044 Y59.281 E.09491
G1 X147.625 Y59.281 E.01314
G1 X147.625 Y56.254 E.09491
G1 X147.206 Y56.254 E.01314
G1 X147.206 Y59.281 E.09491
G1 X146.787 Y59.281 E.01314
G1 X146.787 Y56.254 E.09491
G1 X146.368 Y56.254 E.01314
G1 X146.368 Y59.281 E.09491
G1 X145.949 Y59.281 E.01314
G1 X145.949 Y56.254 E.09491
G1 X145.53 Y56.254 E.01314
G1 X145.53 Y59.281 E.09491
G1 X145.111 Y59.281 E.01314
G1 X145.111 Y56.254 E.09491
G1 X144.692 Y56.254 E.01314
G1 X144.692 Y59.281 E.09491
G1 X144.273 Y59.281 E.01314
G1 X144.273 Y56.254 E.09491
G1 X143.854 Y56.254 E.01314
G1 X143.854 Y59.281 E.09491
G1 X143.435 Y59.281 E.01314
G1 X143.435 Y56.254 E.09491
G1 X143.016 Y56.254 E.01314
G1 X143.016 Y59.281 E.09491
G1 X142.597 Y59.281 E.01314
G1 X142.597 Y56.254 E.09491
G1 X142.178 Y56.254 E.01314
G1 X142.178 Y59.281 E.09491
G1 X141.759 Y59.281 E.01314
G1 X141.759 Y56.254 E.09491
G1 X141.34 Y56.254 E.01314
G1 X141.34 Y59.281 E.09491
G1 X140.921 Y59.281 E.01314
G1 X140.921 Y56.254 E.09491
G1 X140.502 Y56.254 E.01314
G1 X140.502 Y59.281 E.09491
G1 X140.083 Y59.281 E.01314
G1 X140.083 Y56.254 E.09491
G1 X139.664 Y56.254 E.01314
G1 X139.664 Y59.281 E.09491
G1 X139.245 Y59.281 E.01314
G1 X139.245 Y56.254 E.09491
G1 X138.826 Y56.254 E.01314
G1 X138.826 Y59.281 E.09491
G1 X138.407 Y59.281 E.01314
G1 X138.407 Y56.254 E.09491
G1 X137.988 Y56.254 E.01314
G1 X137.988 Y59.281 E.09491
G1 X137.569 Y59.281 E.01314
G1 X137.569 Y56.254 E.09491
G1 X137.15 Y56.254 E.01314
G1 X137.15 Y59.281 E.09491
G1 X136.731 Y59.281 E.01314
G1 X136.731 Y56.254 E.09491
G1 X136.312 Y56.254 E.01314
G1 X136.312 Y59.281 E.09491
G1 X135.893 Y59.281 E.01314
G1 X135.893 Y56.254 E.09491
G1 X135.474 Y56.254 E.01314
G1 X135.474 Y59.281 E.09491
G1 X135.055 Y59.281 E.01314
G1 X135.055 Y56.254 E.09491
G1 X134.636 Y56.254 E.01314
G1 X134.636 Y59.281 E.09491
G1 X134.217 Y59.281 E.01314
G1 X134.217 Y56.254 E.09491
G1 X133.799 Y56.254 E.01311
G1 X133.799 Y59.281 E.09491
G1 X133.38 Y59.281 E.01314
G1 X133.38 Y56.254 E.09491
G1 X132.961 Y56.254 E.01314
G1 X132.961 Y59.281 E.09491
G1 X132.542 Y59.281 E.01314
G1 X132.542 Y56.254 E.09491
G1 X132.123 Y56.254 E.01314
G1 X132.123 Y59.281 E.09491
G1 X131.704 Y59.281 E.01314
G1 X131.704 Y56.254 E.09491
G1 X131.285 Y56.254 E.01314
G1 X131.285 Y59.281 E.09491
G1 X130.866 Y59.281 E.01314
G1 X130.866 Y56.254 E.09491
G1 X130.447 Y56.254 E.01314
G1 X130.447 Y59.281 E.09491
G1 X130.028 Y59.281 E.01314
G1 X130.028 Y56.254 E.09491
G1 X129.609 Y56.254 E.01314
G1 X129.609 Y59.281 E.09491
G1 X129.19 Y59.281 E.01314
G1 X129.19 Y56.254 E.09491
G1 X128.771 Y56.254 E.01314
G1 X128.771 Y59.281 E.09491
G1 X128.352 Y59.281 E.01314
G1 X128.352 Y56.254 E.09491
G1 X127.933 Y56.254 E.01314
G1 X127.933 Y59.281 E.09491
G1 X127.514 Y59.281 E.01314
G1 X127.514 Y56.254 E.09491
G1 X127.095 Y56.254 E.01314
G1 X127.095 Y59.281 E.09491
G1 X126.676 Y59.281 E.01314
G1 X126.676 Y56.254 E.09491
G1 X126.257 Y56.254 E.01314
G1 X126.257 Y59.281 E.09491
G1 X125.838 Y59.281 E.01314
G1 X125.838 Y56.254 E.09491
G1 X125.419 Y56.254 E.01314
G1 X125.419 Y59.281 E.09491
G1 X125 Y59.281 E.01314
G1 X125 Y56.254 E.09491
G1 X124.581 Y56.254 E.01314
G1 X124.581 Y59.281 E.09491
G1 X124.162 Y59.281 E.01314
G1 X124.162 Y56.254 E.09491
G1 X123.743 Y56.254 E.01314
G1 X123.743 Y59.281 E.09491
G1 X123.324 Y59.281 E.01314
G1 X123.324 Y56.254 E.09491
G1 X122.905 Y56.254 E.01314
G1 X122.905 Y59.281 E.09491
G1 X122.486 Y59.281 E.01314
G1 X122.486 Y56.254 E.09491
G1 X122.067 Y56.254 E.01314
G1 X122.067 Y59.281 E.09491
G1 X121.648 Y59.281 E.01314
G1 X121.648 Y56.254 E.09491
G1 X121.229 Y56.254 E.01314
