; generated by PrusaSlicer 2.9.3 on 2025-12-02 at 23:16:36 UTC


;
;
; 

; external perimeters extrusion width = 0.45mm
; perimeters extrusion width = 0.45mm
; infill extrusion width = 0.45mm
; solid infill extrusion width = 0.45mm
; top infill extrusion width = 0.40mm
; first layer extrusion width = 0.42mm

M73 P0 R37
M73 Q0 S37
M201 X1000 Y1000 Z200 E5000 ; sets maximum accelerations, mm/sec^2
M203 X200 Y200 Z12 E120 ; sets maximum feedrates, mm / sec
M204 S1250 T1250 ; sets acceleration (S) and retract acceleration (R), mm/sec^2
M205 X8.00 Y8.00 Z0.40 E4.50 ; sets the jerk limits, mm/sec
M205 S0 T0 ; sets the minimum extruding and travel feed rate, mm/sec

; printing object aa-battery.stl id:0 copy 0
; stop printing object aa-battery.stl id:0 copy 0

;TYPE:Custom
M862.3 P "MK3S" ; printer model check
M862.1 P0.4 ; nozzle diameter check
M115 U3.14.1 ; tell printer latest fw version
G90 ; use absolute coordinates
M83 ; extruder relative mode
M104 S255 ; set extruder temp
M140 S100 ; set bed temp
M190 S100 ; wait for bed temp
M109 S255 ; wait for extruder temp
G28 W ; home all without mesh bed level
G80 X114.878 Y96.1355 W20.2432 H17.729 ; mesh bed levelling

G1 Z0.2 F720
G1 Y-3 F1000 ; go outside print area
G92 E0
G1 X60 E9 F1000 ; intro line
G1 X100 E12.5 F1000 ; intro line
M73 P0 R36

G92 E0
M221 S95

; Don't change E values below. Excessive value can damage the printer.

M907 E538 ; set extruder motor current
G21 ; set units to millimeters
G90 ; use absolute coordinates
M83 ; use relative distances for extrusion

M900 K0.04 ; Filament gcode LA 1.5
M900 K20 ; Filament gcode LA 1.0




M107
;LAYER_CHANGE
;Z:0.2
;HEIGHT:0.2
G1 E-.8 F2100
M73 Q0 S36
G1 Z.6 F720
G1 X116.828 Y99.348 F10800
G1 Z.2 F720
G1 E.8 F2100
M204 S800
;TYPE:Skirt/Brim
;WIDTH:0.42
G1 F1200
G1 X118.137 Y97.815 E.0632
G1 X119.348 Y96.828 E.04898
G1 X121 Y96.324 E.05415
G1 X129 Y96.324 E.25083
G1 X130.538 Y96.758 E.05011
G1 X131.861 Y97.813 E.05306
G1 X133.172 Y99.348 E.06329
G1 X133.948 Y100.681 E.04836
G1 X134.374 Y101.706 E.0348
G1 X134.775 Y103.216 E.04899
G1 X134.934 Y105.231 E.06338
G1 X134.775 Y106.782 E.04889
G1 X134.376 Y108.289 E.04888
G1 X133.956 Y109.304 E.03444
G1 X133.172 Y110.652 E.04889
G1 X132.187 Y111.861 E.0489
G1 X130.652 Y113.172 E.06329
G1 X129 Y113.676 E.05415
G1 X121 Y113.676 E.25083
G1 X119.348 Y113.172 E.05415
G1 X118.139 Y112.187 E.0489
G1 X116.828 Y110.652 E.06329
G1 X116.052 Y109.319 E.04836
G1 X115.626 Y108.294 E.0348
G1 X115.225 Y106.784 E.04899
G1 X115.066 Y104.769 E.06338
G1 X115.225 Y103.218 E.04889
G1 X115.624 Y101.711 E.04888
G1 X116.044 Y100.696 E.03444
G1 X116.798 Y99.4 E.04701
M204 S1000
G1 X117.123 Y99.59 F10800
M204 S800
G1 F1200
G1 X117.149 Y99.545 E.00163
G1 X118.098 Y98.386 E.04697
G1 X119.219 Y97.386 E.0471
G1 X119.659 Y97.079 E.01682
G1 X121 Y96.701 E.04368
G1 X129 Y96.701 E.25083
G1 X130.341 Y97.079 E.04368
G1 X131.616 Y98.099 E.0512
G1 X132.851 Y99.545 E.05962
G1 X133.599 Y100.826 E.04651
G1 X134.026 Y101.851 E.03482
G1 X134.408 Y103.304 E.04711
G1 X134.558 Y105.201 E.05966
G1 X134.409 Y106.694 E.04704
G1 X134.152 Y107.762 E.03444
G1 X133.607 Y109.16 E.04705
G1 X132.851 Y110.455 E.04702
G1 X131.901 Y111.616 E.04704
G1 X130.781 Y112.614 E.04704
G1 X130.341 Y112.921 E.01682
G1 X129 Y113.299 E.04368
G1 X121 Y113.299 E.25083
G1 X119.545 Y112.851 E.04773
G1 X118.384 Y111.901 E.04704
G1 X117.149 Y110.455 E.05962
G1 X116.401 Y109.174 E.04651
G1 X115.974 Y108.149 E.03482
G1 X115.592 Y106.696 E.04711
G1 X115.442 Y104.799 E.05966
G1 X115.591 Y103.306 E.04704
G1 X115.848 Y102.238 E.03444
G1 X116.393 Y100.84 E.04705
G1 X117.093 Y99.642 E.0435
M204 S1000
G1 X117.418 Y99.833 F10800
M204 S800
G1 F1200
G1 X117.471 Y99.742 E.0033
G1 X118.385 Y98.631 E.04511
G1 X119.464 Y97.673 E.04524
G1 X119.856 Y97.401 E.01496
G1 X121 Y97.078 E.03727
G1 X129 Y97.078 E.25083
G1 X130.144 Y97.401 E.03727
G1 X131.371 Y98.386 E.04933
G1 X132.529 Y99.742 E.05591
G1 X133.259 Y100.985 E.0452
G1 X133.679 Y101.999 E.03441
G1 X134.041 Y103.392 E.04513
G1 X134.182 Y104.828 E.04524
G1 X134.042 Y106.606 E.05592
G1 X133.785 Y107.674 E.03444
G1 X133.259 Y109.015 E.04516
G1 X132.529 Y110.258 E.0452
G1 X131.614 Y111.371 E.04518
G1 X130.536 Y112.327 E.04518
G1 X130.144 Y112.599 E.01496
G1 X129 Y112.922 E.03727
G1 X121 Y112.922 E.25083
G1 X119.742 Y112.529 E.04132
G1 X118.629 Y111.614 E.04518
G1 X117.471 Y110.258 E.05591
G1 X116.741 Y109.015 E.0452
G1 X116.321 Y108.001 E.03441
G1 X115.959 Y106.608 E.04513
G1 X115.818 Y105.172 E.04524
G1 X115.958 Y103.394 E.05592
G1 X116.215 Y102.326 E.03444
G1 X116.741 Y100.985 E.04516
G1 X117.387 Y99.884 E.04002
M204 S1000
;WIPE_START
G1 F8640
G1 X117.418 Y99.833 E-.01378
G1 X117.471 Y99.742 E-.02432
G1 X118.385 Y98.631 E-.33219
G1 X119.464 Y97.673 E-.33317
G1 X119.808 Y97.434 E-.09654
;WIPE_END
G1 Z.6 F720
; printing object aa-battery.stl id:0 copy 0
G1 X120.385 Y107.413 F10800
G1 Z.2 F720
G1 E.8 F2100
M204 S800
;TYPE:Perimeter
;WIDTH:0.419999
G1 F1200
G1 X120.219 Y107.697 E.01031
G1 X120.249 Y109.019 E.04146
G1 X119.986 Y108.67 E.0137
G1 X119.467 Y107.82 E.03123
G1 X119.093 Y106.919 E.03059
G1 X118.866 Y105.972 E.03053
G1 X118.79 Y105 E.03057
G1 X118.866 Y104.028 E.03057
G1 X119.093 Y103.081 E.03053
G1 X119.467 Y102.18 E.03059
G1 X119.982 Y101.336 E.031
G1 X120.249 Y100.981 E.01393
G1 X120.219 Y102.303 E.04146
G1 X120.433 Y102.669 E.01329
G1 X120.668 Y102.776 E.0081
G1 X128.99 Y102.787 E.26093
G1 X129.332 Y102.776 E.01073
G1 X129.567 Y102.669 E.0081
G1 X129.781 Y102.303 E.01329
G1 X129.751 Y100.981 E.04146
G1 X130.014 Y101.33 E.0137
G1 X130.533 Y102.18 E.03123
G1 X130.907 Y103.081 E.03059
G1 X131.134 Y104.028 E.03053
G1 X131.179 Y104.596 E.01787
G1 X131.197 Y105.174 E.01813
G1 X131.134 Y105.972 E.0251
G1 X130.907 Y106.919 E.03053
G1 X130.533 Y107.82 E.03059
G1 X130.018 Y108.664 E.031
G1 X129.751 Y109.019 E.01393
G1 X129.781 Y107.697 E.04146
G1 X129.567 Y107.331 E.01329
G1 X129.332 Y107.224 E.0081
G1 X129.222 Y107.213 E.00347
G1 X120.668 Y107.224 E.2682
G1 X120.433 Y107.331 E.0081
G1 X120.415 Y107.361 E.0011
M204 S1000
G1 X120.64 Y107.679 F10800
M204 S800
;TYPE:External perimeter
G1 F1200
G1 X120.59 Y107.783 E.00362
G1 X120.62 Y108.948 E.03654
G1 X120.79 Y109.842 E.02853
G1 X120.768 Y110.271 E.01347
G1 X120.435 Y109.982 E.01382
G1 X120.098 Y109.446 E.01985
G1 X119.673 Y108.882 E.02214
G1 X119.129 Y107.991 E.03273
G1 X118.734 Y107.036 E.0324
G1 X118.492 Y106.031 E.03241
G1 X118.411 Y105 E.03243
G1 X118.492 Y103.969 E.03243
G1 X118.734 Y102.964 E.03241
G1 X119.106 Y102.064 E.03053
G1 X119.689 Y101.098 E.03538
G1 X120.114 Y100.53 E.02224
G1 X120.435 Y100.018 E.01895
G1 X120.768 Y99.729 E.01382
G1 X120.79 Y100.082 E.01109
G1 X120.616 Y101.083 E.03186
G1 X120.59 Y102.217 E.03557
G1 X120.663 Y102.37 E.00532
G1 X120.778 Y102.41 E.00382
G1 X129.222 Y102.41 E.26476
G1 X129.337 Y102.37 E.00382
G1 X129.41 Y102.217 E.00532
G1 X129.38 Y101.052 E.03654
G1 X129.21 Y100.158 E.02853
G1 X129.232 Y99.729 E.01347
G1 X129.565 Y100.018 E.01382
G1 X129.902 Y100.554 E.01985
G1 X130.327 Y101.118 E.02214
G1 X130.871 Y102.009 E.03273
G1 X131.266 Y102.964 E.0324
G1 X131.508 Y103.969 E.03241
G1 X131.555 Y104.566 E.01878
G1 X131.573 Y105.203 E.01998
G1 X131.508 Y106.031 E.02604
G1 X131.266 Y107.036 E.03241
G1 X130.894 Y107.936 E.03053
G1 X130.311 Y108.902 E.03538
G1 X129.886 Y109.47 E.02224
G1 X129.565 Y109.982 E.01895
G1 X129.232 Y110.271 E.01382
G1 X129.21 Y109.918 E.01109
G1 X129.384 Y108.917 E.03186
G1 X129.41 Y107.783 E.03557
G1 X129.337 Y107.63 E.00532
G1 X129.222 Y107.59 E.00382
G1 X120.778 Y107.59 E.26476
G1 X120.668 Y107.628 E.00365
M204 S1000
;WIPE_START
G1 F8640
G1 X120.64 Y107.679 E-.01343
G1 X120.59 Y107.783 E-.02665
G1 X120.62 Y108.948 E-.26909
G1 X120.79 Y109.842 E-.21013
G1 X120.768 Y110.271 E-.09919
G1 X120.435 Y109.982 E-.10181
G1 X120.252 Y109.69 E-.0797
;WIPE_END
G1 Z.6 F720
G1 X129.906 Y102.4 F10800
G1 Z.2 F720
G1 E.8 F2100
M73 Q1 S36
M204 S800
;TYPE:Solid infill
;WIDTH:0.422034
G1 F1200
G1 X130.505 Y102.999 E.0267
G1 X130.583 Y103.186 E.00639
G1 X130.718 Y103.748 E.01822
G1 X129.832 Y102.862 E.0395
G1 X129.789 Y102.936 E.0027
G1 X129.5 Y103.067 E.01
G1 X130.822 Y104.388 E.05891
G1 X130.868 Y104.97 E.0184
M73 P1 R36
G1 X129.024 Y103.126 E.08221
G1 X128.488 Y103.126 E.0169
G1 X130.833 Y105.472 E.10456
G1 X130.787 Y105.962 E.01551
G1 X127.951 Y103.126 E.12643
G1 X127.415 Y103.126 E.0169
G1 X130.683 Y106.394 E.14569
G1 X130.578 Y106.825 E.01398
G1 X126.879 Y103.126 E.1649
G1 X126.343 Y103.126 E.0169
G1 X130.421 Y107.204 E.1818
G1 X130.264 Y107.583 E.01293
G1 X125.807 Y103.126 E.1987
G1 X125.271 Y103.126 E.0169
G1 X129.018 Y106.874 E.16707
G1 X128.482 Y106.874 E.0169
G1 X124.735 Y103.126 E.16707
G1 X124.198 Y103.126 E.01693
G1 X127.946 Y106.874 E.16709
G1 X127.41 Y106.874 E.0169
G1 X123.662 Y103.126 E.16709
G1 X123.126 Y103.126 E.0169
G1 X126.874 Y106.874 E.16709
G1 X126.338 Y106.874 E.0169
G1 X122.59 Y103.126 E.16709
G1 X122.054 Y103.126 E.0169
G1 X125.801 Y106.874 E.16707
G1 X125.265 Y106.874 E.0169
G1 X121.518 Y103.126 E.16707
G1 X120.982 Y103.126 E.0169
G1 X124.729 Y106.874 E.16707
G1 X124.193 Y106.874 E.0169
G1 X119.736 Y102.417 E.1987
G1 X119.579 Y102.796 E.01293
G1 X123.657 Y106.874 E.1818
G1 X123.121 Y106.874 E.0169
G1 X119.422 Y103.175 E.1649
G1 X119.316 Y103.606 E.01399
G1 X122.585 Y106.874 E.14571
G1 X122.048 Y106.874 E.01693
G1 X119.213 Y104.038 E.12641
G1 X119.167 Y104.529 E.01555
G1 X121.512 Y106.874 E.10454
G1 X120.976 Y106.874 E.0169
G1 X119.132 Y105.03 E.08221
G1 X119.178 Y105.612 E.0184
G1 X120.499 Y106.933 E.05889
G1 X120.211 Y107.064 E.00997
G1 X120.168 Y107.138 E.0027
G1 X119.282 Y106.252 E.0395
G1 X119.417 Y106.814 E.01822
G1 X119.495 Y107.001 E.00639
G1 X120.094 Y107.6 E.0267
M204 S1000
;LAYER_CHANGE
;Z:0.4
;HEIGHT:0.2
;BEFORE_LAYER_CHANGE
G92 E0.0
;0.4


;WIPE_START
G1 F8640
G1 X119.495 Y107.001 E-.1956
G1 X119.417 Y106.814 E-.04678
G1 X119.282 Y106.252 E-.13346
G1 X120.168 Y107.138 E-.28932
G1 X120.211 Y107.064 E-.01976
G1 X120.499 Y106.933 E-.07306
G1 X120.37 Y106.804 E-.04202
;WIPE_END
G1 Z.4 F720
;AFTER_LAYER_CHANGE
;0.4
M140 S110 ; set bed temperature
; stop printing object aa-battery.stl id:0 copy 0
G1 Z.8
G1 X116.327 Y109.791 F10800
G1 Z.4 F720
G1 E.8 F2100
;TYPE:Skirt/Brim
;WIDTH:0.42
G1 F1302
G1 X116.052 Y109.319 E.01713
G1 X115.626 Y108.294 E.0348
G1 X115.225 Y106.784 E.04899
G1 X115.066 Y104.769 E.06338
G1 X115.225 Y103.218 E.04889
G1 X115.624 Y101.711 E.04888
G1 X116.044 Y100.696 E.03444
G1 X116.828 Y99.348 E.04889
G1 X118.137 Y97.815 E.0632
G1 X119.348 Y96.828 E.04898
G1 X121 Y96.324 E.05415
G1 X129 Y96.324 E.25083
G1 X130.538 Y96.758 E.05011
G1 X131.861 Y97.813 E.05306
G1 X133.172 Y99.348 E.06329
G1 X133.948 Y100.681 E.04836
G1 X134.374 Y101.706 E.0348
G1 X134.775 Y103.216 E.04899
G1 X134.934 Y105.231 E.06338
G1 X134.775 Y106.782 E.04889
G1 X134.376 Y108.289 E.04888
G1 X133.956 Y109.304 E.03444
G1 X133.172 Y110.652 E.04889
G1 X132.187 Y111.861 E.0489
G1 X130.652 Y113.172 E.06329
G1 X129 Y113.676 E.05415
G1 X121 Y113.676 E.25083
G1 X119.348 Y113.172 E.05415
G1 X118.139 Y112.187 E.0489
G1 X116.828 Y110.652 E.06329
G1 X116.357 Y109.843 E.02935
G1 X116.681 Y109.654 F10800
G1 F1302
G1 X116.401 Y109.174 E.01742
G1 X115.974 Y108.149 E.03482
G1 X115.592 Y106.696 E.04711
G1 X115.442 Y104.799 E.05966
G1 X115.591 Y103.306 E.04704
G1 X115.848 Y102.238 E.03444
G1 X116.393 Y100.84 E.04705
G1 X117.149 Y99.545 E.04702
G1 X118.098 Y98.386 E.04697
G1 X119.219 Y97.386 E.0471
G1 X119.659 Y97.079 E.01682
G1 X121 Y96.701 E.04368
G1 X129 Y96.701 E.25083
G1 X130.341 Y97.079 E.04368
G1 X131.616 Y98.099 E.0512
G1 X132.851 Y99.545 E.05962
G1 X133.599 Y100.826 E.04651
G1 X134.026 Y101.851 E.03482
G1 X134.408 Y103.304 E.04711
G1 X134.558 Y105.201 E.05966
G1 X134.409 Y106.694 E.04704
G1 X134.152 Y107.762 E.03444
G1 X133.607 Y109.16 E.04705
G1 X132.851 Y110.455 E.04702
G1 X131.901 Y111.616 E.04704
G1 X130.781 Y112.614 E.04704
G1 X130.341 Y112.921 E.01682
G1 X129 Y113.299 E.04368
G1 X121 Y113.299 E.25083
G1 X119.545 Y112.851 E.04773
G1 X118.384 Y111.901 E.04704
G1 X117.149 Y110.455 E.05962
G1 X116.711 Y109.706 E.02721
G1 X117.035 Y109.516 F10800
G1 F1302
G1 X116.741 Y109.015 E.01821
G1 X116.321 Y108.001 E.03441
G1 X115.959 Y106.608 E.04513
G1 X115.818 Y105.172 E.04524
G1 X115.958 Y103.394 E.05592
G1 X116.215 Y102.326 E.03444
G1 X116.741 Y100.985 E.04516
G1 X117.471 Y99.742 E.0452
G1 X118.385 Y98.631 E.04511
G1 X119.464 Y97.673 E.04524
G1 X119.856 Y97.401 E.01496
G1 X121 Y97.078 E.03727
G1 X129 Y97.078 E.25083
G1 X130.144 Y97.401 E.03727
G1 X131.371 Y98.386 E.04933
G1 X132.529 Y99.742 E.05591
G1 X133.259 Y100.985 E.0452
G1 X133.679 Y101.999 E.03441
G1 X134.041 Y103.392 E.04513
G1 X134.182 Y104.828 E.04524
G1 X134.042 Y106.606 E.05592
G1 X133.785 Y107.674 E.03444
G1 X133.259 Y109.015 E.04516
G1 X132.529 Y110.258 E.0452
G1 X131.614 Y111.371 E.04518
G1 X130.536 Y112.327 E.04518
G1 X130.144 Y112.599 E.01496
G1 X129 Y112.922 E.03727
G1 X121 Y112.922 E.25083
G1 X119.742 Y112.529 E.04132
G1 X118.629 Y111.614 E.04518
G1 X117.471 Y110.258 E.05591
G1 X117.065 Y109.567 E.02513
;WIPE_START
G1 F8640
G1 X117.035 Y109.516 E-.01366
G1 X116.741 Y109.015 E-.13413
G1 X116.321 Y108.001 E-.25343
G1 X115.959 Y106.608 E-.33233
G1 X115.931 Y106.322 E-.06645
;WIPE_END
G1 Z.8 F720
; printing object aa-battery.stl id:0 copy 0
G1 X120.56 Y107.562 F10800
G1 Z.4 F720
G1 E.8 F2100
M204 S800
;TYPE:Perimeter
;WIDTH:0.449999
G1 F1302
G1 X120.395 Y107.798 E.00975
G1 X120.368 Y107.979 E.00619
G1 X120.368 Y109.348 E.04634
G1 X119.85 Y108.742 E.02698
G1 X119.328 Y107.89 E.03382
G1 X118.948 Y106.974 E.03357
G1 X118.712 Y105.996 E.03405
G1 X118.634 Y105 E.03382
G1 X118.712 Y104.004 E.03382
G1 X118.944 Y103.039 E.03359
G1 X119.328 Y102.11 E.03403
G1 X119.85 Y101.258 E.03382
G1 X120.368 Y100.652 E.02698
G1 X120.368 Y101.427 E.02623
G1 X120.395 Y102.202 E.02625
G1 X120.613 Y102.511 E.0128
G1 X120.829 Y102.613 E.00809
G1 X120.979 Y102.632 E.00512
G1 X128.991 Y102.632 E.2712
G1 X129.171 Y102.613 E.00613
G1 X129.39 Y102.508 E.00822
G1 X129.605 Y102.202 E.01266
G1 X129.632 Y102.022 E.00616
G1 X129.632 Y100.652 E.04637
G1 X130.162 Y101.277 E.02774
G1 X130.69 Y102.152 E.03459
G1 X131.071 Y103.108 E.03483
G1 X131.298 Y104.14 E.03577
G1 X131.351 Y105.186 E.03545
G1 X131.288 Y105.996 E.0275
G1 X131.054 Y106.967 E.03381
G1 X130.672 Y107.89 E.03381
G1 X130.15 Y108.742 E.03382
G1 X129.632 Y109.348 E.02698
G1 X129.632 Y108.573 E.02623
G1 X129.605 Y107.798 E.02625
G1 X129.389 Y107.491 E.01271
G1 X129.171 Y107.387 E.00818
G1 X129.021 Y107.368 E.00512
G1 X121.009 Y107.368 E.2712
G1 X120.829 Y107.387 E.00613
G1 X120.61 Y107.492 E.00822
G1 X120.595 Y107.513 E.00087
M204 S1000
G1 X120.841 Y107.846 F10800
M204 S800
;TYPE:External perimeter
G1 F1302
G1 X120.775 Y107.979 E.00503
G1 X120.775 Y110.273 E.07765
G1 X120.21 Y109.79 E.02516
G1 X119.519 Y108.982 E.03599
G1 X118.964 Y108.075 E.03599
G1 X118.56 Y107.1 E.03572
G1 X118.309 Y106.06 E.03621
G1 X118.226 Y105 E.03599
G1 X118.309 Y103.94 E.03599
G1 X118.556 Y102.913 E.03575
G1 X118.964 Y101.924 E.03621
G1 X119.519 Y101.018 E.03596
G1 X120.21 Y100.21 E.03599
G1 X120.775 Y99.727 E.02516
G1 X120.775 Y102.021 E.07765
G1 X120.857 Y102.185 E.00621
G1 X120.979 Y102.225 E.00435
G1 X121.653 Y102.225 E.02281
G1 X128.316 Y102.225 E.22553
G1 X128.991 Y102.225 E.02285
G1 X129.144 Y102.184 E.00536
G1 X129.225 Y102.022 E.00613
G1 X129.226 Y99.728 E.07765
G1 X129.79 Y100.21 E.02511
G1 X130.481 Y101.018 E.03599
G1 X131.036 Y101.925 E.03599
G1 X131.44 Y102.9 E.03572
G1 X131.691 Y103.94 E.03621
G1 X131.755 Y104.752 E.02757
G1 X131.757 Y105.218 E.01577
G1 X131.691 Y106.06 E.02859
G1 X131.443 Y107.093 E.03596
G1 X131.036 Y108.075 E.03598
G1 X130.481 Y108.982 E.03599
G1 X129.79 Y109.79 E.03599
G1 X129.225 Y110.273 E.02516
G1 X129.225 Y107.979 E.07765
G1 X129.144 Y107.816 E.00616
G1 X129.021 Y107.775 E.00439
G1 X128.347 Y107.775 E.02281
G1 X121.684 Y107.775 E.22553
G1 X121.009 Y107.775 E.02285
G1 X120.882 Y107.809 E.00445
M204 S1000
;WIPE_START
G1 F8640
G1 X120.841 Y107.846 E-.01275
G1 X120.775 Y107.979 E-.03428
