; generated by PrusaSlicer 2.9.0 on 2025-10-05 at 18:57:43 UTC


;
;
; 

; external perimeters extrusion width = 0.45mm
; perimeters extrusion width = 0.45mm
; infill extrusion width = 0.45mm
; solid infill extrusion width = 0.45mm
; top infill extrusion width = 0.40mm
; first layer extrusion width = 0.42mm

M73 P0 R124
M73 Q0 S126
M201 X1000 Y1000 Z200 E5000 ; sets maximum accelerations, mm/sec^2
M203 X200 Y200 Z12 E120 ; sets maximum feedrates, mm / sec
M204 S1250 T1250 ; sets acceleration (S) and retract acceleration (R), mm/sec^2
M205 X8.00 Y8.00 Z0.40 E4.50 ; sets the jerk limits, mm/sec
M205 S0 T0 ; sets the minimum extruding and travel feed rate, mm/sec

; printing object n100-bottom-plate.stl id:0 copy 0
; stop printing object n100-bottom-plate.stl id:0 copy 0

;TYPE:Custom
M862.3 P "MK3S" ; printer model check
M862.1 P0.4 ; nozzle diameter check
M115 U3.14.1 ; tell printer latest fw version
G90 ; use absolute coordinates
M83 ; extruder relative mode
M104 S240 ; set extruder temp
M140 S85 ; set bed temp
M190 S85 ; wait for bed temp
M109 S240 ; wait for extruder temp
G28 W ; home all without mesh bed level
G80 X54.6229 Y39.6229 W140.754 H130.754 ; mesh bed levelling

G1 Z0.2 F720
G1 Y-3 F1000 ; go outside print area
G92 E0
G1 X60 E9 F1000 ; intro line
G1 X100 E12.5 F1000 ; intro line

G92 E0
M221 S95

; Don't change E values below. Excessive value can damage the printer.

M907 E538 ; set extruder motor current
G21 ; set units to millimeters
G90 ; use absolute coordinates
M83 ; use relative distances for extrusion

M900 K0.08 ; Filament gcode LA 1.5
M900 K45 ; Filament gcode LA 1.0




M107
;LAYER_CHANGE
;Z:0.2
;HEIGHT:0.2
G1 E-1 F2100
G1 Z.4 F720
G1 X56.107 Y42.888 F10800
G1 Z.2 F720
G1 E1 F2100
M204 S800
;TYPE:Skirt/Brim
;WIDTH:0.42
G1 F1200
G1 X56.857 Y41.982 E.03688
G1 X58.034 Y41.008 E.0479
G1 X59.065 Y40.441 E.03689
G1 X60.519 Y39.969 E.04793
G1 X61.683 Y39.821 E.03679
G1 X188.317 Y39.821 E3.97052
G1 X189.481 Y39.969 E.03679
G1 X190.935 Y40.441 E.04793
G1 X191.733 Y40.861 E.02827
G1 X192.474 Y41.377 E.02831
G1 X193.143 Y41.982 E.02828
G1 X193.731 Y42.666 E.02828
G1 X194.229 Y43.419 E.02831
G1 X194.73 Y44.483 E.03687
G1 X194.993 Y45.346 E.02829
G1 X195.145 Y46.236 E.02831
G1 X195.189 Y163 E3.66105
G1 X194.993 Y164.654 E.05222
G1 X194.629 Y165.772 E.03687
G1 X193.893 Y167.112 E.04794
G1 X193.143 Y168.018 E.03688
G1 X191.966 Y168.992 E.0479
G1 X190.935 Y169.559 E.03689
G1 X189.481 Y170.031 E.04793
G1 X188.317 Y170.179 E.03679
G1 X69.5 Y170.189 E3.72542
G1 X61.683 Y170.179 E.2451
G1 X60.789 Y170.083 E.02819
G1 X59.911 Y169.875 E.02829
G1 X58.817 Y169.442 E.03689
G1 X57.526 Y168.623 E.04794
G1 X56.857 Y168.018 E.02828
G1 X56.107 Y167.112 E.03688
G1 X55.371 Y165.772 E.04794
G1 X55.007 Y164.654 E.03687
G1 X54.811 Y163 E.05222
G1 X54.811 Y47 E3.6371
G1 X55.007 Y45.346 E.05222
G1 X55.371 Y44.228 E.03687
G1 X56.078 Y42.941 E.04604
M204 S1000
;WIPE_START
G1 F8640
G1 X56.107 Y42.888 E-.01395
G1 X56.857 Y41.982 E-.27158
G1 X58.034 Y41.008 E-.35276
G1 X59.065 Y40.441 E-.27169
G1 X59.436 Y40.321 E-.09002
;WIPE_END
G1 Z.4 F720
; printing object n100-bottom-plate.stl id:0 copy 0
G1 X121.114 Y52.892 F10800
G1 Z.2 F720
G1 E1 F2100
M204 S800
;TYPE:Perimeter
;WIDTH:0.419999
G1 F1200
G1 X121.217 Y53.006 E.00482
G1 X121.287 Y53.279 E.00884
G1 X121.287 Y56.721 E.10792
G1 X121.218 Y56.992 E.00877
G1 X121.103 Y57.139 E.00585
;WIDTH:0.444381
G1 X120.721 Y57.299 E.01383
G1 X75.279 Y57.299 E1.51693
G1 X74.891 Y57.133 E.01409
M73 Q0 S125
;WIDTH:0.419999
G1 X74.732 Y56.867 E.00972
G1 X74.713 Y56.02 E.02656
G1 X74.713 Y53.279 E.08594
G1 X74.78 Y53.011 E.00866
G1 X74.968 Y52.806 E.00872
G1 X75.194 Y52.719 E.00759
G1 X120.721 Y52.713 E1.42746
G1 X120.971 Y52.771 E.00805
G1 X121.041 Y52.812 E.00254
G1 X121.073 Y52.847 E.00149
M204 S1000
G1 X121.073 Y52.847 F10800
G1 X120.857 Y53.167
M204 S800
;TYPE:External perimeter
G1 F1200
G1 X120.907 Y53.245 E.0029
G1 X120.91 Y53.279 E.00107
G1 X120.91 Y56.721 E.10792
G1 X120.849 Y56.86 E.00476
G1 X120.721 Y56.91 E.00431
G1 X75.279 Y56.91 E1.4248
G1 X75.149 Y56.859 E.00438
G1 X75.09 Y56.721 E.00471
G1 X75.09 Y53.279 E.10792
G1 X75.155 Y53.136 E.00493
G1 X75.279 Y53.09 E.00415
G1 X120.721 Y53.09 E1.4248
G1 X120.821 Y53.121 E.00328
M204 S1000
;WIPE_START
G1 F8640
G1 X120.857 Y53.167 E-.01349
G1 X120.907 Y53.245 E-.02139
G1 X120.91 Y53.279 E-.00788
G1 X120.91 Y56.721 E-.79477
G1 X120.849 Y56.86 E-.03505
G1 X120.721 Y56.91 E-.03173
G1 X120.307 Y56.91 E-.09569
;WIPE_END
G1 Z.4 F720
G1 X175.131 Y72.9 F10800
G1 Z.2 F720
G1 E1 F2100
M204 S800
;TYPE:Perimeter
G1 F1200
G1 X175.269 Y73.137 E.0086
G1 X175.287 Y73.279 E.00449
G1 X175.287 Y76.721 E.10792
G1 X175.224 Y76.982 E.00842
G1 X175.114 Y77.129 E.00576
;WIDTH:0.444381
G1 X174.721 Y77.299 E.01429
G1 X129.279 Y77.299 E1.51693
G1 X128.897 Y77.139 E.01383
;WIDTH:0.419999
G1 X128.733 Y76.87 E.00988
G1 X128.713 Y76.721 E.00471
G1 X128.713 Y73.279 E.10792
G1 X128.782 Y73.008 E.00877
G1 X128.897 Y72.861 E.00585
;WIDTH:0.444381
G1 X129.279 Y72.701 E.01383
G1 X174.721 Y72.701 E1.51693
G1 X175.09 Y72.861 E.01343
M204 S1000
G1 X175.09 Y72.861 F10800
G1 X174.825 Y73.153
M204 S800
;TYPE:External perimeter
;WIDTH:0.419999
G1 F1200
G1 X174.889 Y73.192 E.00235
G1 X174.91 Y73.279 E.00281
G1 X174.91 Y76.721 E.10792
G1 X174.852 Y76.857 E.00464
G1 X174.721 Y76.91 E.00443
G1 X129.279 Y76.91 E1.4248
G1 X129.151 Y76.86 E.00431
G1 X129.09 Y76.721 E.00476
G1 X129.09 Y73.279 E.10792
G1 X129.151 Y73.14 E.00476
G1 X129.279 Y73.09 E.00431
G1 X174.721 Y73.09 E1.4248
G1 X174.773 Y73.122 E.00191
M204 S1000
;WIPE_START
G1 F8640
G1 X174.825 Y73.153 E-.01398
G1 X174.889 Y73.192 E-.01731
G1 X174.91 Y73.279 E-.02067
G1 X174.91 Y76.721 E-.79477
G1 X174.852 Y76.857 E-.03414
G1 X174.721 Y76.91 E-.03263
G1 X174.346 Y76.91 E-.0865
;WIPE_END
G1 Z.4 F720
G1 X61.724 Y53.878 F10800
G1 Z.2 F720
M73 P0 R123
G1 E1 F2100
M204 S800
G1 F1200
G1 X61.602 Y54.127 E.00869
G1 X61.175 Y54.567 E.01922
G1 X60.633 Y54.853 E.01921
G1 X60.029 Y54.958 E.01922
G1 X59.397 Y54.862 E.02004
G1 X58.872 Y54.601 E.01838
G1 X58.433 Y54.175 E.01918
G1 X58.155 Y53.653 E.01854
;WIDTH:0.464303
G1 X58.128 Y53.643 E.00101
;WIDTH:0.508606
G1 X58.102 Y53.633 E.00108
;WIDTH:0.55291
G1 X58.076 Y53.622 E.0012
;WIDTH:0.597213
G1 X58.049 Y53.612 E.00133
G1 X57.978 Y53.042 E.02647
G1 X58.049 Y52.388 E.03032
G1 X58.076 Y52.378 E.00133
;WIDTH:0.552912
G1 X58.102 Y52.367 E.0012
;WIDTH:0.508608
G1 X58.128 Y52.357 E.00108
;WIDTH:0.464304
G1 X58.155 Y52.347 E.00101
;WIDTH:0.419999
G1 X58.399 Y51.872 E.01674
G1 X58.825 Y51.433 E.01918
G1 X59.367 Y51.147 E.01921
G1 X59.949 Y51.043 E.01854
G1 X60.576 Y51.128 E.01984
G1 X61.109 Y51.387 E.01858
G1 X61.566 Y51.824 E.01983
G1 X61.853 Y52.367 E.01926
G1 X61.958 Y52.971 E.01922
G1 X61.872 Y53.577 E.01919
G1 X61.75 Y53.824 E.00864
M204 S1000
;WIPE_START
G1 F8640
G1 X61.724 Y53.878 E-.01384
G1 X61.602 Y54.127 E-.06403
G1 X61.175 Y54.567 E-.14157
G1 X60.633 Y54.853 E-.1415
G1 X60.029 Y54.958 E-.14156
G1 X59.397 Y54.862 E-.1476
G1 X58.872 Y54.601 E-.13538
G1 X58.433 Y54.175 E-.14125
G1 X58.284 Y53.895 E-.07327
;WIPE_END
G1 Z.4 F720
G1 X121.125 Y62.111 F10800
G1 Z.2 F720
G1 E1 F2100
M204 S800
;TYPE:Perimeter
G1 F1200
G1 X121.103 Y62.139 E.00112
;WIDTH:0.444381
G1 X120.721 Y62.299 E.01383
G1 X75.279 Y62.299 E1.51693
G1 X74.886 Y62.129 E.01429
;WIDTH:0.419999
G1 X74.731 Y61.863 E.00965
G1 X74.713 Y61.026 E.02625
G1 X74.719 Y58.194 E.0888
G1 X74.779 Y58.013 E.00598
G1 X74.891 Y57.867 E.00577
;WIDTH:0.444381
G1 X75.279 Y57.701 E.01409
G1 X120.721 Y57.701 E1.51693
G1 X121.103 Y57.861 E.01383
;WIDTH:0.419999
G1 X121.267 Y58.13 E.00988
G1 X121.287 Y58.279 E.00471
G1 X121.287 Y61.721 E.10792
G1 X121.218 Y61.992 E.00877
G1 X121.162 Y62.063 E.00284
M204 S1000
G1 X121.162 Y62.063 F10800
G1 X120.865 Y61.823
M204 S800
;TYPE:External perimeter
G1 F1200
G1 X120.849 Y61.86 E.00126
G1 X120.721 Y61.91 E.00431
G1 X75.279 Y61.91 E1.4248
G1 X75.148 Y61.857 E.00443
G1 X75.09 Y61.721 E.00464
G1 X75.092 Y58.25 E.10883
G1 X75.149 Y58.141 E.00386
G1 X75.279 Y58.09 E.00438
G1 X120.721 Y58.09 E1.4248
G1 X120.887 Y58.188 E.00604
G1 X120.91 Y58.279 E.00294
G1 X120.91 Y61.721 E.10792
G1 X120.889 Y61.768 E.00161
M204 S1000
;WIPE_START
G1 F8640
G1 X120.865 Y61.823 E-.01386
G1 X120.849 Y61.86 E-.00931
G1 X120.721 Y61.91 E-.03173
G1 X116.628 Y61.91 E-.9451
;WIPE_END
G1 Z.4 F720
G1 X128.875 Y97.889 F10800
G1 Z.2 F720
G1 E1 F2100
M204 S800
;TYPE:Perimeter
G1 F1200
G1 X128.897 Y97.861 E.00112
;WIDTH:0.444381
G1 X129.279 Y97.701 E.01383
G1 X174.721 Y97.701 E1.51693
G1 X175.114 Y97.871 E.01429
;WIDTH:0.419999
G1 X175.269 Y98.137 E.00965
G1 X175.287 Y98.279 E.00449
G1 X175.287 Y101.721 E.10792
G1 X175.224 Y101.982 E.00842
G1 X175.114 Y102.129 E.00576
;WIDTH:0.444381
G1 X174.721 Y102.299 E.01429
G1 X129.279 Y102.299 E1.51693
G1 X128.897 Y102.139 E.01383
;WIDTH:0.419999
G1 X128.733 Y101.87 E.00988
G1 X128.713 Y101.721 E.00471
G1 X128.722 Y98.177 E.11112
G1 X128.782 Y98.008 E.00562
G1 X128.838 Y97.937 E.00284
M204 S1000
G1 X128.838 Y97.937 F10800
G1 X129.135 Y98.169
M204 S800
;TYPE:External perimeter
G1 F1200
G1 X129.151 Y98.14 E.00104
G1 X129.279 Y98.09 E.00431
G1 X174.721 Y98.09 E1.4248
G1 X174.889 Y98.192 E.00616
M73 P1 R123
M73 Q1 S125
G1 X174.91 Y98.279 E.00281
G1 X174.91 Y101.721 E.10792
G1 X174.852 Y101.857 E.00464
G1 X174.721 Y101.91 E.00443
G1 X129.279 Y101.91 E1.4248
G1 X129.151 Y101.86 E.00431
G1 X129.09 Y101.721 E.00476
G1 X129.093 Y98.245 E.10899
G1 X129.106 Y98.221 E.00086
M204 S1000
;WIPE_START
G1 F8640
G1 X129.135 Y98.169 E-.01375
G1 X129.151 Y98.14 E-.00765
G1 X129.279 Y98.09 E-.03173
G1 X133.38 Y98.09 E-.94687
;WIPE_END
G1 Z.4 F720
G1 X121.127 Y142.9 F10800
G1 Z.2 F720
G1 E1 F2100
M204 S800
;TYPE:Perimeter
G1 F1200
G1 X121.267 Y143.13 E.00844
G1 X121.287 Y143.279 E.00471
G1 X121.287 Y146.721 E.10792
G1 X121.218 Y146.992 E.00877
G1 X121.103 Y147.139 E.00585
;WIDTH:0.444381
G1 X120.721 Y147.299 E.01383
G1 X75.279 Y147.299 E1.51693
G1 X74.886 Y147.129 E.01429
;WIDTH:0.419999
G1 X74.731 Y146.863 E.00965
G1 X74.716 Y146.78 E.00264
G1 X74.713 Y143.279 E.10977
G1 X74.776 Y143.018 E.00842
G1 X74.886 Y142.871 E.00576
;WIDTH:0.444381
G1 X75.279 Y142.701 E.01429
G1 X120.721 Y142.701 E1.51693
G1 X121.09 Y142.856 E.01336
M204 S1000
G1 X121.09 Y142.856 F10800
G1 X120.825 Y143.151
M204 S800
;TYPE:External perimeter
;WIDTH:0.419999
G1 F1200
G1 X120.887 Y143.188 E.00226
G1 X120.91 Y143.279 E.00294
G1 X120.91 Y146.721 E.10792
G1 X120.849 Y146.86 E.00476
G1 X120.721 Y146.91 E.00431
G1 X75.279 Y146.91 E1.4248
G1 X75.148 Y146.857 E.00443
G1 X75.091 Y146.741 E.00405
G1 X75.09 Y143.279 E.10855
G1 X75.148 Y143.143 E.00464
G1 X75.279 Y143.09 E.00443
G1 X120.721 Y143.09 E1.4248
G1 X120.773 Y143.121 E.0019
M204 S1000
;WIPE_START
G1 F8640
G1 X120.825 Y143.151 E-.01386
G1 X120.887 Y143.188 E-.01667
G1 X120.91 Y143.279 E-.02167
G1 X120.91 Y146.721 E-.79477
G1 X120.849 Y146.86 E-.03505
G1 X120.721 Y146.91 E-.03173
G1 X120.347 Y146.91 E-.08625
;WIPE_END
G1 Z.4 F720
G1 X189.697 Y155.088 F10800
G1 Z.2 F720
G1 E1 F2100
M204 S800
G1 F1200
G1 X189.949 Y155.043 E.00803
G1 X190.576 Y155.128 E.01984
G1 X191.109 Y155.387 E.01858
G1 X191.566 Y155.824 E.01983
G1 X191.853 Y156.367 E.01926
;WIDTH:0.463217
G1 X191.879 Y156.377 E.00097
;WIDTH:0.506434
G1 X191.905 Y156.388 E.00109
;WIDTH:0.549652
G1 X191.931 Y156.399 E.00119
;WIDTH:0.592869
G1 X191.957 Y156.409 E.00127
G1 X192.022 Y156.96 E.02537
;WIDTH:0.59721
G1 X191.951 Y157.612 E.03023
G1 X191.924 Y157.622 E.00133
;WIDTH:0.552908
G1 X191.898 Y157.633 E.0012
;WIDTH:0.508605
G1 X191.872 Y157.643 E.00108
;WIDTH:0.464302
G1 X191.845 Y157.653 E.00101
;WIDTH:0.419999
G1 X191.601 Y158.128 E.01674
G1 X191.175 Y158.567 E.01918
G1 X190.633 Y158.853 E.01921
G1 X190.029 Y158.958 E.01922
G1 X189.423 Y158.872 E.01919
G1 X188.873 Y158.602 E.01921
G1 X188.433 Y158.175 E.01922
G1 X188.155 Y157.653 E.01854
G1 X188.04 Y157.013 E.02039
G1 X188.137 Y156.402 E.0194
G1 X188.399 Y155.872 E.01854
G1 X188.825 Y155.433 E.01918
G1 X189.367 Y155.147 E.01921
G1 X189.638 Y155.099 E.00863
M204 S1000
;WIPE_START
G1 F8640
G1 X189.697 Y155.088 E-.01386
G1 X189.949 Y155.043 E-.05911
G1 X190.576 Y155.128 E-.1461
G1 X191.109 Y155.387 E-.13683
G1 X191.566 Y155.824 E-.146
G1 X191.853 Y156.367 E-.14182
G1 X191.879 Y156.377 E-.00643
G1 X191.905 Y156.388 E-.00652
G1 X191.931 Y156.399 E-.00652
G1 X191.957 Y156.409 E-.00643
G1 X192.022 Y156.96 E-.12811
G1 X191.951 Y157.612 E-.15144
G1 X191.924 Y157.622 E-.00665
G1 X191.898 Y157.633 E-.00652
G1 X191.872 Y157.643 E-.00643
G1 X191.845 Y157.653 E-.00665
G1 X191.796 Y157.748 E-.02458
;WIPE_END
G1 Z.4 F720
G1 X175.131 Y122.9 F10800
G1 Z.2 F720
G1 E1 F2100
M204 S800
;TYPE:Perimeter
G1 F1200
G1 X175.269 Y123.137 E.0086
G1 X175.287 Y123.279 E.00449
G1 X175.287 Y126.721 E.10792
G1 X175.224 Y126.982 E.00842
G1 X175.114 Y127.129 E.00576
;WIDTH:0.444381
G1 X174.721 Y127.299 E.01429
G1 X129.279 Y127.299 E1.51693
G1 X128.897 Y127.139 E.01383
M73 Q1 S124
;WIDTH:0.419999
G1 X128.733 Y126.87 E.00988
G1 X128.713 Y126.721 E.00471
G1 X128.713 Y123.279 E.10792
G1 X128.782 Y123.008 E.00877
G1 X128.897 Y122.861 E.00585
;WIDTH:0.444381
G1 X129.279 Y122.701 E.01383
G1 X174.721 Y122.701 E1.51693
G1 X175.09 Y122.861 E.01343
M204 S1000
G1 X175.09 Y122.861 F10800
G1 X174.825 Y123.153
M204 S800
;TYPE:External perimeter
;WIDTH:0.419999
G1 F1200
G1 X174.889 Y123.192 E.00235
G1 X174.904 Y123.231 E.00131
G1 X174.91 Y126.721 E.10943
G1 X174.852 Y126.857 E.00464
G1 X174.721 Y126.91 E.00443
G1 X129.279 Y126.91 E1.4248
G1 X129.151 Y126.86 E.00431
G1 X129.09 Y126.721 E.00476
G1 X129.09 Y123.279 E.10792
G1 X129.151 Y123.14 E.00476
G1 X129.279 Y123.09 E.00431
G1 X174.721 Y123.09 E1.4248
G1 X174.773 Y123.122 E.00191
M204 S1000
;WIPE_START
G1 F8640
G1 X174.825 Y123.153 E-.01398
G1 X174.889 Y123.192 E-.01731
G1 X174.904 Y123.231 E-.00965
G1 X174.91 Y126.721 E-.80585
G1 X174.852 Y126.857 E-.03414
G1 X174.721 Y126.91 E-.03263
G1 X174.347 Y126.91 E-.08644
;WIPE_END
G1 Z.4 F720
G1 X121.125 Y112.111 F10800
G1 Z.2 F720
G1 E1 F2100
M204 S800
;TYPE:Perimeter
G1 F1200
G1 X121.103 Y112.139 E.00112
;WIDTH:0.444381
G1 X120.721 Y112.299 E.01383
G1 X75.279 Y112.299 E1.51693
G1 X74.886 Y112.129 E.01429
;WIDTH:0.419999
G1 X74.731 Y111.863 E.00965
G1 X74.713 Y111.721 E.00449
G1 X74.713 Y108.279 E.10792
G1 X74.776 Y108.018 E.00842
G1 X74.886 Y107.871 E.00576
;WIDTH:0.444381
G1 X75.279 Y107.701 E.01429
G1 X120.721 Y107.701 E1.51693
G1 X121.103 Y107.861 E.01383
;WIDTH:0.419999
G1 X121.267 Y108.13 E.00988
G1 X121.287 Y108.279 E.00471
G1 X121.287 Y111.721 E.10792
G1 X121.218 Y111.992 E.00877
G1 X121.162 Y112.063 E.00284
M204 S1000
G1 X121.162 Y112.063 F10800
G1 X120.865 Y111.823
M204 S800
;TYPE:External perimeter
G1 F1200
G1 X120.849 Y111.86 E.00126
G1 X120.721 Y111.91 E.00431
G1 X75.279 Y111.91 E1.4248
G1 X75.148 Y111.857 E.00443
G1 X75.09 Y111.721 E.00464
G1 X75.09 Y108.279 E.10792
G1 X75.148 Y108.143 E.00464
G1 X75.279 Y108.09 E.00443
G1 X120.721 Y108.09 E1.4248
G1 X120.887 Y108.188 E.00604
G1 X120.91 Y108.279 E.00294
G1 X120.91 Y111.721 E.10792
G1 X120.889 Y111.768 E.00161
M204 S1000
;WIPE_START
G1 F8640
G1 X120.865 Y111.823 E-.01386
G1 X120.849 Y111.86 E-.00931
G1 X120.721 Y111.91 E-.03173
G1 X116.628 Y111.91 E-.9451
;WIPE_END
G1 Z.4 F720
G1 X175.092 Y122.138 F10800
G1 Z.2 F720
G1 E1 F2100
M204 S800
;TYPE:Perimeter
;WIDTH:0.444381
G1 F1200
G1 X174.721 Y122.299 E.0135
G1 X129.279 Y122.299 E1.51693
G1 X128.897 Y122.139 E.01383
;WIDTH:0.419999
G1 X128.782 Y121.992 E.00585
G1 X128.713 Y121.721 E.00877
G1 X128.713 Y118.279 E.10792
G1 X128.782 Y118.008 E.00877
G1 X128.897 Y117.861 E.00585
;WIDTH:0.444381
G1 X129.279 Y117.701 E.01383
G1 X174.721 Y117.701 E1.51693
G1 X175.114 Y117.871 E.01429
M73 P1 R122
;WIDTH:0.419999
G1 X175.269 Y118.137 E.00965
G1 X175.287 Y118.279 E.00449
G1 X175.287 Y121.721 E.10792
G1 X175.224 Y121.982 E.00842
G1 X175.136 Y122.1 E.00462
M204 S1000
G1 X175.136 Y122.1 F10800
G1 X174.867 Y121.823
M204 S800
;TYPE:External perimeter
G1 F1200
G1 X174.852 Y121.857 E.00117
G1 X174.721 Y121.91 E.00443
G1 X129.279 Y121.91 E1.4248
