; generated by PrusaSlicer 2.9.3 on 2026-01-05 at 15:23:46 UTC


;
;
; 

; external perimeters extrusion width = 0.45mm
; perimeters extrusion width = 0.45mm
; infill extrusion width = 0.45mm
; solid infill extrusion width = 0.45mm
; top infill extrusion width = 0.40mm
; first layer extrusion width = 0.42mm

M73 P0 R59
M73 Q0 S61
M201 X1000 Y1000 Z200 E5000 ; sets maximum accelerations, mm/sec^2
M203 X200 Y200 Z12 E120 ; sets maximum feedrates, mm / sec
M204 S1250 T1250 ; sets acceleration (S) and retract acceleration (R), mm/sec^2
M205 X8.00 Y8.00 Z0.40 E4.50 ; sets the jerk limits, mm/sec
M205 S0 T0 ; sets the minimum extruding and travel feed rate, mm/sec

; printing object raspberry-pi-hq-camera-holder-top.stl id:0 copy 0
; stop printing object raspberry-pi-hq-camera-holder-top.stl id:0 copy 0

;TYPE:Custom
M862.3 P "MK3S" ; printer model check
M862.1 P0.4 ; nozzle diameter check
M115 U3.14.1 ; tell printer latest fw version
G90 ; use absolute coordinates
M83 ; extruder relative mode
M104 S215 ; set extruder temp
M140 S60 ; set bed temp
M190 S60 ; wait for bed temp
M109 S215 ; wait for extruder temp
G28 W ; home all without mesh bed level
G80 X79.2597 Y63.5585 W91.4796 H82.883 ; mesh bed levelling

G1 Z0.2 F720
G1 Y-3 F1000 ; go outside print area
G92 E0
G1 X60 E9 F1000 ; intro line
G1 X100 E12.5 F1000 ; intro line

G92 E0
M221 S95

; Don't change E values below. Excessive value can damage the printer.

M907 E538 ; set extruder motor current
G21 ; set units to millimeters
G90 ; use absolute coordinates
M83 ; use relative distances for extrusion

M900 K0.05 ; Filament gcode LA 1.5
M900 K30 ; Filament gcode LA 1.0




M107
;LAYER_CHANGE
;Z:0.2
;HEIGHT:0.2
G1 E-.8 F2100
G1 Z.6 F720
G1 X80.349 Y64.634 F10800
G1 Z.2 F720
G1 E.8 F2100
M204 S800
;TYPE:Skirt/Brim
;WIDTH:0.42
G1 F1200
G1 X80.771 Y64.285 E.01717
G1 X81.451 Y63.935 E.02398
G1 X82.55 Y63.747 E.03496
G1 X167.961 Y63.786 E2.678
G1 X168.892 Y64.088 E.03069
G1 X169.355 Y64.382 E.0172
G1 X169.898 Y64.921 E.02399
G1 X170.37 Y65.779 E.0307
G1 X170.551 Y66.8 E.03251
G1 X170.551 Y143.2 E2.39547
G1 X170.506 Y143.69 E.01543
G1 X170.29 Y144.423 E.02396
G1 X170.026 Y144.904 E.0172
G1 X169.522 Y145.479 E.02397
G1 X168.696 Y146.004 E.03069
G1 X168.174 Y146.174 E.01721
G1 X167.55 Y146.253 E.01972
G1 X82.55 Y146.253 E2.66512
G1 X81.451 Y146.065 E.03496
G1 X80.771 Y145.715 E.02398
G1 X80.2 Y145.207 E.02396
G1 X79.773 Y144.573 E.02397
G1 X79.571 Y144.063 E.0172
G1 X79.448 Y143.309 E.02395
G1 X79.448 Y66.691 E2.4023
G1 X79.571 Y65.937 E.02395
M73 P0 R58
G1 X79.773 Y65.427 E.0172
G1 X80.313 Y64.683 E.02882
M204 S1000
;WIPE_START
G1 F8640
G1 X80.349 Y64.634 E-.01404
G1 X80.771 Y64.285 E-.12645
G1 X81.451 Y63.935 E-.17659
G1 X82.55 Y63.747 E-.25745
G1 X83.526 Y63.747 E-.22547
;WIPE_END
G1 Z.6 F720
; printing object raspberry-pi-hq-camera-holder-top.stl id:0 copy 0
G1 X143.74 Y139.932 F10800
G1 Z.2 F720
G1 E.8 F2100
M204 S800
;TYPE:Perimeter
;WIDTH:0.419999
G1 F1200
G1 X143.613 Y139.288 E.02058
G1 X143.702 Y138.548 E.02337
G1 X144.016 Y137.871 E.0234
G1 X144.524 Y137.324 E.02341
G1 X145.176 Y136.961 E.0234
G1 X145.327 Y136.909 E.00501
G1 X145.908 Y136.817 E.01844
G1 X146.648 Y136.906 E.02337
G1 X147.325 Y137.22 E.0234
G1 X147.872 Y137.728 E.02341
G1 X148.235 Y138.379 E.02337
G1 X148.379 Y139.112 E.02342
G1 X148.29 Y139.852 E.02337
G1 X147.976 Y140.529 E.0234
G1 X147.468 Y141.076 E.02341
G1 X146.817 Y141.439 E.02337
G1 X146.085 Y141.583 E.02339
G1 X145.344 Y141.494 E.0234
G1 X144.667 Y141.18 E.0234
G1 X144.12 Y140.672 E.02341
G1 X143.757 Y140.021 E.02337
G1 X143.751 Y139.991 E.00096
M204 S1000
G1 X144.088 Y139.819 F10800
M204 S800
;TYPE:External perimeter
G1 F1200
G1 X143.986 Y139.229 E.01877
G1 X144.075 Y138.607 E.0197
G1 X144.352 Y138.042 E.01973
G1 X144.79 Y137.591 E.01971
G1 X145.397 Y137.28 E.02138
G1 X145.967 Y137.19 E.01809
G1 X146.589 Y137.279 E.0197
G1 X147.154 Y137.556 E.01973
G1 X147.605 Y137.994 E.01971
G1 X147.899 Y138.551 E.01975
G1 X148.006 Y139.171 E.01973
G1 X147.917 Y139.793 E.0197
G1 X147.64 Y140.358 E.01973
G1 X147.202 Y140.809 E.01971
G1 X146.645 Y141.103 E.01975
G1 X146.026 Y141.21 E.0197
G1 X145.403 Y141.121 E.01973
G1 X144.838 Y140.844 E.01973
G1 X144.387 Y140.406 E.01971
G1 X144.107 Y139.876 E.01879
M204 S1000
;WIPE_START
G1 F8640
G1 X144.088 Y139.819 E-.01387
G1 X143.986 Y139.229 E-.13825
G1 X144.075 Y138.607 E-.14508
G1 X144.352 Y138.042 E-.1453
G1 X144.79 Y137.591 E-.14517
G1 X145.397 Y137.28 E-.15748
G1 X145.631 Y137.243 E-.05485
;WIPE_END
G1 Z.6 F720
G1 X86.602 Y137.281 F10800
G1 Z.2 F720
G1 E.8 F2100
M204 S800
;TYPE:Perimeter
G1 F1200
G1 X87.176 Y136.961 E.02061
G1 X87.908 Y136.817 E.02339
G1 X88.648 Y136.906 E.02337
G1 X89.325 Y137.22 E.0234
G1 X89.872 Y137.728 E.02341
G1 X90.235 Y138.379 E.02337
G1 X90.379 Y139.112 E.02342
G1 X90.29 Y139.852 E.02337
G1 X89.976 Y140.529 E.0234
G1 X89.468 Y141.076 E.02341
G1 X88.817 Y141.439 E.02337
G1 X88.085 Y141.583 E.02339
G1 X87.344 Y141.494 E.0234
G1 X86.667 Y141.18 E.0234
G1 X86.12 Y140.672 E.02341
G1 X85.757 Y140.021 E.02337
G1 X85.613 Y139.288 E.02342
G1 X85.702 Y138.548 E.02337
G1 X86.016 Y137.871 E.0234
G1 X86.524 Y137.324 E.02341
G1 X86.55 Y137.31 E.00093
M204 S1000
G1 X86.817 Y137.577 F10800
M204 S800
;TYPE:External perimeter
G1 F1200
G1 X87.347 Y137.297 E.01879
G1 X87.967 Y137.19 E.01973
G1 X88.589 Y137.279 E.0197
G1 X89.154 Y137.556 E.01973
G1 X89.605 Y137.994 E.01971
G1 X89.899 Y138.551 E.01975
G1 X90.006 Y139.171 E.01973
G1 X89.917 Y139.793 E.0197
G1 X89.64 Y140.358 E.01973
G1 X89.202 Y140.809 E.01971
G1 X88.645 Y141.103 E.01975
G1 X88.026 Y141.21 E.0197
G1 X87.403 Y141.121 E.01973
G1 X86.838 Y140.844 E.01973
G1 X86.387 Y140.406 E.01971
G1 X86.093 Y139.849 E.01975
G1 X85.986 Y139.229 E.01973
G1 X86.075 Y138.607 E.0197
G1 X86.352 Y138.042 E.01973
G1 X86.77 Y137.612 E.0188
M204 S1000
;WIPE_START
G1 F8640
G1 X86.817 Y137.577 E-.01353
G1 X87.347 Y137.297 E-.13841
G1 X87.967 Y137.19 E-.14528
G1 X88.589 Y137.279 E-.14508
G1 X89.154 Y137.556 E-.1453
G1 X89.605 Y137.994 E-.14517
G1 X89.741 Y138.251 E-.06723
;WIPE_END
G1 Z.6 F720
G1 X86.602 Y68.881 F10800
G1 Z.2 F720
G1 E.8 F2100
M204 S800
;TYPE:Perimeter
G1 F1200
G1 X87.176 Y68.561 E.02061
G1 X87.908 Y68.417 E.02339
G1 X88.648 Y68.506 E.02337
G1 X89.325 Y68.82 E.0234
G1 X89.872 Y69.328 E.02341
G1 X90.235 Y69.979 E.02337
G1 X90.379 Y70.712 E.02342
G1 X90.29 Y71.452 E.02337
G1 X89.976 Y72.129 E.0234
G1 X89.468 Y72.676 E.02341
G1 X88.817 Y73.039 E.02337
G1 X88.085 Y73.183 E.02339
G1 X87.344 Y73.094 E.0234
G1 X86.667 Y72.78 E.0234
G1 X86.12 Y72.272 E.02341
G1 X85.757 Y71.621 E.02337
G1 X85.613 Y70.888 E.02342
G1 X85.702 Y70.148 E.02337
G1 X85.974 Y69.554 E.02048
G1 X86.12 Y69.328 E.00844
G1 X86.524 Y68.924 E.01791
G1 X86.55 Y68.91 E.00093
M204 S1000
G1 X86.817 Y69.177 F10800
M204 S800
;TYPE:External perimeter
G1 F1200
G1 X87.347 Y68.897 E.01879
G1 X87.967 Y68.79 E.01973
G1 X88.589 Y68.879 E.0197
G1 X89.154 Y69.156 E.01973
G1 X89.605 Y69.594 E.01971
G1 X89.899 Y70.151 E.01975
G1 X90.006 Y70.771 E.01973
G1 X89.917 Y71.393 E.0197
G1 X89.64 Y71.958 E.01973
G1 X89.202 Y72.409 E.01971
G1 X88.645 Y72.703 E.01975
G1 X88.026 Y72.81 E.0197
G1 X87.403 Y72.721 E.01973
G1 X86.838 Y72.444 E.01973
G1 X86.387 Y72.006 E.01971
G1 X86.093 Y71.449 E.01975
G1 X85.986 Y70.829 E.01973
G1 X86.075 Y70.207 E.0197
G1 X86.387 Y69.594 E.02157
G1 X86.77 Y69.212 E.01696
M204 S1000
;WIPE_START
G1 F8640
G1 X86.817 Y69.177 E-.01353
G1 X87.347 Y68.897 E-.13841
G1 X87.967 Y68.79 E-.14528
G1 X88.589 Y68.879 E-.14508
G1 X89.154 Y69.156 E-.1453
G1 X89.605 Y69.594 E-.14517
G1 X89.741 Y69.851 E-.06723
;WIPE_END
G1 Z.6 F720
G1 X148.368 Y70.801 F10800
G1 Z.2 F720
G1 E.8 F2100
M204 S800
;TYPE:Perimeter
G1 F1200
G1 X148.29 Y71.452 E.02056
G1 X147.976 Y72.129 E.0234
G1 X147.468 Y72.676 E.02341
G1 X146.817 Y73.039 E.02337
G1 X146.085 Y73.183 E.02339
G1 X145.344 Y73.094 E.0234
G1 X144.667 Y72.78 E.0234
G1 X144.12 Y72.272 E.02341
G1 X143.757 Y71.621 E.02337
G1 X143.613 Y70.888 E.02342
G1 X143.702 Y70.148 E.02337
G1 X144.016 Y69.471 E.0234
G1 X144.12 Y69.328 E.00554
G1 X144.524 Y68.924 E.01791
G1 X145.176 Y68.561 E.0234
G1 X145.908 Y68.417 E.02339
G1 X146.648 Y68.506 E.02337
G1 X147.325 Y68.82 E.0234
G1 X147.872 Y69.328 E.02341
G1 X148.235 Y69.979 E.02337
G1 X148.379 Y70.712 E.02342
G1 X148.375 Y70.741 E.00092
M204 S1000
G1 X148.002 Y70.801 F10800
M204 S800
;TYPE:External perimeter
G1 F1200
G1 X147.917 Y71.393 E.01875
G1 X147.64 Y71.958 E.01973
G1 X147.202 Y72.409 E.01971
G1 X146.645 Y72.703 E.01975
G1 X146.026 Y72.81 E.0197
G1 X145.403 Y72.721 E.01973
G1 X144.838 Y72.444 E.01973
G1 X144.387 Y72.006 E.01971
G1 X144.093 Y71.449 E.01975
G1 X143.986 Y70.829 E.01973
G1 X144.075 Y70.207 E.0197
G1 X144.387 Y69.594 E.02157
G1 X144.79 Y69.191 E.01787
G1 X145.347 Y68.897 E.01975
G1 X145.967 Y68.79 E.01973
G1 X146.589 Y68.879 E.0197
G1 X147.154 Y69.156 E.01973
G1 X147.605 Y69.594 E.01971
G1 X147.899 Y70.151 E.01975
G1 X148.001 Y70.741 E.01877
M204 S1000
;WIPE_START
G1 F8640
G1 X148.002 Y70.801 E-.01386
G1 X147.917 Y71.393 E-.1381
G1 X147.64 Y71.958 E-.1453
G1 X147.202 Y72.409 E-.14517
G1 X146.645 Y72.703 E-.14543
G1 X146.026 Y72.81 E-.14505
G1 X145.738 Y72.769 E-.06709
;WIPE_END
G1 Z.6 F720
G1 X82.927 Y67.153 F10800
G1 Z.2 F720
G1 E.8 F2100
M204 S800
;TYPE:Perimeter
G1 F1200
G1 X167.144 Y67.159 E2.64056
G1 X167.144 Y142.847 E2.37314
M73 P1 R58
M73 Q1 S61
G1 X82.851 Y142.847 E2.64294
M73 Q1 S60
G1 X82.851 Y67.153 E2.37333
G1 X82.867 Y67.153 E.0005
M204 S1000
G1 X82.504 Y66.813 F10800
M204 S800
;TYPE:External perimeter
G1 F1200
G1 X82.558 Y66.776 E.00205
G1 X167.481 Y66.782 E2.6627
G1 X167.521 Y66.863 E.00283
G1 X167.521 Y143.152 E2.39198
G1 X167.461 Y143.224 E.00294
G1 X82.555 Y143.224 E2.66216
G1 X82.474 Y143.189 E.00277
G1 X82.474 Y66.857 E2.39333
M204 S1000
;WIPE_START
G1 F8640
G1 X82.504 Y66.813 E-.0123
G1 X82.558 Y66.776 E-.01511
G1 X85.904 Y66.776 E-.77259
;WIPE_END
G1 Z.6 F720
G1 X166.975 Y68.093 F10800
G1 Z.2 F720
G1 E.8 F2100
M204 S800
;TYPE:Solid infill
;WIDTH:0.421097
G1 F1200
G1 X166.38 Y67.499 E.02644
G1 X165.845 Y67.498 E.01682
G1 X166.805 Y68.459 E.04271
G1 X166.805 Y68.993 E.01679
G1 X165.31 Y67.498 E.06648
G1 X164.775 Y67.498 E.01682
G1 X166.805 Y69.528 E.09028
G1 X166.805 Y70.063 E.01682
G1 X164.24 Y67.498 E.11407
G1 X163.705 Y67.498 E.01682
G1 X166.805 Y70.598 E.13786
G1 X166.805 Y71.133 E.01682
G1 X163.17 Y67.498 E.16165
G1 X162.636 Y67.498 E.01679
G1 X166.805 Y71.668 E.18542
G1 X166.805 Y72.202 E.01679
G1 X162.101 Y67.498 E.20919
G1 X161.566 Y67.498 E.01682
G1 X166.805 Y72.737 E.23298
G1 X166.805 Y73.272 E.01682
G1 X161.031 Y67.498 E.25677
G1 X160.496 Y67.498 E.01682
G1 X166.805 Y73.807 E.28057
G1 X166.805 Y74.342 E.01682
G1 X159.961 Y67.498 E.30436
G1 X159.426 Y67.498 E.01682
G1 X166.805 Y74.877 E.32815
G1 X166.805 Y75.411 E.01679
M73 P2 R58
G1 X158.891 Y67.498 E.35192
G1 X158.357 Y67.498 E.01679
G1 X166.805 Y75.946 E.37569
G1 X166.805 Y76.481 E.01682
M73 Q2 S60
G1 X157.822 Y67.498 E.39948
G1 X157.287 Y67.498 E.01682
G1 X166.805 Y77.016 E.42327
G1 X166.805 Y77.551 E.01682
G1 X156.752 Y67.498 E.44706
G1 X156.217 Y67.498 E.01682
G1 X166.805 Y78.085 E.47083
G1 X166.805 Y78.62 E.01682
G1 X155.682 Y67.498 E.49463
G1 X155.147 Y67.498 E.01682
G1 X166.805 Y79.155 E.51842
G1 X166.805 Y79.69 E.01682
G1 X154.613 Y67.498 E.54219
G1 X154.078 Y67.498 E.01682
G1 X166.805 Y80.225 E.56598
G1 X166.805 Y80.76 E.01682
G1 X153.543 Y67.498 E.58977
G1 X153.008 Y67.498 E.01682
G1 X166.805 Y81.294 E.61354
G1 X166.805 Y81.829 E.01682
G1 X152.473 Y67.497 E.63735
G1 X151.938 Y67.497 E.01682
G1 X166.805 Y82.364 E.66115
G1 X166.805 Y82.899 E.01682
M73 P2 R57
G1 X151.403 Y67.497 E.68494
G1 X150.868 Y67.497 E.01682
G1 X166.805 Y83.434 E.70873
G1 X166.805 Y83.969 E.01682
G1 X150.334 Y67.497 E.7325
G1 X149.799 Y67.497 E.01682
G1 X166.805 Y84.503 E.75627
G1 X166.805 Y85.038 E.01682
G1 X149.264 Y67.497 E.78006
G1 X148.729 Y67.497 E.01682
G1 X166.805 Y85.573 E.80385
G1 X166.805 Y86.108 E.01682
G1 X148.194 Y67.497 E.82764
G1 X147.659 Y67.497 E.01682
G1 X166.805 Y86.643 E.85144
G1 X166.805 Y87.177 E.01679
G1 X147.124 Y67.497 E.87521
G1 X146.59 Y67.497 E.01679
G1 X166.805 Y87.712 E.89898
G1 X166.805 Y88.247 E.01682
G1 X148.614 Y70.057 E.80894
G1 X148.543 Y69.836 E.0073
G1 X148.273 Y69.306 E.0187
G1 X148.12 Y69.096 E.00817
G1 X147.7 Y68.676 E.01868
G1 X147.49 Y68.523 E.00817
G1 X146.96 Y68.253 E.0187
G1 X146.739 Y68.182 E.0073
G1 X145.885 Y67.327 E.038
M204 S1000
;WIPE_START
G1 F8640
G1 X146.739 Y68.182 E-.27903
G1 X146.96 Y68.253 E-.0536
G1 X147.49 Y68.523 E-.13734
G1 X147.7 Y68.676 E-.05999
G1 X148.12 Y69.096 E-.13715
G1 X148.273 Y69.306 E-.05999
G1 X148.416 Y69.587 E-.0729
;WIPE_END
G1 Z.6 F720
G1 X146.303 Y68.28 F10800
G1 Z.2 F720
G1 E.8 F2100
M204 S800
G1 F1200
G1 X145.52 Y67.497 E.03482
G1 X144.985 Y67.497 E.01682
G1 X145.609 Y68.121 E.02775
G1 X145.266 Y68.175 E.01092
G1 X145.163 Y68.21 E.00342
G1 X144.45 Y67.497 E.03171
G1 X143.915 Y67.497 E.01682
G1 X144.793 Y68.375 E.03905
G1 X144.447 Y68.563 E.01238
G1 X143.38 Y67.497 E.04743
G1 X142.846 Y67.497 E.01679
G1 X144.158 Y68.81 E.05837
G1 X143.891 Y69.077 E.01187
G1 X142.311 Y67.497 E.07026
G1 X141.776 Y67.497 E.01682
G1 X143.674 Y69.395 E.08441
G1 X143.494 Y69.749 E.01249
G1 X141.241 Y67.497 E.10017
G1 X140.706 Y67.497 E.01682
G1 X143.359 Y70.15 E.11798
G1 X143.293 Y70.618 E.01486
G1 X140.171 Y67.497 E.13882
G1 X139.636 Y67.496 E.01682
M73 Q2 S59
G1 X143.521 Y71.381 E.17277
M204 S1000
;WIPE_START
G1 F8640
G1 X141.071 Y68.931 E-.8
;WIPE_END
G1 Z.6 F720
G1 X148.509 Y70.486 F10800
G1 Z.2 F720
G1 E.8 F2100
M204 S800
G1 F1200
G1 X166.805 Y88.782 E.81364
G1 X166.805 Y89.317 E.01682
G1 X148.672 Y71.184 E.80639
G1 X148.59 Y71.636 E.01445
G1 X166.805 Y89.852 E.81006
G1 X166.805 Y90.386 E.01679
G1 X148.419 Y72.001 E.81762
G1 X148.237 Y72.354 E.01249
G1 X166.805 Y90.921 E.82571
G1 X166.805 Y91.456 E.01682
M73 P3 R57
G1 X147.985 Y72.636 E.83694
G1 X147.715 Y72.901 E.0119
G1 X166.805 Y91.991 E.84895
G1 X166.805 Y92.526 E.01682
M73 Q3 S59
G1 X147.395 Y73.116 E.86318
G1 X147.046 Y73.301 E.01242
G1 X166.805 Y93.06 E.8787
G1 X166.805 Y93.595 E.01682
G1 X146.646 Y73.436 E.89649
G1 X146.181 Y73.507 E.01479
G1 X166.805 Y94.13 E.91714
G1 X166.805 Y94.665 E.01682
G1 X145.406 Y73.266 E.95163
M204 S1000
;WIPE_START
G1 F8640
G1 X147.856 Y75.716 E-.8
;WIPE_END
G1 Z.6 F720
G1 X138.932 Y67.327 F10800
G1 Z.2 F720
G1 E.8 F2100
M204 S800
G1 F1200
G1 X166.805 Y95.2 E1.23953
G1 X166.805 Y95.735 E.01682
G1 X138.567 Y67.496 E1.25579
G1 X138.032 Y67.496 E.01682
G1 X166.805 Y96.269 E1.27956
G1 X166.805 Y96.804 E.01682
G1 X137.497 Y67.496 E1.30335
G1 X136.962 Y67.496 E.01682
G1 X166.805 Y97.339 E1.32714
G1 X166.805 Y97.874 E.01682
G1 X136.427 Y67.496 E1.35093
G1 X135.892 Y67.496 E.01682
G1 X166.805 Y98.409 E1.37472
G1 X166.805 Y98.944 E.01682
G1 X135.357 Y67.496 E1.39852
G1 X134.823 Y67.496 E.01679
G1 X166.805 Y99.478 E1.42226
G1 X166.805 Y100.013 E.01682
G1 X134.288 Y67.496 E1.44605
G1 X133.753 Y67.496 E.01682
G1 X166.805 Y100.548 E1.46985
G1 X166.805 Y101.083 E.01682
G1 X133.218 Y67.496 E1.49364
G1 X132.683 Y67.496 E.01682
M73 P4 R56
G1 X166.805 Y101.618 E1.51743
G1 X166.805 Y102.152 E.01679
M73 Q4 S59
G1 X132.148 Y67.496 E1.5412
G1 X131.613 Y67.496 E.01682
G1 X166.805 Y102.687 E1.56499
G1 X166.805 Y103.222 E.01682
G1 X131.079 Y67.496 E1.58876
G1 X130.544 Y67.496 E.01682
G1 X166.805 Y103.757 E1.61255
G1 X166.805 Y104.292 E.01682
G1 X130.009 Y67.496 E1.63634
G1 X129.474 Y67.496 E.01682
G1 X166.805 Y104.827 E1.66014
G1 X166.805 Y105.361 E.01679
M73 Q4 S58
G1 X128.939 Y67.496 E1.68391
G1 X128.404 Y67.496 E.01682
G1 X166.805 Y105.896 E1.7077
G1 X166.805 Y106.431 E.01682
G1 X127.869 Y67.496 E1.73149
G1 X127.334 Y67.496 E.01682
G1 X166.805 Y106.966 E1.75528
G1 X166.805 Y107.501 E.01682
G1 X126.8 Y67.495 E1.77907
G1 X126.265 Y67.495 E.01682
G1 X166.805 Y108.036 E1.80287
G1 X166.805 Y108.57 E.01679
M73 P5 R56
G1 X125.73 Y67.495 E1.82663
G1 X125.195 Y67.495 E.01682
G1 X166.805 Y109.105 E1.85043
G1 X166.805 Y109.64 E.01682
M73 Q5 S58
G1 X124.66 Y67.495 E1.87422
G1 X124.125 Y67.495 E.01682
