; generated by PrusaSlicer 2.9.3 on 2026-01-05 at 15:25:47 UTC


;
;
; 

; external perimeters extrusion width = 0.45mm
; perimeters extrusion width = 0.45mm
; infill extrusion width = 0.45mm
; solid infill extrusion width = 0.45mm
; top infill extrusion width = 0.40mm
; first layer extrusion width = 0.42mm

M73 P0 R114
M73 Q0 S117
M201 X1000 Y1000 Z200 E5000 ; sets maximum accelerations, mm/sec^2
M203 X200 Y200 Z12 E120 ; sets maximum feedrates, mm / sec
M204 S1250 T1250 ; sets acceleration (S) and retract acceleration (R), mm/sec^2
M205 X8.00 Y8.00 Z0.40 E4.50 ; sets the jerk limits, mm/sec
M205 S0 T0 ; sets the minimum extruding and travel feed rate, mm/sec

; printing object raspberry-pi-hq-camera-holder-bottom.stl id:0 copy 0
; stop printing object raspberry-pi-hq-camera-holder-bottom.stl id:0 copy 0

;TYPE:Custom
M862.3 P "MK3S" ; printer model check
M862.1 P0.4 ; nozzle diameter check
M115 U3.14.1 ; tell printer latest fw version
G90 ; use absolute coordinates
M83 ; extruder relative mode
M104 S215 ; set extruder temp
M140 S60 ; set bed temp
M190 S60 ; wait for bed temp
M109 S215 ; wait for extruder temp
G28 W ; home all without mesh bed level
G80 X68.7647 Y48.7635 W112.47 H112.473 ; mesh bed levelling

G1 Z0.2 F720
G1 Y-3 F1000 ; go outside print area
G92 E0
G1 X60 E9 F1000 ; intro line
G1 X100 E12.5 F1000 ; intro line

G92 E0
M221 S95

; Don't change E values below. Excessive value can damage the printer.

M907 E538 ; set extruder motor current
G21 ; set units to millimeters
G90 ; use absolute coordinates
M83 ; use relative distances for extrusion

M900 K0.05 ; Filament gcode LA 1.5
M900 K30 ; Filament gcode LA 1.0




M107
;LAYER_CHANGE
;Z:0.2
;HEIGHT:0.2
G1 E-.8 F2100
G1 Z.6 F720
G1 X69.704 Y49.996 F10800
G1 Z.2 F720
G1 E.8 F2100
M204 S800
;TYPE:Skirt/Brim
;WIDTH:0.42
G1 F1200
G1 X70.274 Y49.489 E.02392
G1 X71.158 Y49.073 E.03063
G1 X72.05 Y48.952 E.02822
G1 X178.46 Y48.991 E3.33641
G1 X179.389 Y49.293 E.03063
G1 X179.852 Y49.587 E.0172
G1 X180.394 Y50.124 E.02392
G1 X180.865 Y50.98 E.03063
G1 X181.046 Y52 E.03248
G1 X181.046 Y158 E3.32356
G1 X181.001 Y158.488 E.01537
G1 X180.786 Y159.22 E.02392
G1 X180.394 Y159.876 E.02396
G1 X179.852 Y160.413 E.02392
G1 X179.194 Y160.799 E.02392
G1 X178.672 Y160.969 E.01721
G1 X178.05 Y161.048 E.01966
G1 X171.474 Y161.004 E.20619
G1 X82.974 Y146.204 E2.81339
G1 X82.453 Y146.061 E.01694
G1 X81.697 Y145.66 E.02683
G1 X70.197 Y137.66 E.43924
G1 X69.704 Y137.204 E.02106
G1 X69.278 Y136.571 E.02392
G1 X69.076 Y136.061 E.0172
G1 X68.953 Y135.308 E.02392
G1 X68.953 Y51.892 E2.61545
G1 X69.076 Y51.139 E.02392
G1 X69.365 Y50.469 E.02288
G1 X69.669 Y50.044 E.01638
M204 S1000
;WIPE_START
G1 F8640
G1 X69.704 Y49.996 E-.01372
G1 X70.274 Y49.489 E-.17615
G1 X71.158 Y49.073 E-.22559
G1 X72.05 Y48.952 E-.20785
G1 X72.815 Y48.952 E-.17669
;WIPE_END
G1 Z.6 F720
; printing object raspberry-pi-hq-camera-holder-bottom.stl id:0 copy 0
G1 X136.085 Y85.609 F10800
G1 Z.2 F720
G1 E.8 F2100
M204 S800
;TYPE:Perimeter
;WIDTH:0.419999
G1 F1200
G1 X136.173 Y85.689 E.00373
G1 X136.262 Y85.943 E.00844
G1 X136.265 Y85.999 E.00176
G1 X136.265 Y124.001 E1.19152
G1 X136.207 Y124.251 E.00805
M73 P0 R113
G1 X136.038 Y124.454 E.00828
G1 X135.793 Y124.559 E.00836
G1 X135.7 Y124.567 E.00293
G1 X97.646 Y124.564 E1.19315
G1 X97.385 Y124.474 E.00866
G1 X97.215 Y124.298 E.00767
G1 X97.134 Y124.066 E.0077
G1 X97.13 Y124.001 E.00204
G1 X97.13 Y85.999 E1.19152
G1 X97.206 Y85.716 E.00919
G1 X97.405 Y85.514 E.00889
G1 X97.696 Y85.433 E.00947
G1 X135.7 Y85.433 E1.19159
G1 X135.965 Y85.5 E.00857
G1 X136.04 Y85.568 E.00317
M204 S1000
G1 X135.802 Y85.857 F10800
M204 S800
;TYPE:External perimeter
G1 F1200
G1 X135.842 Y85.876 E.00139
G1 X135.888 Y85.999 E.00412
G1 X135.888 Y124.001 E1.19152
G1 X135.823 Y124.143 E.0049
M73 Q0 S116
G1 X135.7 Y124.19 E.00413
G1 X97.679 Y124.189 E1.19212
G1 X97.546 Y124.115 E.00477
G1 X97.507 Y124.001 E.00378
G1 X97.507 Y85.999 E1.19152
G1 X97.57 Y85.858 E.00484
G1 X97.696 Y85.81 E.00423
G1 X135.7 Y85.81 E1.19159
G1 X135.747 Y85.832 E.00163
M204 S1000
;WIPE_START
G1 F8640
G1 X135.802 Y85.857 E-.01395
G1 X135.842 Y85.876 E-.01023
G1 X135.888 Y85.999 E-.03032
G1 X135.888 Y89.228 E-.7455
;WIPE_END
G1 Z.6 F720
G1 X77.807 Y127.703 F10800
G1 Z.2 F720
G1 E.8 F2100
M204 S800
;TYPE:Perimeter
G1 F1200
G1 X77.77 Y127.673 E.00149
G1 X77.639 Y127.399 E.00952
G1 X77.63 Y127.301 E.00309
G1 X77.63 Y83.699 E1.36711
G1 X77.697 Y83.433 E.0086
G1 X77.857 Y83.246 E.00772
G1 X78.092 Y83.143 E.00804
G1 X78.196 Y83.133 E.00328
G1 X83.3 Y83.133 E.16003
G1 X83.55 Y83.192 E.00805
G1 X83.768 Y83.382 E.00907
G1 X83.824 Y83.487 E.00373
G1 X83.865 Y83.699 E.00677
G1 X83.865 Y127.301 E1.36711
G1 X83.795 Y127.574 E.00884
G1 X83.647 Y127.747 E.00714
G1 X83.442 Y127.848 E.00717
G1 X83.3 Y127.867 E.00449
G1 X78.196 Y127.867 E.16003
G1 X77.919 Y127.794 E.00898
G1 X77.853 Y127.741 E.00265
M204 S1000
G1 X78.094 Y127.443 F10800
M204 S800
;TYPE:External perimeter
G1 F1200
G1 X78.054 Y127.425 E.00138
G1 X78.007 Y127.301 E.00416
G1 X78.007 Y83.699 E1.36711
G1 X78.054 Y83.575 E.00416
G1 X78.196 Y83.51 E.0049
G1 X83.3 Y83.51 E.16003
G1 X83.446 Y83.58 E.00508
G1 X83.474 Y83.628 E.00174
G1 X83.488 Y84.466 E.02628
G1 X83.488 Y127.301 E1.34306
G1 X83.435 Y127.432 E.00443
G1 X83.3 Y127.49 E.00461
G1 X78.196 Y127.49 E.16003
G1 X78.149 Y127.468 E.00163
M204 S1000
;WIPE_START
G1 F8640
G1 X78.094 Y127.443 E-.01395
G1 X78.054 Y127.425 E-.01013
G1 X78.007 Y127.301 E-.03062
G1 X78.007 Y124.073 E-.7453
;WIPE_END
G1 Z.6 F720
G1 X72.967 Y53.526 F10800
G1 Z.2 F720
G1 E.8 F2100
M204 S800
G1 F1200
G1 X73.302 Y53.148 E.01584
G1 X73.724 Y52.836 E.01646
G1 X74.202 Y52.619 E.01646
;WIDTH:0.45343
G1 X74.454 Y52.546 E.00896
;WIDTH:0.48686
G1 X74.707 Y52.473 E.00972
G1 X75.239 Y52.468 E.01964
;WIDTH:0.486174
G1 X75.496 Y52.537 E.00981
;WIDTH:0.453087
G1 X75.753 Y52.607 E.00908
;WIDTH:0.419999
G1 X76.234 Y52.816 E.01644
G1 X76.661 Y53.121 E.01645
G1 X77.015 Y53.509 E.01647
G1 X77.281 Y53.961 E.01644
;WIDTH:0.453185
G1 X77.38 Y54.205 E.00898
;WIDTH:0.48637
G1 X77.479 Y54.449 E.00971
G1 X77.537 Y54.977 E.01959
;WIDTH:0.508166
G1 X77.499 Y55.507 E.02056
G1 X77.398 Y55.755 E.01036
;WIDTH:0.464083
G1 X77.297 Y56.003 E.00938
;WIDTH:0.419999
G1 X77.038 Y56.46 E.01647
G1 X76.69 Y56.852 E.01644
G1 X76.268 Y57.164 E.01646
G1 X75.79 Y57.381 E.01646
G1 X75.278 Y57.494 E.01644
G1 X74.753 Y57.498 E.01646
G1 X74.202 Y57.381 E.01766
G1 X73.724 Y57.164 E.01646
G1 X73.3 Y56.85 E.01654
G1 X72.96 Y56.462 E.01618
G1 X72.695 Y56.003 E.01662
;WIDTH:0.464364
G1 X72.595 Y55.763 E.00911
;WIDTH:0.508729
G1 X72.495 Y55.523 E.01007
G1 X72.456 Y55.023 E.01942
;WIDTH:0.506497
G1 X72.494 Y54.493 E.02048
G1 X72.594 Y54.245 E.01031
;WIDTH:0.463248
G1 X72.695 Y53.997 E.00936
;WIDTH:0.419999
G1 X72.934 Y53.575 E.01521
M204 S1000
;WIPE_START
G1 F8640
G1 X72.967 Y53.526 E-.01364
G1 X73.302 Y53.148 E-.11663
G1 X73.724 Y52.836 E-.12118
G1 X74.202 Y52.619 E-.12121
G1 X74.454 Y52.546 E-.06058
G1 X74.707 Y52.473 E-.0608
G1 X75.239 Y52.468 E-.12285
G1 X75.496 Y52.537 E-.06144
G1 X75.753 Y52.607 E-.0615
G1 X75.992 Y52.711 E-.06017
;WIPE_END
G1 Z.6 F720
G1 X172.195 Y127.688 F10800
G1 Z.2 F720
G1 E.8 F2100
M204 S800
;TYPE:Perimeter
G1 F1200
G1 X172.139 Y127.754 E.00271
G1 X171.904 Y127.857 E.00804
G1 X166.696 Y127.867 E.16329
G1 X166.448 Y127.809 E.00799
G1 X166.229 Y127.62 E.00907
G1 X166.135 Y127.375 E.00823
G1 X166.13 Y83.699 E1.36943
G1 X166.197 Y83.433 E.0086
G1 X166.37 Y83.237 E.0082
G1 X166.647 Y83.136 E.00924
G1 X171.8 Y83.133 E.16157
G1 X172.077 Y83.206 E.00898
G1 X172.226 Y83.327 E.00602
G1 X172.348 Y83.56 E.00825
G1 X172.365 Y83.699 E.00439
G1 X172.365 Y127.301 E1.36711
G1 X172.299 Y127.567 E.00859
G1 X172.234 Y127.642 E.00311
M204 S1000
G1 X171.901 Y127.443 F10800
M204 S800
;TYPE:External perimeter
G1 F1200
G1 X171.8 Y127.49 E.00349
G1 X166.696 Y127.49 E.16003
G1 X166.55 Y127.42 E.00508
G1 X166.507 Y127.301 E.00397
G1 X166.507 Y83.699 E1.36711
G1 X166.529 Y83.61 E.00287
G1 X166.653 Y83.515 E.0049
G1 X166.696 Y83.51 E.00136
G1 X171.8 Y83.51 E.16003
G1 X171.942 Y83.575 E.0049
G1 X171.988 Y83.699 E.00415
G1 X171.988 Y127.301 E1.36711
G1 X171.947 Y127.41 E.00365
M204 S1000
;WIPE_START
G1 F8640
G1 X171.901 Y127.443 E-.01307
G1 X171.8 Y127.49 E-.02572
G1 X168.503 Y127.49 E-.76121
;WIPE_END
G1 Z.6 F720
G1 X177.025 Y53.526 F10800
G1 Z.2 F720
M73 P1 R113
G1 E.8 F2100
M204 S800
G1 F1200
G1 X177.038 Y53.54 E.0006
G1 X177.297 Y53.997 E.01647
;WIDTH:0.464082
G1 X177.398 Y54.245 E.00938
;WIDTH:0.508164
G1 X177.499 Y54.493 E.01036
G1 X177.538 Y55 E.01967
G1 X177.499 Y55.507 E.01967
G1 X177.398 Y55.755 E.01036
;WIDTH:0.464083
G1 X177.297 Y56.003 E.00938
;WIDTH:0.419999
G1 X177.038 Y56.46 E.01647
G1 X176.69 Y56.852 E.01644
G1 X176.268 Y57.164 E.01646
G1 X175.79 Y57.381 E.01646
G1 X175.278 Y57.494 E.01644
G1 X174.753 Y57.498 E.01646
G1 X174.239 Y57.393 E.01645
G1 X173.758 Y57.184 E.01644
M73 Q1 S116
G1 X173.331 Y56.879 E.01645
G1 X172.977 Y56.491 E.01647
G1 X172.711 Y56.039 E.01644
;WIDTH:0.456994
G1 X172.61 Y55.796 E.00906
;WIDTH:0.493989
G1 X172.51 Y55.553 E.00986
G1 X172.456 Y55.023 E.01998
;WIDTH:0.506498
G1 X172.494 Y54.493 E.02048
G1 X172.594 Y54.245 E.01031
;WIDTH:0.463249
G1 X172.695 Y53.997 E.00936
;WIDTH:0.419999
G1 X172.954 Y53.541 E.01644
G1 X173.331 Y53.121 E.0177
G1 X173.758 Y52.816 E.01645
G1 X174.239 Y52.607 E.01644
;WIDTH:0.453728
G1 X174.496 Y52.537 E.0091
;WIDTH:0.487457
G1 X174.753 Y52.468 E.00984
;WIDTH:0.492368
G1 X175.286 Y52.47 E.01992
G1 X175.538 Y52.544 E.00982
;WIDTH:0.456184
G1 X175.79 Y52.619 E.00903
;WIDTH:0.419999
G1 X176.268 Y52.836 E.01646
G1 X176.69 Y53.148 E.01646
G1 X176.985 Y53.481 E.01395
M204 S1000
;WIPE_START
G1 F8640
G1 X177.025 Y53.526 E-.0139
G1 X177.038 Y53.54 E-.00441
G1 X177.297 Y53.997 E-.12129
G1 X177.398 Y54.245 E-.06183
G1 X177.499 Y54.493 E-.06183
G1 X177.538 Y55 E-.11741
G1 X177.499 Y55.507 E-.11741
G1 X177.398 Y55.755 E-.06183
G1 X177.297 Y56.003 E-.06183
G1 X177.038 Y56.46 E-.12129
G1 X176.874 Y56.645 E-.05697
;WIPE_END
G1 Z.6 F720
G1 X172.967 Y153.526 F10800
G1 Z.2 F720
G1 E.8 F2100
M204 S800
G1 F1200
G1 X173.302 Y153.148 E.01584
G1 X173.724 Y152.836 E.01646
G1 X174.208 Y152.62 E.01662
G1 X174.712 Y152.506 E.0162
G1 X175.239 Y152.502 E.01652
G1 X175.753 Y152.607 E.01645
G1 X176.234 Y152.816 E.01644
G1 X176.661 Y153.121 E.01645
G1 X177.015 Y153.509 E.01647
G1 X177.281 Y153.961 E.01644
;WIDTH:0.453184
G1 X177.38 Y154.205 E.00898
;WIDTH:0.486368
G1 X177.479 Y154.449 E.00971
G1 X177.537 Y154.977 E.01959
;WIDTH:0.508166
G1 X177.499 Y155.507 E.02056
G1 X177.398 Y155.755 E.01036
;WIDTH:0.464083
G1 X177.297 Y156.003 E.00938
;WIDTH:0.419999
G1 X177.016 Y156.485 E.01749
G1 X176.661 Y156.879 E.01663
G1 X176.234 Y157.184 E.01645
G1 X175.753 Y157.393 E.01644
;WIDTH:0.453728
G1 X175.496 Y157.463 E.0091
;WIDTH:0.487456
G1 X175.239 Y157.532 E.00984
;WIDTH:0.492366
G1 X174.707 Y157.53 E.01988
G1 X174.454 Y157.456 E.00985
;WIDTH:0.456183
G1 X174.202 Y157.381 E.00903
;WIDTH:0.419999
G1 X173.724 Y157.164 E.01646
G1 X173.302 Y156.852 E.01646
G1 X172.954 Y156.46 E.01644
G1 X172.695 Y156.003 E.01647
;WIDTH:0.464365
G1 X172.595 Y155.763 E.00911
;WIDTH:0.508731
G1 X172.495 Y155.523 E.01007
G1 X172.456 Y155.023 E.01942
;WIDTH:0.506498
G1 X172.494 Y154.493 E.02048
G1 X172.594 Y154.245 E.01031
;WIDTH:0.463249
G1 X172.695 Y153.997 E.00936
;WIDTH:0.419999
G1 X172.934 Y153.575 E.01521
M204 S1000
;WIPE_START
G1 F8640
G1 X172.967 Y153.526 E-.01364
G1 X173.302 Y153.148 E-.11663
G1 X173.724 Y152.836 E-.12118
G1 X174.208 Y152.62 E-.12238
G1 X174.712 Y152.506 E-.11931
G1 X175.239 Y152.502 E-.12169
G1 X175.753 Y152.607 E-.12114
G1 X176.007 Y152.718 E-.06403
;WIPE_END
G1 Z.6 F720
G1 X176.506 Y157.553 F10800
G1 Z.2 F720
G1 E.8 F2100
M204 S800
;TYPE:Perimeter
;WIDTH:0.581396
G1 F1200
G1 X176.93 Y157.249 E.02336
G1 X177.334 Y156.821 E.02635
G1 X177.55 Y156.483 E.01796
G1 X177.55 Y157.553 E.04791
G1 X176.566 Y157.553 E.04406
M204 S1000
;WIPE_START
G1 F8640
G1 X176.506 Y157.553 E-.01385
G1 X176.93 Y157.249 E-.12047
G1 X177.334 Y156.821 E-.1359
G1 X177.55 Y156.483 E-.09262
G1 X177.55 Y157.553 E-.24707
G1 X176.726 Y157.553 E-.19009
;WIPE_END
G1 Z.6 F720
G1 X172.445 Y156.494 F10800
G1 Z.2 F720
G1 E.8 F2100
M204 S800
;WIDTH:0.580371
G1 F1200
G1 X172.637 Y156.797 E.01603
G1 X173.062 Y157.249 E.02773
G1 X173.488 Y157.553 E.02339
G1 X172.445 Y157.553 E.04661
G1 X172.445 Y156.554 E.04464
M204 S1000
;WIPE_START
G1 F8640
G1 X172.445 Y156.494 E-.01385
G1 X172.637 Y156.797 E-.08283
G1 X173.062 Y157.249 E-.14326
G1 X173.488 Y157.553 E-.12084
G1 X172.445 Y157.553 E-.24083
G1 X172.445 Y156.693 E-.19839
;WIPE_END
G1 Z.6 F720
G1 X72.601 Y53.26 F10800
G1 Z.2 F720
G1 E.8 F2100
M204 S800
;WIDTH:0.580219
G1 F1200
G1 X72.445 Y53.507 E.01305
G1 X72.445 Y52.447 E.04736
G1 X73.487 Y52.448 E.04655
G1 X73.062 Y52.751 E.02332
G1 X72.637 Y53.203 E.02772
G1 X72.633 Y53.209 E.00032
M204 S1000
;WIPE_START
G1 F8640
G1 X72.601 Y53.26 E-.0139
G1 X72.445 Y53.507 E-.06746
G1 X72.445 Y52.447 E-.24476
G1 X73.487 Y52.448 E-.2406
G1 X73.062 Y52.751 E-.12052
G1 X72.728 Y53.107 E-.11276
;WIPE_END
G1 Z.6 F720
G1 X76.51 Y52.45 F10800
G1 Z.2 F720
G1 E.8 F2100
M204 S800
;WIDTH:0.580231
G1 F1200
G1 X77.55 Y52.451 E.04646
G1 X77.55 Y53.513 E.04745
G1 X77.355 Y53.203 E.01636
G1 X76.93 Y52.751 E.02772
G1 X76.558 Y52.485 E.02043
M204 S1000
;WIPE_START
G1 F8640
G1 X76.51 Y52.45 E-.01372
G1 X77.55 Y52.451 E-.24014
G1 X77.55 Y53.513 E-.24522
G1 X77.355 Y53.203 E-.08456
G1 X76.93 Y52.751 E-.14326
G1 X76.673 Y52.567 E-.0731
;WIPE_END
G1 Z.6 F720
G1 X177.392 Y53.26 F10800
G1 Z.2 F720
G1 E.8 F2100
M204 S800
;WIDTH:0.581396
G1 F1200
G1 X177.355 Y53.202 E.00308
G1 X176.93 Y52.751 E.02775
G1 X176.506 Y52.447 E.02336
G1 X177.55 Y52.447 E.04674
G1 X177.55 Y53.51 E.0476
G1 X177.424 Y53.31 E.01058
M204 S1000
;WIPE_START
G1 F8640
G1 X177.392 Y53.26 E-.01371
G1 X177.355 Y53.202 E-.01589
G1 X176.93 Y52.751 E-.14309
G1 X176.506 Y52.447 E-.12047
G1 X177.55 Y52.447 E-.24106
G1 X177.55 Y53.51 E-.24545
G1 X177.503 Y53.436 E-.02033
;WIPE_END
G1 Z.6 F720
G1 X173.488 Y52.447 F10800
G1 Z.2 F720
G1 E.8 F2100
M204 S800
;WIDTH:0.58037
G1 F1200
G1 X173.062 Y52.751 E.02339
G1 X172.637 Y53.203 E.02773
G1 X172.445 Y53.506 E.01603
G1 X172.445 Y52.447 E.04733
G1 X173.428 Y52.447 E.04393
M204 S1000
;WIPE_START
G1 F8640
G1 X173.488 Y52.447 E-.01385
G1 X173.062 Y52.751 E-.12084
G1 X172.637 Y53.203 E-.14326
G1 X172.445 Y53.506 E-.08283
G1 X172.445 Y52.447 E-.24453
G1 X173.289 Y52.447 E-.19469
;WIPE_END
G1 Z.6 F720
G1 X77.807 Y77.703 F10800
G1 Z.2 F720
G1 E.8 F2100
M204 S800
;WIDTH:0.419999
G1 F1200
G1 X77.919 Y77.794 E.00452
G1 X78.196 Y77.867 E.00898
G1 X83.3 Y77.867 E.16003
G1 X83.435 Y77.85 E.00427
G1 X83.636 Y77.756 E.00696
G1 X83.804 Y77.557 E.00817
G1 X83.865 Y77.301 E.00825
G1 X83.865 Y71.441 E.18374
G1 X83.789 Y70.8 E.02024
G1 X83.865 Y70.159 E.02024
G1 X83.865 Y67.167 E.09381
G1 X166.13 Y67.167 E2.57936
G1 X166.13 Y77.301 E.31774
G1 X166.135 Y77.371 E.0022
G1 X166.235 Y77.628 E.00865
G1 X166.455 Y77.813 E.00901
G1 X166.696 Y77.867 E.00774
G1 X171.904 Y77.857 E.16329
G1 X172.139 Y77.754 E.00804
G1 X172.299 Y77.567 E.00772
G1 X172.365 Y77.301 E.00859
G1 X172.365 Y56.184 E.66211
G1 X172.697 Y56.744 E.02041
G1 X173.109 Y57.184 E.0189
G1 X173.605 Y57.528 E.01893
G1 X174.161 Y57.762 E.01891
G1 X174.753 Y57.876 E.0189
G1 X175.356 Y57.863 E.01891
G1 X175.944 Y57.726 E.01893
G1 X176.49 Y57.469 E.01892
G1 X176.971 Y57.105 E.01891
G1 X177.365 Y56.648 E.01892
G1 X177.63 Y56.177 E.01694
G1 X177.63 Y153.823 E3.06162
G1 X177.295 Y153.256 E.02065
M73 P1 R112
G1 X176.883 Y152.816 E.0189
G1 X176.387 Y152.472 E.01893
G1 X175.831 Y152.238 E.01891
G1 X175.239 Y152.124 E.0189
G1 X174.629 Y152.138 E.01913
G1 X174.02 Y152.287 E.01966
G1 X173.502 Y152.531 E.01795
G1 X173.022 Y152.895 E.01889
G1 X172.627 Y153.352 E.01894
G1 X172.365 Y153.816 E.01671
G1 X172.365 Y133.699 E.63075
G1 X172.348 Y133.56 E.00439
G1 X172.226 Y133.327 E.00825
G1 X172.077 Y133.206 E.00602
G1 X171.8 Y133.133 E.00898
G1 X166.647 Y133.136 E.16157
G1 X166.362 Y133.243 E.00954
G1 X166.192 Y133.441 E.00818
