; generated by PrusaSlicer 2.9.3 on 2025-11-17 at 10:28:41 UTC


;
;
; 

; external perimeters extrusion width = 0.45mm
; perimeters extrusion width = 0.45mm
; infill extrusion width = 0.45mm
; solid infill extrusion width = 0.45mm
; top infill extrusion width = 0.40mm
; first layer extrusion width = 0.42mm

M73 P0 R65
M73 Q0 S67
M201 X1000 Y1000 Z200 E5000 ; sets maximum accelerations, mm/sec^2
M203 X200 Y200 Z12 E120 ; sets maximum feedrates, mm / sec
M204 S1250 T1250 ; sets acceleration (S) and retract acceleration (R), mm/sec^2
M205 X8.00 Y8.00 Z0.40 E4.50 ; sets the jerk limits, mm/sec
M205 S0 T0 ; sets the minimum extruding and travel feed rate, mm/sec

; printing object raspberry-pi-hq-camera-holder-top.stl id:0 copy 0
; stop printing object raspberry-pi-hq-camera-holder-top.stl id:0 copy 0

;TYPE:Custom
M862.3 P "MK3S" ; printer model check
M862.1 P0.4 ; nozzle diameter check
M115 U3.14.1 ; tell printer latest fw version
G90 ; use absolute coordinates
M83 ; extruder relative mode
M104 S215 ; set extruder temp
M140 S60 ; set bed temp
M190 S60 ; wait for bed temp
M109 S215 ; wait for extruder temp
G28 W ; home all without mesh bed level
G80 X80.2597 Y71.5585 W89.4796 H66.883 ; mesh bed levelling

G1 Z0.2 F720
G1 Y-3 F1000 ; go outside print area
G92 E0
G1 X60 E9 F1000 ; intro line
G1 X100 E12.5 F1000 ; intro line

G92 E0
M221 S95

; Don't change E values below. Excessive value can damage the printer.

M907 E538 ; set extruder motor current
G21 ; set units to millimeters
G90 ; use absolute coordinates
M83 ; use relative distances for extrusion

M900 K0.05 ; Filament gcode LA 1.5
M900 K30 ; Filament gcode LA 1.0




M107
;LAYER_CHANGE
;Z:0.2
;HEIGHT:0.2
G1 E-.8 F2100
G1 Z.6 F720
G1 X81.2 Y72.793 F10800
G1 Z.2 F720
G1 E.8 F2100
M204 S800
;TYPE:Skirt/Brim
;WIDTH:0.42
G1 F1200
G1 X81.771 Y72.285 E.02396
G1 X82.657 Y71.868 E.0307
G1 X83.55 Y71.747 E.02826
G1 X166.961 Y71.786 E2.61529
G1 X167.892 Y72.088 E.03069
M73 P0 R64
G1 X168.355 Y72.382 E.0172
G1 X168.898 Y72.921 E.02399
G1 X169.37 Y73.779 E.0307
G1 X169.551 Y74.8 E.03251
G1 X169.551 Y135.2 E1.8938
G1 X169.506 Y135.69 E.01543
G1 X169.29 Y136.423 E.02396
G1 X168.898 Y137.079 E.02396
G1 X168.355 Y137.618 E.02399
G1 X167.695 Y138.004 E.02397
G1 X167.174 Y138.174 E.01718
G1 X166.55 Y138.253 E.01972
G1 X83.55 Y138.253 E2.60241
G1 X82.451 Y138.065 E.03496
G1 X81.771 Y137.715 E.02398
G1 X81.2 Y137.207 E.02396
G1 X80.773 Y136.573 E.02397
G1 X80.571 Y136.063 E.0172
G1 X80.448 Y135.309 E.02395
G1 X80.448 Y74.691 E1.90063
G1 X80.524 Y74.122 E.018
G1 X80.773 Y73.427 E.02315
G1 X81.166 Y72.843 E.02207
M204 S1000
;WIPE_START
G1 F8640
G1 X81.2 Y72.793 E-.01396
G1 X81.771 Y72.285 E-.17647
G1 X82.657 Y71.868 E-.22611
G1 X83.55 Y71.747 E-.20808
G1 X84.31 Y71.747 E-.17538
;WIPE_END
G1 Z.6 F720
; printing object raspberry-pi-hq-camera-holder-top.stl id:0 copy 0
G1 X83.927 Y75.153 F10800
G1 Z.2 F720
G1 E.8 F2100
M204 S800
;TYPE:Perimeter
;WIDTH:0.419999
G1 F1200
G1 X166.144 Y75.159 E2.57785
G1 X166.144 Y134.847 E1.87147
G1 X83.851 Y134.847 E2.58023
M73 Q0 S66
G1 X83.851 Y75.153 E1.87166
G1 X83.867 Y75.153 E.0005
M204 S1000
G1 X83.504 Y74.813 F10800
M204 S800
;TYPE:External perimeter
G1 F1200
G1 X83.558 Y74.776 E.00205
G1 X166.481 Y74.782 E2.59999
G1 X166.521 Y74.863 E.00283
M73 P1 R64
M73 Q1 S66
G1 X166.521 Y135.154 E1.89038
G1 X166.472 Y135.224 E.00268
G1 X83.555 Y135.224 E2.5998
G1 X83.474 Y135.189 E.00277
G1 X83.474 Y74.857 E1.89166
M204 S1000
;WIPE_START
G1 F8640
G1 X83.504 Y74.813 E-.0123
G1 X83.558 Y74.776 E-.01511
G1 X86.904 Y74.776 E-.77259
;WIPE_END
G1 Z.6 F720
G1 X165.975 Y76.092 F10800
G1 Z.2 F720
G1 E.8 F2100
M204 S800
;TYPE:Solid infill
;WIDTH:0.420161
G1 F1200
G1 X165.382 Y75.499 E.02631
G1 X164.848 Y75.498 E.01675
G1 X165.805 Y76.455 E.04245
G1 X165.805 Y76.989 E.01675
G1 X164.314 Y75.498 E.06614
G1 X163.781 Y75.498 E.01672
G1 X165.805 Y77.522 E.08979
G1 X165.805 Y78.056 E.01675
G1 X163.247 Y75.498 E.11347
G1 X162.714 Y75.498 E.01672
G1 X165.805 Y78.589 E.13712
G1 X165.805 Y79.123 E.01675
G1 X162.18 Y75.498 E.16081
G1 X161.647 Y75.498 E.01672
G1 X165.805 Y79.656 E.18445
G1 X165.805 Y80.19 E.01675
G1 X161.113 Y75.498 E.20814
G1 X160.58 Y75.498 E.01672
G1 X165.805 Y80.723 E.23178
G1 X165.805 Y81.257 E.01675
G1 X160.046 Y75.498 E.25547
G1 X159.513 Y75.498 E.01672
G1 X165.805 Y81.79 E.27912
G1 X165.805 Y82.324 E.01675
G1 X158.979 Y75.498 E.30281
G1 X158.445 Y75.498 E.01675
G1 X165.805 Y82.857 E.32647
G1 X165.805 Y83.391 E.01675
G1 X157.912 Y75.498 E.35014
G1 X157.378 Y75.498 E.01675
G1 X165.805 Y83.924 E.37381
G1 X165.805 Y84.458 E.01675
G1 X156.845 Y75.498 E.39747
G1 X156.311 Y75.498 E.01675
G1 X165.805 Y84.991 E.42114
G1 X165.805 Y85.525 E.01675
G1 X155.778 Y75.498 E.4448
G1 X155.244 Y75.498 E.01675
G1 X165.805 Y86.058 E.46847
G1 X165.805 Y86.592 E.01675
G1 X154.711 Y75.498 E.49214
G1 X154.177 Y75.498 E.01675
G1 X165.805 Y87.125 E.5158
G1 X165.805 Y87.659 E.01675
G1 X153.644 Y75.498 E.53947
G1 X153.11 Y75.498 E.01675
G1 X165.805 Y88.192 E.56314
G1 X165.805 Y88.726 E.01675
G1 X152.577 Y75.498 E.5868
G1 X152.043 Y75.497 E.01675
G1 X165.805 Y89.259 E.61049
G1 X165.805 Y89.793 E.01675
G1 X151.509 Y75.497 E.63418
G1 X150.976 Y75.497 E.01672
G1 X165.805 Y90.326 E.65782
G1 X165.805 Y90.86 E.01675
G1 X150.442 Y75.497 E.68151
G1 X149.909 Y75.497 E.01672
G1 X165.805 Y91.393 E.70516
G1 X165.805 Y91.927 E.01675
M73 P1 R63
G1 X149.375 Y75.497 E.72885
G1 X148.842 Y75.497 E.01672
G1 X165.805 Y92.46 E.75249
G1 X165.805 Y92.994 E.01675
G1 X148.308 Y75.497 E.77618
G1 X147.775 Y75.497 E.01672
G1 X165.805 Y93.527 E.79982
G1 X165.805 Y94.061 E.01675
G1 X147.241 Y75.497 E.82351
G1 X146.708 Y75.497 E.01672
G1 X165.805 Y94.594 E.84716
G1 X165.805 Y95.128 E.01675
M73 P2 R63
G1 X146.174 Y75.497 E.87084
G1 X145.641 Y75.497 E.01672
G1 X165.805 Y95.661 E.89449
G1 X165.805 Y96.195 E.01675
M73 Q2 S66
G1 X145.107 Y75.497 E.91818
G1 X144.573 Y75.497 E.01675
G1 X165.805 Y96.728 E.94184
G1 X165.805 Y97.262 E.01675
G1 X144.04 Y75.497 E.96551
G1 X143.506 Y75.497 E.01675
G1 X165.805 Y97.795 E.98918
G1 X165.805 Y98.329 E.01675
M73 Q2 S65
G1 X142.973 Y75.497 E1.01284
G1 X142.439 Y75.497 E.01675
G1 X165.805 Y98.862 E1.03651
G1 X165.805 Y99.396 E.01675
G1 X141.906 Y75.497 E1.06018
G1 X141.372 Y75.497 E.01675
G1 X165.805 Y99.929 E1.08384
G1 X165.805 Y100.463 E.01675
G1 X140.839 Y75.497 E1.10751
G1 X140.305 Y75.497 E.01675
G1 X165.805 Y100.996 E1.13117
G1 X165.805 Y101.53 E.01675
G1 X139.772 Y75.497 E1.15484
G1 X139.238 Y75.496 E.01675
G1 X165.805 Y102.063 E1.17853
G1 X165.805 Y102.597 E.01675
G1 X138.704 Y75.496 E1.20222
G1 X138.171 Y75.496 E.01672
G1 X165.805 Y103.13 E1.22586
G1 X165.805 Y103.664 E.01675
G1 X137.637 Y75.496 E1.24955
G1 X137.104 Y75.496 E.01672
G1 X165.805 Y104.197 E1.2732
G1 X165.805 Y104.731 E.01675
G1 X136.57 Y75.496 E1.29688
G1 X136.037 Y75.496 E.01672
G1 X165.805 Y105.264 E1.32053
G1 X165.805 Y105.798 E.01675
G1 X135.503 Y75.496 E1.34422
G1 X134.97 Y75.496 E.01672
G1 X165.805 Y106.331 E1.36786
G1 X165.805 Y106.865 E.01675
M73 P3 R63
G1 X134.436 Y75.496 E1.39155
G1 X133.903 Y75.496 E.01672
M73 Q3 S65
G1 X165.805 Y107.398 E1.41519
G1 X165.805 Y107.932 E.01675
G1 X133.369 Y75.496 E1.43888
G1 X132.836 Y75.496 E.01672
G1 X165.805 Y108.465 E1.46253
G1 X165.805 Y108.999 E.01675
G1 X132.302 Y75.496 E1.48621
G1 X131.768 Y75.496 E.01675
M73 P3 R62
G1 X165.805 Y109.532 E1.50988
G1 X165.805 Y110.066 E.01675
G1 X131.235 Y75.496 E1.53355
G1 X130.701 Y75.496 E.01675
G1 X165.805 Y110.599 E1.55721
G1 X165.805 Y111.133 E.01675
G1 X130.168 Y75.496 E1.58088
G1 X129.634 Y75.496 E.01675
G1 X165.805 Y111.666 E1.60455
G1 X165.805 Y112.2 E.01675
G1 X129.101 Y75.496 E1.62821
G1 X128.567 Y75.496 E.01675
G1 X165.805 Y112.733 E1.65188
G1 X165.805 Y113.267 E.01675
M73 Q3 S64
G1 X128.034 Y75.496 E1.67555
G1 X127.5 Y75.496 E.01675
G1 X165.805 Y113.8 E1.69921
G1 X165.805 Y114.334 E.01675
G1 X126.967 Y75.496 E1.72288
G1 X126.433 Y75.495 E.01675
M73 P4 R62
G1 X165.805 Y114.867 E1.74657
G1 X165.805 Y115.401 E.01675
G1 X125.899 Y75.495 E1.77026
G1 X125.366 Y75.495 E.01672
M73 Q4 S64
G1 X165.805 Y115.934 E1.7939
G1 X165.805 Y116.468 E.01675
G1 X124.832 Y75.495 E1.81759
G1 X124.299 Y75.495 E.01672
G1 X165.805 Y117.001 E1.84123
G1 X165.805 Y117.535 E.01675
G1 X123.765 Y75.495 E1.86492
G1 X123.232 Y75.495 E.01672
G1 X165.805 Y118.068 E1.88857
G1 X165.805 Y118.602 E.01675
G1 X122.698 Y75.495 E1.91225
G1 X122.165 Y75.495 E.01672
G1 X165.805 Y119.135 E1.9359
G1 X165.805 Y119.669 E.01675
G1 X121.631 Y75.495 E1.95959
G1 X121.098 Y75.495 E.01672
G1 X165.805 Y120.202 E1.98323
G1 X165.805 Y120.736 E.01675
G1 X120.564 Y75.495 E2.00692
G1 X120.031 Y75.495 E.01672
M73 P4 R61
G1 X165.805 Y121.269 E2.03056
G1 X165.805 Y121.803 E.01675
M73 P5 R61
G1 X119.497 Y75.495 E2.05425
G1 X118.963 Y75.495 E.01675
G1 X165.805 Y122.336 E2.07792
G1 X165.805 Y122.87 E.01675
M73 Q5 S64
G1 X118.43 Y75.495 E2.10159
G1 X117.896 Y75.495 E.01675
G1 X165.805 Y123.403 E2.12525
G1 X165.805 Y123.937 E.01675
M73 Q5 S63
G1 X117.363 Y75.495 E2.14892
G1 X116.829 Y75.495 E.01675
G1 X165.805 Y124.47 E2.17259
G1 X165.805 Y125.004 E.01675
G1 X116.296 Y75.495 E2.19625
G1 X115.762 Y75.495 E.01675
G1 X165.805 Y125.537 E2.21992
G1 X165.805 Y126.071 E.01675
G1 X115.229 Y75.495 E2.24358
G1 X114.695 Y75.495 E.01675
G1 X165.805 Y126.604 E2.26725
G1 X165.805 Y127.138 E.01675
G1 X114.162 Y75.495 E2.29092
G1 X113.628 Y75.494 E.01675
M73 P6 R61
G1 X165.805 Y127.671 E2.31461
G1 X165.805 Y128.205 E.01675
G1 X113.094 Y75.494 E2.33829
G1 X112.561 Y75.494 E.01672
G1 X165.805 Y128.738 E2.36194
M73 Q6 S63
G1 X165.805 Y129.272 E.01675
G1 X112.027 Y75.494 E2.38563
G1 X111.494 Y75.494 E.01672
G1 X165.805 Y129.805 E2.40927
G1 X165.805 Y130.339 E.01675
M73 P6 R60
G1 X110.96 Y75.494 E2.43296
G1 X110.427 Y75.494 E.01672
G1 X165.805 Y130.872 E2.4566
G1 X165.805 Y131.406 E.01675
G1 X109.893 Y75.494 E2.48029
G1 X109.36 Y75.494 E.01672
G1 X165.805 Y131.939 E2.50394
G1 X165.805 Y132.473 E.01675
M73 Q6 S62
G1 X108.826 Y75.494 E2.52763
G1 X108.293 Y75.494 E.01672
M73 P7 R60
G1 X165.805 Y133.006 E2.55127
G1 X165.805 Y133.54 E.01675
G1 X107.759 Y75.494 E2.57496
G1 X107.226 Y75.494 E.01672
G1 X165.805 Y134.073 E2.5986
G1 X165.805 Y134.508 E.01364
M73 Q7 S62
G1 X165.706 Y134.508 E.00311
G1 X106.692 Y75.494 E2.6179
G1 X106.158 Y75.494 E.01675
G1 X165.172 Y134.508 E2.6179
G1 X164.639 Y134.508 E.01672
G1 X105.625 Y75.494 E2.6179
G1 X105.091 Y75.494 E.01675
G1 X164.105 Y134.508 E2.6179
G1 X163.572 Y134.508 E.01672
G1 X104.558 Y75.494 E2.6179
G1 X104.024 Y75.494 E.01675
G1 X163.038 Y134.508 E2.6179
G1 X162.505 Y134.508 E.01672
M73 P7 R59
G1 X103.491 Y75.494 E2.6179
G1 X102.957 Y75.494 E.01675
M73 P8 R59
G1 X161.971 Y134.508 E2.6179
G1 X161.438 Y134.508 E.01672
G1 X102.424 Y75.494 E2.6179
G1 X101.89 Y75.494 E.01675
M73 Q8 S62
G1 X160.904 Y134.508 E2.6179
G1 X160.371 Y134.508 E.01672
M73 Q8 S61
G1 X101.357 Y75.493 E2.61792
G1 X100.823 Y75.493 E.01675
G1 X159.837 Y134.508 E2.61792
G1 X159.304 Y134.508 E.01672
G1 X100.289 Y75.493 E2.61794
G1 X99.756 Y75.493 E.01672
G1 X158.77 Y134.508 E2.61792
G1 X158.237 Y134.508 E.01672
G1 X99.222 Y75.493 E2.61794
G1 X98.689 Y75.493 E.01672
G1 X157.703 Y134.508 E2.61792
G1 X157.17 Y134.508 E.01672
M73 P9 R59
G1 X98.155 Y75.493 E2.61794
G1 X97.622 Y75.493 E.01672
G1 X156.636 Y134.508 E2.61792
G1 X156.103 Y134.508 E.01672
G1 X97.088 Y75.493 E2.61794
G1 X96.555 Y75.493 E.01672
M73 Q9 S61
G1 X155.569 Y134.508 E2.61792
G1 X155.036 Y134.508 E.01672
M73 P9 R58
G1 X96.021 Y75.493 E2.61794
G1 X95.488 Y75.493 E.01672
G1 X154.502 Y134.508 E2.61792
G1 X153.969 Y134.508 E.01672
G1 X94.954 Y75.493 E2.61794
G1 X94.421 Y75.493 E.01672
G1 X153.435 Y134.508 E2.61792
G1 X152.902 Y134.508 E.01672
M73 Q9 S60
G1 X93.887 Y75.493 E2.61794
G1 X93.353 Y75.493 E.01675
M73 P10 R58
G1 X152.369 Y134.508 E2.61797
G1 X151.835 Y134.508 E.01675
G1 X92.82 Y75.493 E2.61794
G1 X92.286 Y75.493 E.01675
G1 X151.302 Y134.508 E2.61797
G1 X150.768 Y134.508 E.01675
G1 X91.753 Y75.493 E2.61794
M73 Q10 S60
G1 X91.219 Y75.493 E.01675
G1 X150.235 Y134.508 E2.61797
G1 X149.701 Y134.508 E.01675
G1 X90.686 Y75.493 E2.61794
G1 X90.152 Y75.493 E.01675
G1 X149.168 Y134.508 E2.61797
G1 X148.634 Y134.508 E.01675
G1 X89.619 Y75.493 E2.61794
G1 X89.085 Y75.493 E.01675
G1 X148.101 Y134.508 E2.61797
G1 X147.567 Y134.508 E.01675
G1 X88.552 Y75.492 E2.61797
G1 X88.018 Y75.492 E.01675
M73 P11 R57
G1 X147.034 Y134.508 E2.61799
G1 X146.5 Y134.508 E.01675
G1 X87.485 Y75.492 E2.61797
G1 X86.951 Y75.492 E.01675
G1 X145.967 Y134.508 E2.61799
G1 X145.433 Y134.508 E.01675
M73 Q11 S60
G1 X86.417 Y75.492 E2.61799
G1 X85.884 Y75.492 E.01672
M73 Q11 S59
G1 X144.9 Y134.508 E2.61799
G1 X144.366 Y134.508 E.01675
G1 X85.35 Y75.492 E2.61799
G1 X84.817 Y75.492 E.01672
G1 X143.833 Y134.508 E2.61799
G1 X143.299 Y134.508 E.01675
G1 X84.283 Y75.492 E2.61799
G1 X84.191 Y75.492 E.00289
G1 X84.191 Y75.933 E.01383
G1 X142.766 Y134.508 E2.59843
G1 X142.232 Y134.508 E.01675
M73 P12 R57
G1 X84.191 Y76.467 E2.57474
G1 X84.191 Y77 E.01672
G1 X141.699 Y134.508 E2.55109
G1 X141.165 Y134.508 E.01675
G1 X84.191 Y77.534 E2.5274
G1 X84.191 Y78.067 E.01672
G1 X140.632 Y134.508 E2.50376
G1 X140.098 Y134.508 E.01675
M73 Q12 S59
G1 X84.191 Y78.601 E2.48007
G1 X84.191 Y79.134 E.01672
M73 P12 R56
G1 X139.565 Y134.508 E2.45643
G1 X139.031 Y134.508 E.01675
G1 X84.191 Y79.668 E2.43274
G1 X84.191 Y80.201 E.01672
G1 X138.498 Y134.508 E2.40909
G1 X137.964 Y134.508 E.01675
G1 X84.191 Y80.735 E2.38541
G1 X84.191 Y81.268 E.01672
M73 Q12 S58
G1 X137.431 Y134.508 E2.36176
G1 X136.897 Y134.508 E.01675
M73 P13 R56
G1 X84.191 Y81.802 E2.33807
G1 X84.191 Y82.335 E.01672
G1 X136.364 Y134.508 E2.31443
G1 X135.83 Y134.508 E.01675
G1 X84.191 Y82.869 E2.29074
G1 X84.191 Y83.402 E.01672
G1 X135.297 Y134.508 E2.2671
G1 X134.763 Y134.508 E.01675
M73 Q13 S58
G1 X84.191 Y83.936 E2.24341
G1 X84.191 Y84.469 E.01672
G1 X134.23 Y134.508 E2.21976
G1 X133.696 Y134.508 E.01675
G1 X84.191 Y85.003 E2.19607
G1 X84.191 Y85.536 E.01672
G1 X133.163 Y134.508 E2.17243
G1 X132.629 Y134.508 E.01675
G1 X84.191 Y86.07 E2.14874
G1 X84.191 Y86.603 E.01672
G1 X132.096 Y134.508 E2.1251
G1 X131.562 Y134.508 E.01675
G1 X84.191 Y87.137 E2.10141
G1 X84.191 Y87.67 E.01672
M73 P14 R55
G1 X131.029 Y134.508 E2.07776
G1 X130.495 Y134.508 E.01675
G1 X84.191 Y88.204 E2.05408
G1 X84.191 Y88.737 E.01672
G1 X129.962 Y134.508 E2.03043
G1 X129.428 Y134.508 E.01675
G1 X84.191 Y89.271 E2.00674
G1 X84.191 Y89.804 E.01672
G1 X128.895 Y134.508 E1.9831
G1 X128.361 Y134.508 E.01675
M73 Q14 S58
G1 X84.191 Y90.338 E1.95941
G1 X84.191 Y90.871 E.01672
M73 Q14 S57
G1 X127.828 Y134.508 E1.93577
G1 X127.294 Y134.508 E.01675
G1 X84.191 Y91.405 E1.91208
G1 X84.191 Y91.938 E.01672
G1 X126.761 Y134.508 E1.88843
G1 X126.227 Y134.508 E.01675
G1 X84.191 Y92.472 E1.86474
G1 X84.191 Y93.005 E.01672
G1 X125.694 Y134.508 E1.8411
G1 X125.16 Y134.508 E.01675
G1 X84.191 Y93.539 E1.81741
G1 X84.191 Y94.072 E.01672
M73 P15 R55
G1 X124.627 Y134.508 E1.79377
G1 X124.093 Y134.508 E.01675
G1 X84.191 Y94.606 E1.77008
G1 X84.191 Y95.139 E.01672
G1 X123.56 Y134.508 E1.74643
G1 X123.026 Y134.508 E.01675
G1 X84.191 Y95.673 E1.72275
G1 X84.191 Y96.206 E.01672
G1 X122.493 Y134.508 E1.6991
G1 X121.959 Y134.508 E.01675
G1 X84.191 Y96.74 E1.67541
G1 X84.191 Y97.273 E.01672
G1 X121.426 Y134.508 E1.65177
G1 X120.892 Y134.508 E.01675
M73 Q15 S57
G1 X84.191 Y97.807 E1.62808
G1 X84.191 Y98.34 E.01672
M73 P15 R54
G1 X120.359 Y134.508 E1.60444
G1 X119.825 Y134.508 E.01675
G1 X84.191 Y98.874 E1.58075
G1 X84.191 Y99.407 E.01672
G1 X119.292 Y134.508 E1.5571
G1 X118.758 Y134.508 E.01675
G1 X84.191 Y99.941 E1.53341
G1 X84.191 Y100.474 E.01672
G1 X118.225 Y134.508 E1.50977
G1 X117.691 Y134.508 E.01675
G1 X84.191 Y101.008 E1.48608
G1 X84.191 Y101.541 E.01672
M73 P16 R54
G1 X117.158 Y134.508 E1.46244
G1 X116.624 Y134.508 E.01675
M73 Q15 S56
G1 X84.191 Y102.075 E1.43875
G1 X84.191 Y102.608 E.01672
G1 X116.091 Y134.508 E1.4151
G1 X115.557 Y134.508 E.01675
G1 X84.191 Y103.142 E1.39142
G1 X84.191 Y103.675 E.01672
G1 X115.024 Y134.508 E1.36777
G1 X114.49 Y134.508 E.01675
