; generated by PrusaSlicer 2.9.3 on 2025-11-16 at 18:12:03 UTC


;
;
; 

; external perimeters extrusion width = 0.45mm
; perimeters extrusion width = 0.45mm
; infill extrusion width = 0.45mm
; solid infill extrusion width = 0.45mm
; top infill extrusion width = 0.40mm
; first layer extrusion width = 0.42mm

M73 P0 R64
M73 Q0 S67
M201 X1000 Y1000 Z200 E5000 ; sets maximum accelerations, mm/sec^2
M203 X200 Y200 Z12 E120 ; sets maximum feedrates, mm / sec
M204 S1250 T1250 ; sets acceleration (S) and retract acceleration (R), mm/sec^2
M205 X8.00 Y8.00 Z0.40 E4.50 ; sets the jerk limits, mm/sec
M205 S0 T0 ; sets the minimum extruding and travel feed rate, mm/sec

; printing object raspberry-pi-hq-camera-holder.stl id:0 copy 0
; stop printing object raspberry-pi-hq-camera-holder.stl id:0 copy 0

;TYPE:Custom
M862.3 P "MK3S" ; printer model check
M862.1 P0.4 ; nozzle diameter check
M115 U3.14.1 ; tell printer latest fw version
G90 ; use absolute coordinates
M83 ; extruder relative mode
M104 S215 ; set extruder temp
M140 S60 ; set bed temp
M190 S60 ; wait for bed temp
M109 S215 ; wait for extruder temp
G28 W ; home all without mesh bed level
G80 X80.2647 Y61.2635 W89.4696 H87.473 ; mesh bed levelling

G1 Z0.2 F720
G1 Y-3 F1000 ; go outside print area
G92 E0
G1 X60 E9 F1000 ; intro line
G1 X100 E12.5 F1000 ; intro line
M73 Q0 S66

G92 E0
M221 S95

; Don't change E values below. Excessive value can damage the printer.

M907 E538 ; set extruder motor current
G21 ; set units to millimeters
G90 ; use absolute coordinates
M83 ; use relative distances for extrusion

M900 K0.05 ; Filament gcode LA 1.5
M900 K30 ; Filament gcode LA 1.0




M107
;LAYER_CHANGE
;Z:0.2
;HEIGHT:0.2
G1 E-.8 F2100
G1 Z.6 F720
G1 X81.352 Y62.338 F10800
G1 Z.2 F720
G1 E.8 F2100
M204 S800
;TYPE:Skirt/Brim
;WIDTH:0.42
G1 F1200
G1 X81.774 Y61.989 E.01717
G1 X82.453 Y61.639 E.02395
G1 X83.55 Y61.452 E.03489
G1 X164.96 Y61.491 E2.55255
G1 X165.694 Y61.701 E.02394
G1 X166.352 Y62.087 E.02392
G1 X167.021 Y62.799 E.03063
G1 X167.365 Y63.48 E.02392
G1 X169.479 Y74.169 E.34164
G1 X169.546 Y74.8 E.0199
G1 X169.546 Y135.2 E1.8938
G1 X169.479 Y135.831 E.0199
G1 X167.479 Y146.131 E.32898
G1 X167.286 Y146.72 E.01943
G1 X167.021 Y147.201 E.01722
G1 X166.519 Y147.776 E.02393
G1 X165.694 Y148.299 E.03063
G1 X165.172 Y148.469 E.01721
G1 X164.55 Y148.548 E.01966
G1 X83.55 Y148.548 E2.5397
G1 X82.453 Y148.361 E.03489
G1 X81.775 Y148.011 E.02392
G1 X81.352 Y147.662 E.01719
G1 X80.778 Y146.871 E.03064
G1 X80.576 Y146.361 E.0172
G1 X80.453 Y145.608 E.02392
G1 X80.453 Y64.392 E2.54647
G1 X80.576 Y63.639 E.02392
G1 X80.778 Y63.129 E.0172
G1 X81.317 Y62.387 E.02876
M204 S1000
;WIPE_START
G1 F8640
G1 X81.352 Y62.338 E-.0139
G1 X81.774 Y61.989 E-.12645
G1 X82.453 Y61.639 E-.17639
G1 X83.55 Y61.452 E-.25695
G1 X84.53 Y61.452 E-.22631
;WIPE_END
G1 Z.6 F720
; printing object raspberry-pi-hq-camera-holder.stl id:0 copy 0
G1 X163.523 Y143.973 F10800
G1 Z.2 F720
G1 E.8 F2100
M204 S800
;TYPE:External perimeter
;WIDTH:0.419999
G1 F1200
G1 X163.516 Y143.985 E.00044
G1 X163.161 Y144.379 E.01663
G1 X162.734 Y144.684 E.01645
G1 X162.253 Y144.893 E.01644
;WIDTH:0.453728
G1 X161.996 Y144.963 E.0091
;WIDTH:0.487456
G1 X161.739 Y145.032 E.00984
;WIDTH:0.492366
G1 X161.207 Y145.03 E.01988
G1 X160.954 Y144.956 E.00985
;WIDTH:0.456183
G1 X160.702 Y144.881 E.00903
;WIDTH:0.419999
G1 X160.224 Y144.664 E.01646
G1 X159.802 Y144.352 E.01646
G1 X159.454 Y143.96 E.01644
G1 X159.195 Y143.503 E.01647
;WIDTH:0.464365
G1 X159.095 Y143.263 E.00911
;WIDTH:0.50873
G1 X158.995 Y143.023 E.01007
G1 X158.956 Y142.523 E.01942
;WIDTH:0.506497
G1 X158.994 Y141.993 E.02048
G1 X159.094 Y141.745 E.01031
;WIDTH:0.463248
G1 X159.195 Y141.497 E.00936
;WIDTH:0.419999
G1 X159.454 Y141.041 E.01644
G1 X159.802 Y140.648 E.01646
G1 X160.224 Y140.336 E.01646
G1 X160.702 Y140.119 E.01646
G1 X161.214 Y140.006 E.01644
G1 X161.739 Y140.002 E.01646
G1 X162.253 Y140.107 E.01645
G1 X162.734 Y140.316 E.01644
G1 X163.161 Y140.621 E.01645
G1 X163.515 Y141.009 E.01647
G1 X163.781 Y141.461 E.01644
;WIDTH:0.453184
G1 X163.88 Y141.705 E.00898
;WIDTH:0.486368
G1 X163.979 Y141.949 E.00971
G1 X164.037 Y142.477 E.01959
;WIDTH:0.508166
G1 X163.999 Y143.007 E.02056
G1 X163.898 Y143.255 E.01036
;WIDTH:0.464083
G1 X163.797 Y143.503 E.00938
;WIDTH:0.419999
G1 X163.554 Y143.921 E.01516
M204 S1000
;WIPE_START
G1 F8640
G1 X163.523 Y143.973 E-.01398
G1 X163.516 Y143.985 E-.00321
G1 X163.161 Y144.379 E-.12246
G1 X162.734 Y144.684 E-.12116
G1 X162.253 Y144.893 E-.1211
G1 X161.996 Y144.963 E-.0615
G1 X161.739 Y145.032 E-.06144
G1 X161.207 Y145.03 E-.12284
G1 X160.954 Y144.956 E-.06087
G1 X160.702 Y144.881 E-.06071
G1 X160.502 Y144.79 E-.05073
;WIPE_END
G1 Z.6 F720
G1 X163.525 Y66.026 F10800
G1 Z.2 F720
G1 E.8 F2100
M204 S800
G1 F1200
G1 X163.781 Y66.461 E.01583
;WIDTH:0.453184
G1 X163.88 Y66.705 E.00898
;WIDTH:0.486368
G1 X163.979 Y66.949 E.00971
G1 X164.037 Y67.477 E.01959
;WIDTH:0.508166
G1 X163.999 Y68.007 E.02056
;WIDTH:0.510406
G1 X163.998 Y68.023 E.00062
G1 X163.898 Y68.263 E.01011
;WIDTH:0.465203
G1 X163.797 Y68.503 E.00914
;WIDTH:0.419999
G1 X163.538 Y68.959 E.01644
G1 X163.19 Y69.352 E.01646
G1 X162.768 Y69.664 E.01646
G1 X162.29 Y69.881 E.01646
G1 X161.778 Y69.994 E.01644
G1 X161.253 Y69.998 E.01646
G1 X160.739 Y69.893 E.01645
G1 X160.258 Y69.684 E.01644
G1 X159.831 Y69.379 E.01645
G1 X159.477 Y68.991 E.01647
G1 X159.211 Y68.539 E.01644
;WIDTH:0.456994
G1 X159.11 Y68.296 E.00906
;WIDTH:0.493988
G1 X159.01 Y68.053 E.00986
G1 X158.956 Y67.523 E.01998
;WIDTH:0.506497
G1 X158.994 Y66.993 E.02048
G1 X159.094 Y66.745 E.01031
;WIDTH:0.463248
G1 X159.195 Y66.497 E.00936
;WIDTH:0.419999
G1 X159.454 Y66.041 E.01644
G1 X159.802 Y65.648 E.01646
G1 X160.224 Y65.336 E.01646
G1 X160.702 Y65.119 E.01646
;WIDTH:0.453984
G1 X160.954 Y65.046 E.00897
;WIDTH:0.487969
G1 X161.207 Y64.972 E.00975
G1 X161.739 Y64.968 E.01969
;WIDTH:0.487457
G1 X161.996 Y65.037 E.00984
;WIDTH:0.453728
G1 X162.253 Y65.107 E.0091
;WIDTH:0.419999
G1 X162.734 Y65.316 E.01644
G1 X163.161 Y65.621 E.01645
G1 X163.488 Y65.979 E.0152
M204 S1000
;WIPE_START
G1 F8640
G1 X163.525 Y66.026 E-.01381
G1 X163.781 Y66.461 E-.11655
G1 X163.88 Y66.705 E-.0608
G1 X163.979 Y66.949 E-.0608
G1 X164.037 Y67.477 E-.12265
G1 X163.999 Y68.007 E-.12269
G1 X163.998 Y68.023 E-.0037
G1 X163.898 Y68.263 E-.06003
G1 X163.797 Y68.503 E-.06012
G1 X163.538 Y68.959 E-.12109
G1 X163.372 Y69.146 E-.05776
;WIPE_END
G1 Z.6 F720
G1 X89.036 Y67.5 F10800
G1 Z.2 F720
G1 E.8 F2100
M204 S800
;WIDTH:0.508166
G1 F1200
G1 X88.999 Y68.007 E.01967
G1 X88.898 Y68.255 E.01036
;WIDTH:0.464083
G1 X88.797 Y68.503 E.00938
;WIDTH:0.419999
G1 X88.538 Y68.96 E.01647
G1 X88.19 Y69.352 E.01644
G1 X87.768 Y69.664 E.01646
G1 X87.29 Y69.881 E.01646
G1 X86.778 Y69.994 E.01644
G1 X86.253 Y69.998 E.01646
G1 X85.739 Y69.893 E.01645
G1 X85.258 Y69.684 E.01644
G1 X84.831 Y69.379 E.01645
G1 X84.46 Y68.962 E.0175
G1 X84.195 Y68.503 E.01662
;WIDTH:0.464364
G1 X84.095 Y68.263 E.00911
;WIDTH:0.508729
G1 X83.995 Y68.023 E.01007
G1 X83.956 Y67.523 E.01942
;WIDTH:0.506497
G1 X83.994 Y66.993 E.02048
G1 X84.094 Y66.745 E.01031
;WIDTH:0.463248
G1 X84.195 Y66.497 E.00936
;WIDTH:0.419999
G1 X84.454 Y66.041 E.01644
G1 X84.802 Y65.648 E.01646
G1 X85.224 Y65.336 E.01646
G1 X85.702 Y65.119 E.01646
;WIDTH:0.45343
G1 X85.954 Y65.046 E.00896
;WIDTH:0.48686
G1 X86.207 Y64.973 E.00972
G1 X86.739 Y64.968 E.01964
;WIDTH:0.486174
G1 X86.996 Y65.037 E.00981
;WIDTH:0.453087
G1 X87.253 Y65.107 E.00908
;WIDTH:0.419999
G1 X87.734 Y65.316 E.01644
G1 X88.161 Y65.621 E.01645
G1 X88.515 Y66.009 E.01647
G1 X88.781 Y66.461 E.01644
;WIDTH:0.453185
G1 X88.88 Y66.705 E.00898
;WIDTH:0.48637
G1 X88.979 Y66.949 E.00971
G1 X89.033 Y67.44 E.01821
M204 S1000
;WIPE_START
G1 F8640
G1 X89.036 Y67.5 E-.01387
G1 X88.999 Y68.007 E-.11738
G1 X88.898 Y68.255 E-.06183
G1 X88.797 Y68.503 E-.06183
G1 X88.538 Y68.96 E-.12129
G1 X88.19 Y69.352 E-.12104
G1 X87.768 Y69.664 E-.12118
G1 X87.29 Y69.881 E-.12121
G1 X87.035 Y69.938 E-.06037
;WIPE_END
G1 Z.6 F720
G1 X87.75 Y144.672 F10800
G1 Z.2 F720
G1 E.8 F2100
M204 S800
;WIDTH:0.419999
G1 F1200
G1 X87.29 Y144.881 E.01584
;WIDTH:0.453984
G1 X87.038 Y144.954 E.00897
;WIDTH:0.487968
G1 X86.785 Y145.028 E.00975
G1 X86.253 Y145.032 E.01969
;WIDTH:0.487456
G1 X85.996 Y144.963 E.00984
;WIDTH:0.453728
G1 X85.739 Y144.893 E.0091
;WIDTH:0.419999
G1 X85.258 Y144.684 E.01644
G1 X84.831 Y144.379 E.01645
G1 X84.46 Y143.962 E.0175
G1 X84.195 Y143.503 E.01662
;WIDTH:0.464364
G1 X84.095 Y143.263 E.00911
;WIDTH:0.508729
G1 X83.995 Y143.023 E.01007
G1 X83.956 Y142.523 E.01942
;WIDTH:0.506497
G1 X83.994 Y141.993 E.02048
G1 X84.094 Y141.745 E.01031
;WIDTH:0.463248
G1 X84.195 Y141.497 E.00936
;WIDTH:0.419999
G1 X84.454 Y141.041 E.01644
G1 X84.802 Y140.648 E.01646
G1 X85.224 Y140.336 E.01646
G1 X85.702 Y140.119 E.01646
G1 X86.214 Y140.006 E.01644
G1 X86.739 Y140.002 E.01646
G1 X87.253 Y140.107 E.01645
G1 X87.734 Y140.316 E.01644
G1 X88.161 Y140.621 E.01645
G1 X88.515 Y141.009 E.01647
G1 X88.781 Y141.461 E.01644
;WIDTH:0.453184
G1 X88.88 Y141.705 E.00898
;WIDTH:0.486369
G1 X88.979 Y141.949 E.00971
G1 X89.037 Y142.477 E.01959
;WIDTH:0.508165
G1 X88.999 Y143.007 E.02056
G1 X88.898 Y143.255 E.01036
;WIDTH:0.464082
G1 X88.797 Y143.503 E.00938
;WIDTH:0.419999
G1 X88.538 Y143.96 E.01647
G1 X88.19 Y144.352 E.01644
G1 X87.8 Y144.64 E.0152
M204 S1000
;WIPE_START
G1 F8640
G1 X87.75 Y144.672 E-.01371
G1 X87.29 Y144.881 E-.11666
G1 X87.038 Y144.954 E-.06058
G1 X86.785 Y145.028 E-.06087
G1 X86.253 Y145.032 E-.12284
G1 X85.996 Y144.963 E-.06144
G1 X85.739 Y144.893 E-.0615
G1 X85.258 Y144.684 E-.1211
G1 X84.831 Y144.379 E-.12116
G1 X84.658 Y144.185 E-.06014
;WIPE_END
G1 Z.6 F720
G1 X163.888 Y144.238 F10800
G1 Z.2 F720
G1 E.8 F2100
M204 S800
;TYPE:Perimeter
;WIDTH:0.581396
G1 F1200
G1 X164.05 Y143.983 E.01353
G1 X164.05 Y145.053 E.04791
G1 X163.006 Y145.053 E.04674
G1 X163.43 Y144.749 E.02336
G1 X163.834 Y144.321 E.02635
G1 X163.855 Y144.288 E.00175
M204 S1000
;WIPE_START
G1 F8640
G1 X163.888 Y144.238 E-.01383
G1 X164.05 Y143.983 E-.06976
G1 X164.05 Y145.053 E-.24707
G1 X163.006 Y145.053 E-.24106
G1 X163.43 Y144.749 E-.12047
G1 X163.751 Y144.409 E-.10781
;WIPE_END
G1 Z.6 F720
G1 X159.988 Y145.053 F10800
G1 Z.2 F720
G1 E.8 F2100
M204 S800
;WIDTH:0.58037
G1 F1200
G1 X158.945 Y145.053 E.04661
G1 X158.945 Y143.994 E.04733
G1 X159.137 Y144.297 E.01603
G1 X159.562 Y144.749 E.02773
G1 X159.94 Y145.018 E.02073
M204 S1000
;WIPE_START
G1 F8640
G1 X159.988 Y145.053 E-.01372
G1 X158.945 Y145.053 E-.24083
G1 X158.945 Y143.994 E-.24453
G1 X159.137 Y144.297 E-.08283
G1 X159.562 Y144.749 E-.14326
G1 X159.826 Y144.937 E-.07483
;WIPE_END
G1 Z.6 F720
G1 X88.006 Y145.053 F10800
G1 Z.2 F720
G1 E.8 F2100
M204 S800
;WIDTH:0.581396
G1 F1200
G1 X88.43 Y144.749 E.02336
G1 X88.855 Y144.298 E.02775
G1 X89.05 Y143.99 E.01632
G1 X89.05 Y145.053 E.0476
G1 X88.066 Y145.053 E.04406
M204 S1000
;WIPE_START
G1 F8640
G1 X88.006 Y145.053 E-.01385
G1 X88.43 Y144.749 E-.12047
G1 X88.855 Y144.298 E-.14309
G1 X89.05 Y143.99 E-.08417
G1 X89.05 Y145.053 E-.24545
G1 X88.214 Y145.053 E-.19297
;WIPE_END
G1 Z.6 F720
G1 X84.988 Y145.053 F10800
G1 Z.2 F720
G1 E.8 F2100
M204 S800
;WIDTH:0.58071
G1 F1200
G1 X83.945 Y145.053 E.04664
G1 X83.945 Y143.994 E.04736
G1 X84.116 Y144.264 E.01429
G1 X84.562 Y144.749 E.02946
G1 X84.939 Y145.018 E.02071
M204 S1000
;WIPE_START
G1 F8640
G1 X84.988 Y145.053 E-.0139
G1 X83.945 Y145.053 E-.24083
G1 X83.945 Y143.994 E-.24453
G1 X84.116 Y144.264 E-.0738
G1 X84.562 Y144.749 E-.15214
G1 X84.826 Y144.937 E-.0748
;WIPE_END
G1 Z.6 F720
G1 X84.987 Y64.948 F10800
G1 Z.2 F720
G1 E.8 F2100
M204 S800
;WIDTH:0.580219
G1 F1200
G1 X84.562 Y65.251 E.02332
G1 X84.137 Y65.703 E.02772
G1 X83.945 Y66.007 E.01606
G1 X83.945 Y64.947 E.04736
G1 X84.927 Y64.948 E.04387
M204 S1000
;WIPE_START
G1 F8640
G1 X84.987 Y64.948 E-.01385
G1 X84.562 Y65.251 E-.12052
G1 X84.137 Y65.703 E-.14326
G1 X83.945 Y66.007 E-.08302
G1 X83.945 Y64.947 E-.24476
G1 X84.787 Y64.948 E-.19459
;WIPE_END
G1 Z.6 F720
G1 X89.05 Y66.013 F10800
G1 Z.2 F720
G1 E.8 F2100
M204 S800
;WIDTH:0.580231
G1 F1200
G1 X88.855 Y65.703 E.01636
G1 X88.43 Y65.251 E.02772
G1 X88.01 Y64.95 E.02309
G1 X89.05 Y64.951 E.04646
G1 X89.05 Y65.953 E.04477
M204 S1000
;WIPE_START
G1 F8640
G1 X89.05 Y66.013 E-.01385
G1 X88.855 Y65.703 E-.08456
G1 X88.43 Y65.251 E-.14326
G1 X88.01 Y64.95 E-.11931
G1 X89.05 Y64.951 E-.24014
G1 X89.05 Y65.812 E-.19888
;WIPE_END
G1 Z.6 F720
G1 X159.988 Y64.947 F10800
G1 Z.2 F720
G1 E.8 F2100
M204 S800
;WIDTH:0.58037
G1 F1200
G1 X159.562 Y65.251 E.02339
G1 X159.137 Y65.703 E.02773
G1 X158.945 Y66.006 E.01603
G1 X158.945 Y64.947 E.04733
G1 X159.928 Y64.947 E.04393
M204 S1000
;WIPE_START
G1 F8640
G1 X159.988 Y64.947 E-.01385
G1 X159.562 Y65.251 E-.12084
G1 X159.137 Y65.703 E-.14326
G1 X158.945 Y66.006 E-.08283
G1 X158.945 Y64.947 E-.24453
G1 X159.789 Y64.947 E-.19469
;WIPE_END
G1 Z.6 F720
G1 X163.892 Y65.76 F10800
M73 Q1 S66
G1 Z.2 F720
G1 E.8 F2100
M204 S800
;WIDTH:0.581396
G1 F1200
G1 X163.855 Y65.702 E.00308
G1 X163.43 Y65.251 E.02775
G1 X163.006 Y64.947 E.02336
G1 X164.05 Y64.947 E.04674
G1 X164.05 Y66.01 E.0476
G1 X163.924 Y65.81 E.01058
M204 S1000
;WIPE_START
G1 F8640
G1 X163.892 Y65.76 E-.01371
G1 X163.855 Y65.702 E-.01589
G1 X163.43 Y65.251 E-.14309
G1 X163.006 Y64.947 E-.12047
G1 X164.05 Y64.947 E-.24106
G1 X164.05 Y66.01 E-.24545
G1 X164.003 Y65.936 E-.02033
;WIPE_END
G1 Z.6 F720
G1 X89.3 Y135.012 F10800
G1 Z.2 F720
M73 P1 R64
G1 E.8 F2100
M204 S800
;WIDTH:0.419999
G1 F1200
G1 X89.197 Y135.133 E.00498
G1 X89.13 Y135.399 E.0086
G1 X89.13 Y141.323 E.18574
G1 X88.795 Y140.756 E.02065
G1 X88.383 Y140.316 E.0189
G1 X87.887 Y139.972 E.01893
G1 X87.331 Y139.738 E.01891
G1 X86.739 Y139.624 E.0189
G1 X86.136 Y139.637 E.01891
M73 P1 R63
G1 X85.548 Y139.774 E.01893
G1 X85.002 Y140.031 E.01892
G1 X84.522 Y140.395 E.01889
G1 X84.127 Y140.852 E.01894
G1 X83.865 Y141.316 E.01671
G1 X83.865 Y68.684 E2.27732
G1 X84.176 Y69.211 E.01919
G1 X84.609 Y69.684 E.02011
G1 X85.105 Y70.028 E.01893
G1 X85.661 Y70.262 E.01891
G1 X86.253 Y70.376 E.0189
G1 X86.856 Y70.363 E.01891
G1 X87.444 Y70.226 E.01893
G1 X87.99 Y69.969 E.01892
G1 X88.471 Y69.605 E.01891
G1 X88.865 Y69.148 E.01892
G1 X89.13 Y68.677 E.01694
G1 X89.139 Y74.699 E.18882
G1 X89.27 Y74.973 E.00952
G1 X89.448 Y75.109 E.00702
G1 X89.696 Y75.167 E.00799
G1 X158.3 Y75.167 E2.15103
G1 X158.427 Y75.152 E.00401
G1 X158.648 Y75.047 E.00767
G1 X158.82 Y74.823 E.00886
G1 X158.865 Y74.601 E.0071
G1 X158.865 Y68.684 E.18552
G1 X159.197 Y69.244 E.02041
G1 X159.609 Y69.684 E.0189
G1 X160.105 Y70.028 E.01893
G1 X160.661 Y70.262 E.01891
G1 X161.253 Y70.376 E.0189
G1 X161.856 Y70.363 E.01891
G1 X162.444 Y70.226 E.01893
G1 X162.99 Y69.969 E.01892
G1 X163.471 Y69.605 E.01891
G1 X163.865 Y69.148 E.01892
G1 X164.13 Y68.677 E.01694
G1 X164.132 Y74.65 E.18728
G1 X164.22 Y74.906 E.00849
G1 X164.421 Y75.095 E.00865
G1 X164.696 Y75.167 E.00891
G1 X166.13 Y75.167 E.04496
G1 X166.13 Y134.833 E1.87078
G1 X164.696 Y134.833 E.04496
G1 X164.531 Y134.858 E.00523
G1 X164.348 Y134.953 E.00646
G1 X164.176 Y135.177 E.00886
G1 X164.13 Y135.399 E.00711
G1 X164.13 Y141.323 E.18574
G1 X163.795 Y140.756 E.02065
G1 X163.383 Y140.316 E.0189
G1 X162.887 Y139.972 E.01893
G1 X162.331 Y139.738 E.01891
G1 X161.739 Y139.624 E.0189
G1 X161.136 Y139.637 E.01891
G1 X160.548 Y139.774 E.01893
G1 X160.002 Y140.031 E.01892
G1 X159.522 Y140.395 E.01889
G1 X159.127 Y140.852 E.01894
G1 X158.865 Y141.316 E.01671
G1 X158.865 Y135.399 E.18552
G1 X158.853 Y135.281 E.00372
G1 X158.776 Y135.094 E.00634
G1 X158.573 Y134.904 E.00872
G1 X158.3 Y134.833 E.00884
G1 X89.621 Y134.838 E2.15338
G1 X89.357 Y134.947 E.00896
G1 X89.339 Y134.967 E.00084
M204 S1000
G1 X89.594 Y135.257 F10800
M204 S800
;TYPE:External perimeter
G1 F1200
G1 X89.554 Y135.275 E.00138
G1 X89.507 Y135.399 E.00416
G1 X89.507 Y141.385 E.18769
;WIDTH:0.464082
G1 X89.485 Y141.676 E.01022
;WIDTH:0.508165
G1 X89.463 Y141.968 E.01133
G1 X89.476 Y142.546 E.02237
;WIDTH:0.510406
G1 X89.462 Y143.064 E.02014
G1 X89.485 Y143.34 E.01077
