; generated by PrusaSlicer 2.9.3 on 2025-11-15 at 13:09:50 UTC


;
;
; 

; external perimeters extrusion width = 0.45mm
; perimeters extrusion width = 0.45mm
; infill extrusion width = 0.45mm
; solid infill extrusion width = 0.45mm
; top infill extrusion width = 0.40mm
; first layer extrusion width = 0.42mm

; external perimeters extrusion width = 0.45mm
; perimeters extrusion width = 0.45mm
; infill extrusion width = 0.45mm
; solid infill extrusion width = 0.45mm
; top infill extrusion width = 0.40mm
; first layer extrusion width = 0.42mm

M73 P0 R124
M73 Q0 S126
M201 X1000 Y1000 Z200 E5000 ; sets maximum accelerations, mm/sec^2
M203 X200 Y200 Z12 E120 ; sets maximum feedrates, mm / sec
M204 S1250 T1250 ; sets acceleration (S) and retract acceleration (R), mm/sec^2
M205 X8.00 Y8.00 Z0.40 E4.50 ; sets the jerk limits, mm/sec
M205 S0 T0 ; sets the minimum extruding and travel feed rate, mm/sec

; printing object dell-poweredge-r620-sff-hdd-tray.stl id:0 copy 0
; stop printing object dell-poweredge-r620-sff-hdd-tray.stl id:0 copy 0
; printing object dell-poweredge-r620-sff-hdd-tray.stl id:1 copy 0
; stop printing object dell-poweredge-r620-sff-hdd-tray.stl id:1 copy 0

;TYPE:Custom
M862.3 P "MK3S" ; printer model check
M862.1 P0.4 ; nozzle diameter check
M115 U3.14.1 ; tell printer latest fw version
G90 ; use absolute coordinates
M83 ; extruder relative mode
M104 S215 ; set extruder temp
M140 S60 ; set bed temp
M190 S60 ; wait for bed temp
M109 S215 ; wait for extruder temp
G28 W ; home all without mesh bed level
G80 X46.0264 Y64.4507 W144.202 H96.9255 ; mesh bed levelling

G1 Z0.2 F720
G1 Y-3 F1000 ; go outside print area
G92 E0
G1 X60 E9 F1000 ; intro line
G1 X100 E12.5 F1000 ; intro line
M73 P0 R123

G92 E0
M221 S95

; Don't change E values below. Excessive value can damage the printer.

M907 E538 ; set extruder motor current
G21 ; set units to millimeters
G90 ; use absolute coordinates
M83 ; use relative distances for extrusion

M900 K0.05 ; Filament gcode LA 1.5
M900 K30 ; Filament gcode LA 1.0




M107
;LAYER_CHANGE
;Z:0.2
;HEIGHT:0.2
G1 E-.8 F2100
G1 Z.6 F720
G1 X59.502 Y65.459 F10800
G1 Z.2 F720
G1 E.8 F2100
M204 S800
;TYPE:Skirt/Brim
;WIDTH:0.42
G1 F1200
G1 X61.209 Y64.639 E.05938
G1 X187.851 Y64.639 E3.97077
G1 X189.099 Y65.03 E.04101
G1 X189.902 Y66.063 E.04102
G1 X190.04 Y66.828 E.02437
G1 X190.04 Y143.028 E2.3892
G1 X189.559 Y144.397 E.0455
G1 X176.753 Y160.368 E.64186
G1 X175.046 Y161.188 E.05938
G1 X48.403 Y161.188 E3.9708
G1 X47.155 Y160.797 E.04101
G1 X46.353 Y159.764 E.041
G1 X46.215 Y158.999 E.02437
G1 X46.215 Y82.799 E2.3892
G1 X46.696 Y81.43 E.0455
G1 X59.464 Y65.506 E.63996
M204 S1000
;WIPE_START
G1 F8640
G1 X59.502 Y65.459 E-.01396
G1 X61.209 Y64.639 E-.43727
G1 X62.719 Y64.639 E-.34877
;WIPE_END
G1 Z.6 F720
; printing object dell-poweredge-r620-sff-hdd-tray.stl id:0 copy 0
G1 X153.899 Y142.241 F10800
G1 Z.2 F720
G1 E.8 F2100
M204 S800
;TYPE:Perimeter
;WIDTH:0.419999
G1 F1200
G1 X153.851 Y140.832 E.0442
G1 X153.705 Y140.687 E.00645
G1 X154.554 Y140.714 E.02663
G1 X185.593 Y140.715 E.9732
G1 X185.994 Y140.602 E.01306
;WIDTH:0.46859
G1 X186.09 Y140.488 E.00528
;WIDTH:0.51718
G1 X186.187 Y140.374 E.0059
;WIDTH:0.56577
G1 X186.283 Y140.26 E.00648
G1 X186.308 Y140.434 E.00764
;WIDTH:0.51718
G1 X186.332 Y140.609 E.00697
;WIDTH:0.46859
G1 X186.356 Y140.783 E.00622
;WIDTH:0.419999
G1 X186.356 Y142.241 E.04571
G1 X153.959 Y142.241 E1.01578
M204 S1000
;WIPE_START
G1 F8640
G1 X153.899 Y142.241 E-.01385
G1 X153.851 Y140.832 E-.32553
G1 X153.705 Y140.687 E-.04751
G1 X154.554 Y140.714 E-.19614
G1 X155.494 Y140.714 E-.21697
;WIPE_END
G1 Z.6 F720
G1 X73.752 Y69.169 F10800
G1 Z.2 F720
G1 E.8 F2100
M204 S800
G1 F1200
G1 X72.874 Y69.141 E.02754
G1 X62.704 Y69.141 E.31887
G1 X62.704 Y67.615 E.04785
G1 X73.566 Y67.615 E.34057
G1 X73.576 Y68.357 E.02327
G1 X73.61 Y69.029 E.0211
G1 X73.709 Y69.127 E.00437
M204 S1000
;WIPE_START
G1 F8640
G1 X73.752 Y69.169 E-.01388
G1 X72.874 Y69.141 E-.20284
G1 X70.348 Y69.141 E-.58328
;WIPE_END
G1 Z.6 F720
G1 X77.162 Y69.156 F10800
G1 Z.2 F720
G1 E.8 F2100
M204 S800
G1 F1200
G1 X77.251 Y69.023 E.00502
G1 X77.299 Y67.615 E.04417
G1 X150.161 Y67.615 E2.28453
G1 X150.209 Y69.01 E.04377
G1 X150.337 Y69.158 E.00614
G1 X149.079 Y69.141 E.03945
G1 X78.352 Y69.141 E2.21759
G1 X77.222 Y69.155 E.03543
M204 S1000
;WIPE_START
G1 F8640
G1 X77.162 Y69.156 E-.01386
G1 X77.251 Y69.023 E-.03695
G1 X77.299 Y67.615 E-.3253
G1 X79.135 Y67.615 E-.42389
;WIPE_END
G1 Z.6 F720
G1 X153.787 Y69.155 F10800
G1 Z.2 F720
G1 E.8 F2100
M204 S800
G1 F1200
G1 X153.851 Y69.023 E.0046
G1 X153.899 Y67.615 E.04417
G1 X186.356 Y67.615 E1.01766
G1 X186.356 Y68.378 E.02392
G1 X186.356 Y69.073 E.02179
;WIDTH:0.465389
G1 X186.334 Y69.284 E.00745
;WIDTH:0.510779
G1 X186.311 Y69.495 E.00826
;WIDTH:0.556168
G1 X186.288 Y69.706 E.00906
G1 X186.19 Y69.556 E.00765
;WIDTH:0.510779
G1 X186.092 Y69.405 E.007
;WIDTH:0.465389
G1 X185.994 Y69.254 E.00632
;WIDTH:0.419999
G1 X185.655 Y69.141 E.0112
G1 X154.641 Y69.141 E.97242
G1 X153.847 Y69.154 E.0249
M73 Q0 S125
M204 S1000
;WIPE_START
G1 F8640
G1 X153.787 Y69.155 E-.01386
G1 X153.851 Y69.023 E-.03387
G1 X153.899 Y67.615 E-.3253
G1 X155.748 Y67.615 E-.42697
;WIPE_END
G1 Z.6 F720
G1 X186.283 Y140.26 F10800
G1 Z.2 F720
G1 E.8 F2100
M204 S800
;WIDTH:0.56577
G1 F1200
G1 X186.288 Y140.149 E.00483
;WIDTH:0.556168
G1 X186.288 Y69.706 E3.00628
M204 S1000
;WIPE_START
G1 F8640
G1 X186.288 Y73.171 E-.8
;WIPE_END
G1 Z.6 F720
G1 X126.06 Y140.715 F10800
G1 Z.2 F720
G1 E.8 F2100
M204 S800
;WIDTH:0.419999
G1 F1200
G1 X149.076 Y140.715 E.72165
G1 X150.316 Y140.699 E.03888
G1 X150.209 Y140.832 E.00535
G1 X150.161 Y142.241 E.0442
G1 X62.704 Y142.241 E2.74215
G1 X62.704 Y140.715 E.04785
G1 X126 Y140.715 E1.9846
M204 S1000
;WIPE_START
G1 F8640
M73 P0 R122
G1 X126.06 Y140.715 E-.01385
G1 X129.465 Y140.715 E-.78615
;WIPE_END
G1 Z.6 F720
G1 X76.792 Y69.105 F10800
G1 Z.2 F720
G1 E.8 F2100
M204 S800
;TYPE:External perimeter
;WIDTH:0.42
G1 F1200
G1 X76.874 Y69.008 E.00398
G1 X76.921 Y67.829 E.037
G1 X76.923 Y67.238 E.01853
G1 X150.537 Y67.238 E2.30812
G1 X150.539 Y67.836 E.01875
G1 X150.585 Y68.995 E.03637
G1 X150.766 Y69.186 E.00825
G1 X153.286 Y69.186 E.07901
;WIDTH:0.417193
G1 X153.4 Y69.149 E.00373
;WIDTH:0.419999
G1 X153.474 Y69.008 E.00499
G1 X153.521 Y67.829 E.037
G1 X153.523 Y67.238 E.01853
G1 X186.733 Y67.238 E1.04127
G1 X186.733 Y68.378 E.03574
;WIDTH:0.42
G1 X186.733 Y142.618 E2.32775
G1 X153.523 Y142.618 E1.04128
G1 X153.521 Y142.02 E.01875
M73 P1 R122
M73 Q1 S125
G1 X153.474 Y140.847 E.03681
G1 X153.292 Y140.668 E.008
G1 X153.053 Y140.666 E.00749
G1 X150.766 Y140.67 E.07171
G1 X150.586 Y140.844 E.00785
G1 X150.539 Y142.027 E.03712
G1 X150.537 Y142.618 E.01853
G1 X62.327 Y142.618 E2.76577
G1 X62.327 Y140.338 E.07149
G1 X149.076 Y140.338 E2.71996
G1 X150.08 Y140.331 E.03148
G1 X151.072 Y140.289 E.03113
G1 X153.053 Y140.289 E.06211
G1 X154.554 Y140.337 E.04709
G1 X185.593 Y140.338 E.97321
G1 X185.768 Y140.3 E.00561
G1 X185.843 Y140.149 E.00529
G1 X185.843 Y69.706 E2.20869
G1 X185.768 Y69.556 E.00526
G1 X185.655 Y69.518 E.00374
G1 X154.55 Y69.518 E.97528
G1 X153.554 Y69.537 E.03123
G1 X153.053 Y69.566 E.01573
G1 X151.076 Y69.566 E.06199
G1 X150.073 Y69.524 E.03148
G1 X149.077 Y69.518 E.03123
G1 X78.352 Y69.518 E2.21753
G1 X77.348 Y69.526 E.03148
G1 X76.356 Y69.566 E.03113
G1 X74.375 Y69.566 E.06211
G1 X72.874 Y69.518 E.04709
G1 X62.327 Y69.518 E.33069
G1 X62.327 Y67.238 E.07149
G1 X73.939 Y67.238 E.36409
G1 X73.953 Y68.336 E.03443
G1 X73.986 Y69.01 E.02116
G1 X74.168 Y69.187 E.00796
G1 X74.375 Y69.189 E.00649
G1 X76.726 Y69.183 E.07371
G1 X76.753 Y69.151 E.00131
M204 S1000
;WIPE_START
G1 F8640
G1 X76.792 Y69.105 E-.01393
G1 X76.874 Y69.008 E-.02933
G1 X76.921 Y67.829 E-.27245
G1 X76.923 Y67.238 E-.13646
G1 X78.429 Y67.238 E-.34783
;WIPE_END
G1 Z.6 F720
G1 X73.424 Y68.577 F10800
G1 Z.2 F720
G1 E.8 F2100
M204 S800
;TYPE:Solid infill
;WIDTH:0.421745
G1 F1200
G1 X72.802 Y67.954 E.02773
G1 X72.266 Y67.954 E.01688
G1 X73.121 Y68.809 E.03809
G1 X72.577 Y68.802 E.01714
G1 X71.73 Y67.954 E.03775
G1 X71.194 Y67.954 E.01688
G1 X72.042 Y68.802 E.03778
G1 X71.506 Y68.802 E.01688
G1 X70.659 Y67.954 E.03775
G1 X70.123 Y67.954 E.01688
G1 X70.97 Y68.801 E.03773
G1 X70.434 Y68.801 E.01688
G1 X69.587 Y67.954 E.03773
G1 X69.051 Y67.954 E.01688
G1 X69.899 Y68.801 E.03775
G1 X69.363 Y68.801 E.01688
G1 X68.516 Y67.954 E.03773
G1 X67.98 Y67.954 E.01688
G1 X68.827 Y68.801 E.03773
G1 X68.291 Y68.801 E.01688
G1 X67.444 Y67.954 E.03773
G1 X66.908 Y67.954 E.01688
G1 X67.756 Y68.801 E.03775
G1 X67.22 Y68.801 E.01688
G1 X66.373 Y67.954 E.03773
G1 X65.837 Y67.954 E.01688
G1 X66.684 Y68.801 E.03773
G1 X66.148 Y68.801 E.01688
G1 X65.301 Y67.954 E.03773
G1 X64.766 Y67.954 E.01685
G1 X65.613 Y68.801 E.03773
G1 X65.077 Y68.801 E.01688
G1 X64.23 Y67.954 E.03773
G1 X63.694 Y67.954 E.01688
G1 X64.541 Y68.801 E.03773
G1 X64.005 Y68.801 E.01688
G1 X63.158 Y67.954 E.03773
G1 X63.043 Y67.954 E.00362
G1 X63.043 Y68.375 E.01326
G1 X63.639 Y68.971 E.02655
M204 S1000
;WIPE_START
G1 F8640
G1 X63.043 Y68.375 E-.19462
G1 X63.043 Y67.954 E-.09721
G1 X63.158 Y67.954 E-.02655
G1 X64.005 Y68.801 E-.27658
G1 X64.541 Y68.801 E-.12376
G1 X64.292 Y68.552 E-.08128
;WIPE_END
G1 Z.6 F720
G1 X150.022 Y68.581 F10800
G1 Z.2 F720
G1 E.8 F2100
M204 S800
;WIDTH:0.421261
G1 F1200
G1 X149.395 Y67.954 E.0279
G1 X148.86 Y67.954 E.01683
G1 X149.714 Y68.808 E.03799
G1 X149.179 Y68.808 E.01683
G1 X148.325 Y67.954 E.03799
G1 X147.79 Y67.954 E.01683
G1 X148.644 Y68.808 E.03799
G1 X148.109 Y68.808 E.01683
G1 X147.255 Y67.954 E.03799
G1 X146.72 Y67.954 E.01683
G1 X147.574 Y68.808 E.03799
G1 X147.038 Y68.808 E.01686
G1 X146.185 Y67.954 E.03797
G1 X145.65 Y67.954 E.01683
G1 X146.503 Y68.808 E.03797
G1 X145.968 Y68.808 E.01683
G1 X145.115 Y67.954 E.03797
G1 X144.58 Y67.954 E.01683
G1 X145.433 Y68.808 E.03797
G1 X144.898 Y68.808 E.01683
G1 X144.045 Y67.954 E.03797
G1 X143.51 Y67.954 E.01683
G1 X144.363 Y68.808 E.03797
G1 X143.828 Y68.808 E.01683
G1 X142.975 Y67.954 E.03797
G1 X142.44 Y67.954 E.01683
G1 X143.293 Y68.808 E.03797
G1 X142.758 Y68.808 E.01683
G1 X141.905 Y67.954 E.03797
G1 X141.37 Y67.954 E.01683
G1 X142.223 Y68.808 E.03797
G1 X141.688 Y68.808 E.01683
G1 X140.835 Y67.954 E.03797
G1 X140.3 Y67.954 E.01683
G1 X141.153 Y68.808 E.03797
G1 X140.618 Y68.808 E.01683
G1 X139.764 Y67.954 E.03799
G1 X139.229 Y67.954 E.01683
G1 X140.083 Y68.808 E.03799
G1 X139.548 Y68.808 E.01683
G1 X138.694 Y67.954 E.03799
G1 X138.159 Y67.954 E.01683
G1 X139.013 Y68.808 E.03799
G1 X138.478 Y68.808 E.01683
G1 X137.624 Y67.954 E.03799
G1 X137.089 Y67.954 E.01683
G1 X137.943 Y68.808 E.03799
G1 X137.408 Y68.808 E.01683
G1 X136.554 Y67.954 E.03799
G1 X136.019 Y67.954 E.01683
G1 X136.873 Y68.808 E.03799
G1 X136.337 Y68.808 E.01686
G1 X135.484 Y67.954 E.03797
G1 X134.949 Y67.954 E.01683
G1 X135.802 Y68.808 E.03797
G1 X135.267 Y68.808 E.01683
G1 X134.414 Y67.954 E.03797
G1 X133.879 Y67.954 E.01683
G1 X134.732 Y68.808 E.03797
G1 X134.197 Y68.808 E.01683
G1 X133.344 Y67.954 E.03797
G1 X132.809 Y67.954 E.01683
G1 X133.662 Y68.808 E.03797
G1 X133.127 Y68.808 E.01683
G1 X132.274 Y67.954 E.03797
G1 X131.739 Y67.954 E.01683
G1 X132.592 Y68.808 E.03797
G1 X132.057 Y68.808 E.01683
G1 X131.204 Y67.954 E.03797
G1 X130.669 Y67.954 E.01683
G1 X131.522 Y68.808 E.03797
G1 X130.987 Y68.808 E.01683
G1 X130.134 Y67.954 E.03797
G1 X129.598 Y67.954 E.01686
G1 X130.452 Y68.808 E.03799
G1 X129.917 Y68.808 E.01683
G1 X129.063 Y67.954 E.03799
G1 X128.528 Y67.954 E.01683
G1 X129.382 Y68.808 E.03799
G1 X128.847 Y68.808 E.01683
G1 X127.993 Y67.954 E.03799
G1 X127.458 Y67.954 E.01683
G1 X128.312 Y68.808 E.03799
G1 X127.777 Y68.808 E.01683
G1 X126.923 Y67.954 E.03799
G1 X126.388 Y67.954 E.01683
G1 X127.242 Y68.808 E.03799
G1 X126.707 Y68.808 E.01683
G1 X125.853 Y67.954 E.03799
G1 X125.318 Y67.954 E.01683
G1 X126.172 Y68.808 E.03799
G1 X125.637 Y68.808 E.01683
G1 X124.783 Y67.954 E.03799
G1 X124.248 Y67.954 E.01683
G1 X125.101 Y68.808 E.03797
G1 X124.566 Y68.808 E.01683
G1 X123.713 Y67.954 E.03797
G1 X123.178 Y67.954 E.01683
G1 X124.031 Y68.808 E.03797
G1 X123.496 Y68.808 E.01683
G1 X122.643 Y67.954 E.03797
G1 X122.108 Y67.954 E.01683
G1 X122.961 Y68.808 E.03797
G1 X122.426 Y68.808 E.01683
G1 X121.573 Y67.954 E.03797
G1 X121.038 Y67.954 E.01683
G1 X121.891 Y68.808 E.03797
G1 X121.356 Y68.808 E.01683
G1 X120.503 Y67.954 E.03797
G1 X119.967 Y67.954 E.01686
G1 X120.821 Y68.808 E.03799
G1 X120.286 Y68.808 E.01683
G1 X119.432 Y67.954 E.03799
G1 X118.897 Y67.954 E.01683
G1 X119.751 Y68.808 E.03799
G1 X119.216 Y68.808 E.01683
G1 X118.362 Y67.954 E.03799
G1 X117.827 Y67.954 E.01683
G1 X118.681 Y68.808 E.03799
G1 X118.146 Y68.808 E.01683
G1 X117.292 Y67.954 E.03799
G1 X116.757 Y67.954 E.01683
G1 X117.611 Y68.808 E.03799
G1 X117.076 Y68.808 E.01683
G1 X116.222 Y67.954 E.03799
G1 X115.687 Y67.954 E.01683
G1 X116.541 Y68.808 E.03799
G1 X116.006 Y68.808 E.01683
G1 X115.152 Y67.954 E.03799
M73 Q1 S124
G1 X114.617 Y67.954 E.01683
G1 X115.471 Y68.808 E.03799
G1 X114.936 Y68.808 E.01683
G1 X114.082 Y67.954 E.03799
G1 X113.547 Y67.954 E.01683
G1 X114.4 Y68.808 E.03797
G1 X113.865 Y68.808 E.01683
G1 X113.012 Y67.954 E.03797
G1 X112.477 Y67.954 E.01683
G1 X113.33 Y68.808 E.03797
G1 X112.795 Y68.808 E.01683
G1 X111.942 Y67.954 E.03797
G1 X111.407 Y67.954 E.01683
G1 X112.26 Y68.808 E.03797
G1 X111.725 Y68.808 E.01683
G1 X110.872 Y67.954 E.03797
G1 X110.336 Y67.954 E.01686
G1 X111.19 Y68.808 E.03799
G1 X110.655 Y68.808 E.01683
G1 X109.801 Y67.954 E.03799
G1 X109.266 Y67.954 E.01683
G1 X110.12 Y68.808 E.03799
G1 X109.585 Y68.808 E.01683
G1 X108.731 Y67.954 E.03799
G1 X108.196 Y67.954 E.01683
G1 X109.05 Y68.808 E.03799
G1 X108.515 Y68.808 E.01683
G1 X107.661 Y67.954 E.03799
G1 X107.126 Y67.954 E.01683
G1 X107.98 Y68.808 E.03799
G1 X107.445 Y68.808 E.01683
G1 X106.591 Y67.954 E.03799
G1 X106.056 Y67.954 E.01683
G1 X106.91 Y68.808 E.03799
G1 X106.375 Y68.808 E.01683
G1 X105.521 Y67.954 E.03799
G1 X104.986 Y67.954 E.01683
G1 X105.84 Y68.808 E.03799
G1 X105.305 Y68.808 E.01683
G1 X104.451 Y67.954 E.03799
G1 X103.916 Y67.954 E.01683
G1 X104.77 Y68.808 E.03799
G1 X104.235 Y68.808 E.01683
G1 X103.381 Y67.954 E.03799
G1 X102.846 Y67.954 E.01683
G1 X103.7 Y68.808 E.03799
G1 X103.164 Y68.808 E.01686
G1 X102.311 Y67.954 E.03797
G1 X101.776 Y67.954 E.01683
G1 X102.629 Y68.808 E.03797
G1 X102.094 Y68.808 E.01683
G1 X101.241 Y67.954 E.03797
G1 X100.705 Y67.954 E.01686
G1 X101.559 Y68.808 E.03799
G1 X101.024 Y68.808 E.01683
G1 X100.17 Y67.954 E.03799
G1 X99.635 Y67.954 E.01683
G1 X100.489 Y68.808 E.03799
G1 X99.954 Y68.808 E.01683
G1 X99.1 Y67.954 E.03799
G1 X98.565 Y67.954 E.01683
G1 X99.419 Y68.808 E.03799
G1 X98.884 Y68.808 E.01683
G1 X98.03 Y67.954 E.03799
G1 X97.495 Y67.954 E.01683
G1 X98.349 Y68.808 E.03799
G1 X97.814 Y68.808 E.01683
G1 X96.96 Y67.954 E.03799
G1 X96.425 Y67.954 E.01683
G1 X97.279 Y68.808 E.03799
G1 X96.744 Y68.808 E.01683
G1 X95.89 Y67.954 E.03799
G1 X95.355 Y67.954 E.01683
G1 X96.209 Y68.808 E.03799
G1 X95.674 Y68.808 E.01683
G1 X94.82 Y67.954 E.03799
G1 X94.285 Y67.954 E.01683
G1 X95.139 Y68.808 E.03799
G1 X94.604 Y68.808 E.01683
G1 X93.75 Y67.954 E.03799
G1 X93.215 Y67.954 E.01683
G1 X94.069 Y68.808 E.03799
G1 X93.534 Y68.808 E.01683
G1 X92.68 Y67.954 E.03799
G1 X92.145 Y67.954 E.01683
G1 X92.999 Y68.808 E.03799
G1 X92.463 Y68.808 E.01686
G1 X91.61 Y67.954 E.03797
G1 X91.074 Y67.954 E.01686
G1 X91.928 Y68.808 E.03799
G1 X91.393 Y68.808 E.01683
G1 X90.539 Y67.954 E.03799
G1 X90.004 Y67.954 E.01683
G1 X90.858 Y68.808 E.03799
G1 X90.323 Y68.808 E.01683
G1 X89.469 Y67.954 E.03799
G1 X88.934 Y67.954 E.01683
G1 X89.788 Y68.808 E.03799
G1 X89.253 Y68.808 E.01683
G1 X88.399 Y67.954 E.03799
G1 X87.864 Y67.954 E.01683
G1 X88.718 Y68.808 E.03799
G1 X88.183 Y68.808 E.01683
G1 X87.329 Y67.954 E.03799
G1 X86.794 Y67.954 E.01683
G1 X87.648 Y68.808 E.03799
G1 X87.113 Y68.808 E.01683
G1 X86.259 Y67.954 E.03799
G1 X85.724 Y67.954 E.01683
G1 X86.578 Y68.808 E.03799
G1 X86.043 Y68.808 E.01683
G1 X85.189 Y67.954 E.03799
G1 X84.654 Y67.954 E.01683
