; generated by PrusaSlicer 2.9.3 on 2025-12-01 at 14:01:08 UTC


;
;
; 

; external perimeters extrusion width = 0.45mm
; perimeters extrusion width = 0.45mm
; infill extrusion width = 0.45mm
; solid infill extrusion width = 0.45mm
; top infill extrusion width = 0.40mm
; support material extrusion width = 0.35mm
; first layer extrusion width = 0.42mm

M73 P0 R87
M73 Q0 S88
M201 X1000 Y1000 Z200 E5000 ; sets maximum accelerations, mm/sec^2
M203 X200 Y200 Z12 E120 ; sets maximum feedrates, mm / sec
M204 S1250 T1250 ; sets acceleration (S) and retract acceleration (R), mm/sec^2
M205 X8.00 Y8.00 Z0.40 E4.50 ; sets the jerk limits, mm/sec
M205 S0 T0 ; sets the minimum extruding and travel feed rate, mm/sec

; printing object solar-5v-case.stl id:0 copy 0
; stop printing object solar-5v-case.stl id:0 copy 0

;TYPE:Custom
M862.3 P "MK3S" ; printer model check
M862.1 P0.4 ; nozzle diameter check
M115 U3.14.1 ; tell printer latest fw version
G90 ; use absolute coordinates
M83 ; extruder relative mode
M104 S240 ; set extruder temp
M140 S85 ; set bed temp
M190 S85 ; wait for bed temp
M109 S240 ; wait for extruder temp
G28 W ; home all without mesh bed level
G80 X77.6229 Y76.1229 W98.8392 H57.7542 ; mesh bed levelling

G1 Z0.2 F720
G1 Y-3 F1000 ; go outside print area
G92 E0
G1 X60 E9 F1000 ; intro line
G1 X100 E12.5 F1000 ; intro line

G92 E0
M221 S95

; Don't change E values below. Excessive value can damage the printer.

M907 E538 ; set extruder motor current
G21 ; set units to millimeters
G90 ; use absolute coordinates
M83 ; use relative distances for extrusion

M900 K0.08 ; Filament gcode LA 1.5
M900 K45 ; Filament gcode LA 1.0




M107
;LAYER_CHANGE
;Z:0.2
;HEIGHT:0.2
G1 E-1 F2100
G1 Z.4 F720
G1 X78.202 Y77.252 F10800
G1 Z.2 F720
G1 E1 F2100
M204 S800
;TYPE:Skirt/Brim
;WIDTH:0.42
G1 F1200
G1 X79.235 Y76.449 E.04102
G1 X80 Y76.311 E.02437
G1 X170 Y76.311 E2.82189
G1 X171.248 Y76.702 E.04101
G1 X172.172 Y78.229 E.05596
G1 X176.257 Y111.014 E1.0359
G1 X176.274 Y128.707 E.55475
G1 X175.883 Y129.955 E.04101
G1 X175.32 Y130.514 E.02488
G1 X171.235 Y133.307 E.15516
G1 X170 Y133.689 E.04053
G1 X80 Y133.689 E2.82189
G1 X78.752 Y133.298 E.04101
G1 X77.949 Y132.265 E.04102
G1 X77.811 Y131.5 E.02437
G1 X77.811 Y78.5 E1.66178
G1 X78.184 Y77.309 E.03913
M204 S1000
;WIPE_START
G1 F8640
G1 X78.202 Y77.252 E-.0138
G1 X79.235 Y76.449 E-.30211
G1 X80 Y76.311 E-.17949
G1 X82.185 Y76.311 E-.5046
;WIPE_END
G1 Z.4 F720
; printing object solar-5v-case.stl id:0 copy 0
G1 X174.085 Y128.707 F10800
G1 Z.2 F720
G1 E1 F2100
M204 S800
;TYPE:Support material
G1 F1200
G1 X170.48 Y128.707 E.11303
G1 X170.48 Y111.285 E.54625
G1 X174.085 Y111.285 E.11303
G1 X174.085 Y128.651 E.5445
M204 S1000
G1 X173.601 Y128.537 F10800
M204 S800
G1 F1200
G1 X173.601 Y111.624 E.5303
G1 X173.182 Y111.624 E.01314
G1 X173.182 Y128.368 E.525
G1 X172.763 Y128.368 E.01314
G1 X172.763 Y111.624 E.525
G1 X172.344 Y111.624 E.01314
M73 P0 R86
G1 X172.344 Y128.368 E.525
G1 X171.925 Y128.368 E.01314
G1 X171.925 Y111.624 E.525
G1 X171.506 Y111.624 E.01314
G1 X171.506 Y128.368 E.525
G1 X171.087 Y128.368 E.01314
G1 X171.087 Y111.455 E.5303
M204 S1000
;WIPE_START
G1 F8640
G1 X171.087 Y115.786 E-1
;WIPE_END
G1 Z.4 F720
G1 X169.213 Y109.287 F10800
G1 Z.2 F720
G1 E1 F2100
M204 S800
;TYPE:Perimeter
;WIDTH:0.419999
G1 F1200
G1 X169.213 Y120 E.3359
G1 X169.213 Y130.713 E.3359
G1 X80.787 Y130.713 E2.77253
G1 X80.787 Y109.287 E.6718
G1 X169.153 Y109.287 E2.77065
M204 S1000
G1 X169.59 Y108.91 F10800
M204 S800
;TYPE:External perimeter
G1 F1200
G1 X169.59 Y120 E.34772
G1 X169.59 Y131.09 E.34772
G1 X80.41 Y131.09 E2.79617
G1 X80.41 Y108.91 E.69544
G1 X169.53 Y108.91 E2.79429
M204 S1000
;WIPE_START
G1 F8640
M73 P1 R86
M73 Q1 S88
G1 X169.59 Y108.91 E-.01385
G1 X169.59 Y113.181 E-.98615
;WIPE_END
G1 Z.4 F720
G1 X169.043 Y110.222 F10800
G1 Z.2 F720
G1 E1 F2100
M204 S800
;TYPE:Solid infill
;WIDTH:0.421597
G1 F1200
G1 X168.447 Y109.626 E.02654
G1 X167.912 Y109.626 E.01685
G1 X168.874 Y110.588 E.04284
G1 X168.874 Y111.124 E.01688
G1 X167.376 Y109.626 E.06671
G1 X166.841 Y109.626 E.01685
G1 X168.874 Y111.659 E.09053
G1 X168.874 Y112.195 E.01688
G1 X166.305 Y109.626 E.1144
G1 X165.77 Y109.626 E.01685
G1 X168.874 Y112.73 E.13822
G1 X168.874 Y113.266 E.01688
M73 Q1 S87
G1 X165.234 Y109.626 E.16209
G1 X164.699 Y109.626 E.01685
G1 X168.874 Y113.801 E.18591
G1 X168.874 Y114.337 E.01688
G1 X164.163 Y109.626 E.20978
G1 X163.628 Y109.626 E.01685
G1 X168.874 Y114.872 E.2336
G1 X168.874 Y115.408 E.01688
G1 X163.092 Y109.626 E.25747
G1 X162.556 Y109.626 E.01688
G1 X168.874 Y115.944 E.28134
G1 X168.874 Y116.479 E.01685
G1 X162.021 Y109.626 E.30516
G1 X161.485 Y109.626 E.01688
G1 X168.874 Y117.015 E.32903
G1 X168.874 Y117.55 E.01685
G1 X160.95 Y109.626 E.35285
G1 X160.414 Y109.626 E.01688
G1 X168.874 Y118.086 E.37672
G1 X168.874 Y118.621 E.01685
G1 X159.879 Y109.626 E.40054
G1 X159.343 Y109.626 E.01688
G1 X168.874 Y119.157 E.42441
G1 X168.874 Y119.692 E.01685
G1 X158.808 Y109.626 E.44823
G1 X158.272 Y109.626 E.01688
G1 X168.874 Y120.228 E.4721
G1 X168.874 Y120.763 E.01685
G1 X157.737 Y109.626 E.49593
G1 X157.201 Y109.626 E.01688
G1 X168.874 Y121.299 E.51979
G1 X168.874 Y121.834 E.01685
G1 X156.666 Y109.626 E.54362
G1 X156.13 Y109.626 E.01688
G1 X168.874 Y122.37 E.56748
G1 X168.874 Y122.905 E.01685
G1 X155.595 Y109.626 E.59131
G1 X155.059 Y109.626 E.01688
G1 X168.874 Y123.441 E.61518
G1 X168.874 Y123.977 E.01688
G1 X154.523 Y109.626 E.63904
G1 X153.988 Y109.626 E.01685
G1 X168.874 Y124.512 E.66287
G1 X168.874 Y125.048 E.01688
G1 X153.452 Y109.626 E.68673
G1 X152.917 Y109.626 E.01685
G1 X168.874 Y125.583 E.71056
G1 X168.874 Y126.119 E.01688
G1 X152.381 Y109.626 E.73443
G1 X151.846 Y109.626 E.01685
G1 X168.874 Y126.654 E.75825
G1 X168.874 Y127.19 E.01688
G1 X151.31 Y109.626 E.78212
G1 X150.775 Y109.626 E.01685
G1 X168.874 Y127.725 E.80594
G1 X168.874 Y128.261 E.01688
G1 X150.239 Y109.626 E.82981
G1 X149.704 Y109.626 E.01685
G1 X168.874 Y128.796 E.85363
G1 X168.874 Y129.332 E.01688
G1 X149.168 Y109.626 E.8775
G1 X148.633 Y109.626 E.01685
G1 X168.874 Y129.867 E.90132
G1 X168.874 Y130.374 E.01596
G1 X168.844 Y130.374 E.00094
G1 X148.097 Y109.626 E.92388
G1 X147.562 Y109.626 E.01685
G1 X168.309 Y130.374 E.92388
G1 X167.773 Y130.374 E.01688
G1 X147.026 Y109.626 E.92388
G1 X146.491 Y109.626 E.01685
M73 P1 R85
G1 X167.238 Y130.374 E.92388
G1 X166.702 Y130.374 E.01688
G1 X145.955 Y109.626 E.92388
G1 X145.419 Y109.626 E.01688
G1 X166.167 Y130.374 E.9239
G1 X165.631 Y130.374 E.01688
G1 X144.884 Y109.626 E.92388
G1 X144.348 Y109.626 E.01688
G1 X165.096 Y130.374 E.9239
G1 X164.56 Y130.374 E.01688
G1 X143.813 Y109.626 E.92388
G1 X143.277 Y109.626 E.01688
G1 X164.024 Y130.374 E.92388
G1 X163.489 Y130.374 E.01685
G1 X142.742 Y109.626 E.92388
G1 X142.206 Y109.626 E.01688
G1 X162.953 Y130.374 E.92388
G1 X162.418 Y130.374 E.01685
G1 X141.671 Y109.626 E.92388
G1 X141.135 Y109.626 E.01688
G1 X161.882 Y130.374 E.92388
G1 X161.347 Y130.374 E.01685
G1 X140.6 Y109.626 E.92388
M73 P2 R85
G1 X140.064 Y109.626 E.01688
M73 Q2 S87
G1 X160.811 Y130.374 E.92388
G1 X160.276 Y130.374 E.01685
G1 X139.529 Y109.626 E.92388
G1 X138.993 Y109.626 E.01688
G1 X159.74 Y130.374 E.92388
G1 X159.205 Y130.374 E.01685
G1 X138.458 Y109.626 E.92388
G1 X137.922 Y109.626 E.01688
G1 X158.669 Y130.374 E.92388
G1 X158.134 Y130.374 E.01685
G1 X137.387 Y109.626 E.92388
G1 X136.851 Y109.626 E.01688
M73 Q2 S86
G1 X157.598 Y130.374 E.92388
G1 X157.063 Y130.374 E.01685
G1 X136.315 Y109.626 E.9239
G1 X135.78 Y109.626 E.01685
G1 X156.527 Y130.374 E.92388
G1 X155.992 Y130.374 E.01685
G1 X135.244 Y109.626 E.9239
G1 X134.709 Y109.626 E.01685
G1 X155.456 Y130.374 E.92388
G1 X154.92 Y130.374 E.01688
G1 X134.173 Y109.626 E.92388
G1 X133.638 Y109.626 E.01685
G1 X154.385 Y130.374 E.92388
G1 X153.849 Y130.374 E.01688
G1 X133.102 Y109.626 E.92388
G1 X132.567 Y109.626 E.01685
G1 X153.314 Y130.374 E.92388
G1 X152.778 Y130.374 E.01688
G1 X132.031 Y109.626 E.92388
G1 X131.496 Y109.626 E.01685
G1 X152.243 Y130.374 E.92388
G1 X151.707 Y130.374 E.01688
G1 X130.96 Y109.626 E.92388
G1 X130.425 Y109.626 E.01685
G1 X151.172 Y130.374 E.92388
G1 X150.636 Y130.374 E.01688
G1 X129.889 Y109.626 E.92388
G1 X129.354 Y109.626 E.01685
G1 X150.101 Y130.374 E.92388
G1 X149.565 Y130.374 E.01688
G1 X128.818 Y109.626 E.92388
G1 X128.283 Y109.626 E.01685
G1 X149.03 Y130.374 E.92388
G1 X148.494 Y130.374 E.01688
G1 X127.747 Y109.626 E.92388
G1 X127.211 Y109.626 E.01688
G1 X147.959 Y130.374 E.9239
G1 X147.423 Y130.374 E.01688
G1 X126.676 Y109.626 E.92388
G1 X126.14 Y109.626 E.01688
G1 X146.888 Y130.374 E.9239
G1 X146.352 Y130.374 E.01688
G1 X125.605 Y109.626 E.92388
G1 X125.069 Y109.626 E.01688
M73 P2 R84
G1 X145.816 Y130.374 E.92388
G1 X145.281 Y130.374 E.01685
G1 X124.534 Y109.626 E.92388
G1 X123.998 Y109.626 E.01688
G1 X144.745 Y130.374 E.92388
G1 X144.21 Y130.374 E.01685
G1 X123.463 Y109.626 E.92388
G1 X122.927 Y109.626 E.01688
G1 X143.674 Y130.374 E.92388
G1 X143.139 Y130.374 E.01685
G1 X122.392 Y109.626 E.92388
G1 X121.856 Y109.626 E.01688
M73 P3 R84
G1 X142.603 Y130.374 E.92388
G1 X142.068 Y130.374 E.01685
G1 X121.321 Y109.626 E.92388
G1 X120.785 Y109.626 E.01688
M73 Q3 S86
G1 X141.532 Y130.374 E.92388
G1 X140.997 Y130.374 E.01685
G1 X120.25 Y109.626 E.92388
G1 X119.714 Y109.626 E.01688
G1 X140.461 Y130.374 E.92388
G1 X139.926 Y130.374 E.01685
G1 X119.179 Y109.626 E.92388
G1 X118.643 Y109.626 E.01688
G1 X139.39 Y130.374 E.92388
G1 X138.855 Y130.374 E.01685
G1 X118.107 Y109.626 E.9239
G1 X117.572 Y109.626 E.01685
G1 X138.319 Y130.374 E.92388
G1 X137.784 Y130.374 E.01685
G1 X117.036 Y109.626 E.9239
G1 X116.501 Y109.626 E.01685
G1 X137.248 Y130.374 E.92388
G1 X136.712 Y130.374 E.01688
G1 X115.965 Y109.626 E.92388
G1 X115.43 Y109.626 E.01685
M73 Q3 S85
G1 X136.177 Y130.374 E.92388
G1 X135.641 Y130.374 E.01688
G1 X114.894 Y109.626 E.92388
G1 X114.359 Y109.626 E.01685
G1 X135.106 Y130.374 E.92388
G1 X134.57 Y130.374 E.01688
G1 X113.823 Y109.626 E.92388
G1 X113.288 Y109.626 E.01685
G1 X134.035 Y130.374 E.92388
G1 X133.499 Y130.374 E.01688
G1 X112.752 Y109.626 E.92388
G1 X112.217 Y109.626 E.01685
G1 X132.964 Y130.374 E.92388
G1 X132.428 Y130.374 E.01688
G1 X111.681 Y109.626 E.92388
G1 X111.146 Y109.626 E.01685
G1 X131.893 Y130.374 E.92388
G1 X131.357 Y130.374 E.01688
G1 X110.61 Y109.626 E.92388
G1 X110.074 Y109.626 E.01688
G1 X130.822 Y130.374 E.9239
G1 X130.286 Y130.374 E.01688
G1 X109.539 Y109.626 E.92388
G1 X109.003 Y109.626 E.01688
G1 X129.751 Y130.374 E.9239
G1 X129.215 Y130.374 E.01688
G1 X108.468 Y109.626 E.92388
G1 X107.932 Y109.626 E.01688
G1 X128.679 Y130.374 E.92388
G1 X128.144 Y130.374 E.01685
G1 X107.397 Y109.626 E.92388
G1 X106.861 Y109.626 E.01688
G1 X127.608 Y130.374 E.92388
G1 X127.073 Y130.374 E.01685
G1 X106.326 Y109.626 E.92388
G1 X105.79 Y109.626 E.01688
G1 X126.537 Y130.374 E.92388
G1 X126.002 Y130.374 E.01685
G1 X105.255 Y109.626 E.92388
G1 X104.719 Y109.626 E.01688
G1 X125.466 Y130.374 E.92388
G1 X124.931 Y130.374 E.01685
G1 X104.184 Y109.626 E.92388
G1 X103.648 Y109.626 E.01688
M73 P3 R83
G1 X124.395 Y130.374 E.92388
G1 X123.86 Y130.374 E.01685
M73 P4 R83
G1 X103.113 Y109.626 E.92388
G1 X102.577 Y109.626 E.01688
G1 X123.324 Y130.374 E.92388
G1 X122.789 Y130.374 E.01685
M73 Q4 S85
G1 X102.042 Y109.626 E.92388
G1 X101.506 Y109.626 E.01688
G1 X122.253 Y130.374 E.92388
G1 X121.718 Y130.374 E.01685
G1 X100.97 Y109.626 E.9239
G1 X100.435 Y109.626 E.01685
G1 X121.182 Y130.374 E.92388
G1 X120.647 Y130.374 E.01685
G1 X99.899 Y109.626 E.9239
G1 X99.364 Y109.626 E.01685
G1 X120.111 Y130.374 E.92388
G1 X119.575 Y130.374 E.01688
G1 X98.828 Y109.626 E.92388
G1 X98.293 Y109.626 E.01685
G1 X119.04 Y130.374 E.92388
G1 X118.504 Y130.374 E.01688
G1 X97.757 Y109.626 E.92388
G1 X97.222 Y109.626 E.01685
G1 X117.969 Y130.374 E.92388
G1 X117.433 Y130.374 E.01688
G1 X96.686 Y109.626 E.92388
G1 X96.151 Y109.626 E.01685
G1 X116.898 Y130.374 E.92388
G1 X116.362 Y130.374 E.01688
G1 X95.615 Y109.626 E.92388
G1 X95.08 Y109.626 E.01685
G1 X115.827 Y130.374 E.92388
G1 X115.291 Y130.374 E.01688
G1 X94.544 Y109.626 E.92388
G1 X94.009 Y109.626 E.01685
M73 Q4 S84
G1 X114.756 Y130.374 E.92388
G1 X114.22 Y130.374 E.01688
G1 X93.473 Y109.626 E.92388
G1 X92.938 Y109.626 E.01685
G1 X113.685 Y130.374 E.92388
G1 X113.149 Y130.374 E.01688
G1 X92.402 Y109.626 E.92388
G1 X91.866 Y109.626 E.01688
G1 X112.614 Y130.374 E.9239
G1 X112.078 Y130.374 E.01688
G1 X91.331 Y109.626 E.92388
G1 X90.795 Y109.626 E.01688
G1 X111.543 Y130.374 E.9239
G1 X111.007 Y130.374 E.01688
G1 X90.26 Y109.626 E.92388
G1 X89.724 Y109.626 E.01688
G1 X110.471 Y130.374 E.92388
G1 X109.936 Y130.374 E.01685
G1 X89.189 Y109.626 E.92388
G1 X88.653 Y109.626 E.01688
G1 X109.4 Y130.374 E.92388
G1 X108.865 Y130.374 E.01685
G1 X88.118 Y109.626 E.92388
G1 X87.582 Y109.626 E.01688
G1 X108.329 Y130.374 E.92388
G1 X107.794 Y130.374 E.01685
G1 X87.047 Y109.626 E.92388
G1 X86.511 Y109.626 E.01688
G1 X107.258 Y130.374 E.92388
G1 X106.723 Y130.374 E.01685
G1 X85.976 Y109.626 E.92388
G1 X85.44 Y109.626 E.01688
G1 X106.187 Y130.374 E.92388
G1 X105.652 Y130.374 E.01685
G1 X84.905 Y109.626 E.92388
G1 X84.369 Y109.626 E.01688
M73 P5 R83
G1 X105.116 Y130.374 E.92388
G1 X104.581 Y130.374 E.01685
G1 X83.834 Y109.626 E.92388
G1 X83.298 Y109.626 E.01688
M73 Q5 S84
G1 X104.045 Y130.374 E.92388
G1 X103.51 Y130.374 E.01685
G1 X82.762 Y109.626 E.9239
G1 X82.227 Y109.626 E.01685
M73 P5 R82
G1 X102.974 Y130.374 E.92388
G1 X102.439 Y130.374 E.01685
G1 X81.691 Y109.626 E.9239
G1 X81.156 Y109.626 E.01685
G1 X101.903 Y130.374 E.92388
G1 X101.367 Y130.374 E.01688
G1 X81.126 Y110.133 E.90132
G1 X81.126 Y110.668 E.01685
G1 X100.832 Y130.374 E.8775
G1 X100.296 Y130.374 E.01688
G1 X81.126 Y111.204 E.85363
G1 X81.126 Y111.739 E.01685
G1 X99.761 Y130.374 E.82981
G1 X99.225 Y130.374 E.01688
G1 X81.126 Y112.275 E.80594
G1 X81.126 Y112.81 E.01685
G1 X98.69 Y130.374 E.78212
G1 X98.154 Y130.374 E.01688
G1 X81.126 Y113.346 E.75825
G1 X81.126 Y113.881 E.01685
G1 X97.619 Y130.374 E.73443
G1 X97.083 Y130.374 E.01688
G1 X81.126 Y114.417 E.71056
G1 X81.126 Y114.952 E.01685
G1 X96.548 Y130.374 E.68673
G1 X96.012 Y130.374 E.01688
G1 X81.126 Y115.488 E.66287
G1 X81.126 Y116.023 E.01685
G1 X95.477 Y130.374 E.63904
G1 X94.941 Y130.374 E.01688
G1 X81.126 Y116.559 E.61518
G1 X81.126 Y117.094 E.01685
G1 X94.406 Y130.374 E.59135
G1 X93.87 Y130.374 E.01688
G1 X81.126 Y117.63 E.56748
G1 X81.126 Y118.166 E.01688
G1 X93.335 Y130.374 E.54364
G1 X92.799 Y130.374 E.01688
G1 X81.126 Y118.701 E.51979
G1 X81.126 Y119.237 E.01688
G1 X92.263 Y130.374 E.49593
G1 X91.728 Y130.374 E.01685
G1 X81.126 Y119.772 E.4721
G1 X81.126 Y120.308 E.01688
G1 X91.192 Y130.374 E.44823
G1 X90.657 Y130.374 E.01685
M73 Q5 S83
G1 X81.126 Y120.843 E.42441
G1 X81.126 Y121.379 E.01688
G1 X90.121 Y130.374 E.40054
G1 X89.586 Y130.374 E.01685
G1 X81.126 Y121.914 E.37672
G1 X81.126 Y122.45 E.01688
G1 X89.05 Y130.374 E.35285
G1 X88.515 Y130.374 E.01685
G1 X81.126 Y122.985 E.32903
G1 X81.126 Y123.521 E.01688
G1 X87.979 Y130.374 E.30516
G1 X87.444 Y130.374 E.01685
G1 X81.126 Y124.056 E.28134
G1 X81.126 Y124.592 E.01688
G1 X86.908 Y130.374 E.25747
G1 X86.373 Y130.374 E.01685
G1 X81.126 Y125.127 E.23365
G1 X81.126 Y125.663 E.01688
G1 X85.837 Y130.374 E.20978
G1 X85.302 Y130.374 E.01685
G1 X81.126 Y126.198 E.18596
G1 X81.126 Y126.734 E.01688
G1 X84.766 Y130.374 E.16209
G1 X84.23 Y130.374 E.01688
G1 X81.126 Y127.27 E.13822
G1 X81.126 Y127.805 E.01685
G1 X83.695 Y130.374 E.1144
G1 X83.159 Y130.374 E.01688
G1 X81.126 Y128.341 E.09053
G1 X81.126 Y128.876 E.01685
G1 X82.624 Y130.374 E.06671
G1 X82.088 Y130.374 E.01688
G1 X81.126 Y129.412 E.04284
G1 X81.126 Y129.947 E.01685
G1 X81.723 Y130.543 E.02656
M204 S1000
;WIPE_START
G1 F8640
G1 X81.126 Y129.947 E-.19478
G1 X81.126 Y129.412 E-.12353
G1 X82.088 Y130.374 E-.31414
G1 X82.624 Y130.374 E-.12376
G1 X81.878 Y129.627 E-.24379
;WIPE_END
G1 Z.4 F720
G1 X126.614 Y97.586 F10800
G1 Z.2 F720
G1 E1 F2100
M204 S800
;TYPE:Perimeter
;WIDTH:0.444381
G1 F1200
G1 X126.574 Y97.664 E.00293
;WIDTH:0.419999
G1 X126.319 Y97.779 E.00877
