; generated by PrusaSlicer 2.9.3 on 2025-12-01 at 13:12:40 UTC


;
;
; 

; external perimeters extrusion width = 0.45mm
; perimeters extrusion width = 0.45mm
; infill extrusion width = 0.45mm
; solid infill extrusion width = 0.45mm
; top infill extrusion width = 0.40mm
; support material extrusion width = 0.35mm
; first layer extrusion width = 0.42mm

M73 P0 R63
M73 Q0 S63
M201 X1000 Y1000 Z200 E5000 ; sets maximum accelerations, mm/sec^2
M203 X200 Y200 Z12 E120 ; sets maximum feedrates, mm / sec
M204 S1250 T1250 ; sets acceleration (S) and retract acceleration (R), mm/sec^2
M205 X8.00 Y8.00 Z0.40 E4.50 ; sets the jerk limits, mm/sec
M205 S0 T0 ; sets the minimum extruding and travel feed rate, mm/sec

; printing object solar-5v-case.stl id:0 copy 0
; stop printing object solar-5v-case.stl id:0 copy 0

;TYPE:Custom
M862.3 P "MK3S" ; printer model check
M862.1 P0.4 ; nozzle diameter check
M115 U3.14.1 ; tell printer latest fw version
G90 ; use absolute coordinates
M83 ; extruder relative mode
M104 S240 ; set extruder temp
M140 S85 ; set bed temp
M190 S85 ; wait for bed temp
M109 S240 ; wait for extruder temp
G28 W ; home all without mesh bed level
G80 X77.6229 Y91.1229 W98.8392 H27.7542 ; mesh bed levelling

G1 Z0.2 F720
G1 Y-3 F1000 ; go outside print area
G92 E0
G1 X60 E9 F1000 ; intro line
G1 X100 E12.5 F1000 ; intro line

G92 E0
M221 S95

; Don't change E values below. Excessive value can damage the printer.

M907 E538 ; set extruder motor current
G21 ; set units to millimeters
G90 ; use absolute coordinates
M83 ; use relative distances for extrusion

M900 K0.08 ; Filament gcode LA 1.5
M900 K45 ; Filament gcode LA 1.0




M107
;LAYER_CHANGE
;Z:0.2
;HEIGHT:0.2
G1 E-1 F2100
G1 Z.4 F720
G1 X78.202 Y92.252 F10800
G1 Z.2 F720
G1 E1 F2100
M204 S800
;TYPE:Skirt/Brim
;WIDTH:0.42
G1 F1200
G1 X79.235 Y91.449 E.04102
G1 X80 Y91.311 E.02437
G1 X170 Y91.311 E2.82189
G1 X170.813 Y91.468 E.02596
M73 P0 R62
G1 X174.898 Y93.104 E.13797
G1 X175.912 Y93.93 E.04101
G1 X176.274 Y95.135 E.03945
G1 X176.274 Y114.865 E.61862
G1 X175.883 Y116.113 E.04101
G1 X174.898 Y116.896 E.03945
G1 X170.813 Y118.532 E.13797
G1 X170 Y118.689 E.02596
G1 X80 Y118.689 E2.82189
G1 X78.752 Y118.298 E.04101
G1 X77.949 Y117.265 E.04102
G1 X77.811 Y116.5 E.02437
G1 X77.811 Y93.5 E.72115
G1 X78.184 Y92.309 E.03913
M204 S1000
;WIPE_START
G1 F8640
G1 X78.202 Y92.252 E-.0138
G1 X79.235 Y91.449 E-.30211
G1 X80 Y91.311 E-.17949
G1 X82.185 Y91.311 E-.5046
;WIPE_END
G1 Z.4 F720
; printing object solar-5v-case.stl id:0 copy 0
G1 X174.085 Y114.865 F10800
G1 Z.2 F720
G1 E1 F2100
M204 S800
;TYPE:Support material
G1 F1200
G1 X170.48 Y114.865 E.11303
G1 X170.48 Y95.135 E.61862
G1 X174.085 Y95.135 E.11303
G1 X174.085 Y114.808 E.61683
M204 S1000
G1 X173.601 Y114.695 F10800
M204 S800
G1 F1200
G1 X173.601 Y95.475 E.60263
G1 X173.182 Y95.475 E.01314
G1 X173.182 Y114.525 E.5973
G1 X172.763 Y114.525 E.01314
G1 X172.763 Y95.475 E.5973
G1 X172.344 Y95.475 E.01314
G1 X172.344 Y114.525 E.5973
G1 X171.925 Y114.525 E.01314
M73 Q0 S62
G1 X171.925 Y95.475 E.5973
G1 X171.506 Y95.475 E.01314
G1 X171.506 Y114.525 E.5973
G1 X171.087 Y114.525 E.01314
G1 X171.087 Y95.305 E.60263
M204 S1000
;WIPE_START
G1 F8640
G1 X171.087 Y99.636 E-1
;WIPE_END
G1 Z.4 F720
G1 X169.213 Y115.713 F10800
G1 Z.2 F720
G1 E1 F2100
M204 S800
;TYPE:Perimeter
;WIDTH:0.419999
G1 F1200
G1 X80.787 Y115.713 E2.77253
G1 X80.787 Y94.287 E.6718
G1 X169.213 Y94.287 E2.77253
G1 X169.213 Y105 E.3359
M73 P1 R62
M73 Q1 S62
G1 X169.213 Y115.653 E.33402
M204 S1000
G1 X169.59 Y116.09 F10800
M204 S800
;TYPE:External perimeter
G1 F1200
G1 X80.41 Y116.09 E2.79617
G1 X80.41 Y93.91 E.69544
G1 X169.59 Y93.91 E2.79617
G1 X169.59 Y105 E.34772
G1 X169.59 Y116.03 E.34584
M204 S1000
;WIPE_START
G1 F8640
G1 X169.59 Y116.09 E-.01385
G1 X165.319 Y116.09 E-.98615
;WIPE_END
G1 Z.4 F720
G1 X169.043 Y95.222 F10800
G1 Z.2 F720
G1 E1 F2100
M204 S800
;TYPE:Solid infill
;WIDTH:0.421597
G1 F1200
G1 X168.447 Y94.626 E.02654
G1 X167.912 Y94.626 E.01685
G1 X168.874 Y95.588 E.04284
G1 X168.874 Y96.124 E.01688
G1 X167.376 Y94.626 E.06671
G1 X166.841 Y94.626 E.01685
G1 X168.874 Y96.659 E.09053
G1 X168.874 Y97.195 E.01688
G1 X166.305 Y94.626 E.1144
G1 X165.77 Y94.626 E.01685
G1 X168.874 Y97.73 E.13822
G1 X168.874 Y98.266 E.01688
G1 X165.234 Y94.626 E.16209
G1 X164.699 Y94.626 E.01685
G1 X168.874 Y98.801 E.18591
G1 X168.874 Y99.337 E.01688
G1 X164.163 Y94.626 E.20978
G1 X163.627 Y94.626 E.01688
G1 X168.874 Y99.873 E.23365
G1 X168.874 Y100.408 E.01685
G1 X163.092 Y94.626 E.25747
G1 X162.556 Y94.626 E.01688
G1 X168.874 Y100.944 E.28134
G1 X168.874 Y101.479 E.01685
G1 X162.021 Y94.626 E.30516
G1 X161.485 Y94.626 E.01688
G1 X168.874 Y102.015 E.32903
G1 X168.874 Y102.55 E.01685
G1 X160.95 Y94.626 E.35285
G1 X160.414 Y94.626 E.01688
G1 X168.874 Y103.086 E.37672
G1 X168.874 Y103.621 E.01685
G1 X159.879 Y94.626 E.40054
G1 X159.343 Y94.626 E.01688
G1 X168.874 Y104.157 E.42441
G1 X168.874 Y104.692 E.01685
G1 X158.808 Y94.626 E.44823
G1 X158.272 Y94.626 E.01688
G1 X168.874 Y105.228 E.4721
G1 X168.874 Y105.763 E.01685
G1 X157.737 Y94.626 E.49593
G1 X157.201 Y94.626 E.01688
G1 X168.874 Y106.299 E.51979
G1 X168.874 Y106.834 E.01685
G1 X156.666 Y94.626 E.54362
G1 X156.13 Y94.626 E.01688
G1 X168.874 Y107.37 E.56748
G1 X168.874 Y107.905 E.01685
G1 X155.595 Y94.626 E.59131
G1 X155.059 Y94.626 E.01688
G1 X168.874 Y108.441 E.61518
G1 X168.874 Y108.977 E.01688
G1 X154.523 Y94.626 E.63904
G1 X153.988 Y94.626 E.01685
M73 P1 R61
G1 X168.874 Y109.512 E.66287
G1 X168.874 Y110.048 E.01688
G1 X153.452 Y94.626 E.68673
G1 X152.917 Y94.626 E.01685
G1 X168.874 Y110.583 E.71056
G1 X168.874 Y111.119 E.01688
G1 X152.381 Y94.626 E.73443
G1 X151.846 Y94.626 E.01685
G1 X168.874 Y111.654 E.75825
G1 X168.874 Y112.19 E.01688
G1 X151.31 Y94.626 E.78212
G1 X150.775 Y94.626 E.01685
G1 X168.874 Y112.725 E.80594
G1 X168.874 Y113.261 E.01688
M73 P2 R61
M73 Q2 S62
G1 X150.239 Y94.626 E.82981
G1 X149.704 Y94.626 E.01685
G1 X168.874 Y113.796 E.85363
G1 X168.874 Y114.332 E.01688
G1 X149.168 Y94.626 E.8775
G1 X148.633 Y94.626 E.01685
G1 X168.874 Y114.867 E.90132
G1 X168.874 Y115.374 E.01596
G1 X168.844 Y115.374 E.00094
G1 X148.097 Y94.626 E.92388
G1 X147.562 Y94.626 E.01685
G1 X168.309 Y115.374 E.92388
G1 X167.773 Y115.374 E.01688
G1 X147.026 Y94.626 E.92388
G1 X146.491 Y94.626 E.01685
M73 Q2 S61
G1 X167.238 Y115.374 E.92388
G1 X166.702 Y115.374 E.01688
G1 X145.955 Y94.626 E.92388
G1 X145.419 Y94.626 E.01688
G1 X166.167 Y115.374 E.9239
G1 X165.631 Y115.374 E.01688
G1 X144.884 Y94.626 E.92388
G1 X144.348 Y94.626 E.01688
G1 X165.096 Y115.374 E.9239
G1 X164.56 Y115.374 E.01688
G1 X143.813 Y94.626 E.92388
G1 X143.277 Y94.626 E.01688
G1 X164.024 Y115.374 E.92388
G1 X163.489 Y115.374 E.01685
G1 X142.742 Y94.626 E.92388
G1 X142.206 Y94.626 E.01688
G1 X162.953 Y115.374 E.92388
G1 X162.418 Y115.374 E.01685
G1 X141.671 Y94.626 E.92388
G1 X141.135 Y94.626 E.01688
G1 X161.882 Y115.374 E.92388
G1 X161.347 Y115.374 E.01685
G1 X140.6 Y94.626 E.92388
G1 X140.064 Y94.626 E.01688
G1 X160.811 Y115.374 E.92388
G1 X160.276 Y115.374 E.01685
G1 X139.529 Y94.626 E.92388
G1 X138.993 Y94.626 E.01688
G1 X159.74 Y115.374 E.92388
G1 X159.205 Y115.374 E.01685
G1 X138.458 Y94.626 E.92388
G1 X137.922 Y94.626 E.01688
G1 X158.669 Y115.374 E.92388
G1 X158.134 Y115.374 E.01685
G1 X137.387 Y94.626 E.92388
G1 X136.851 Y94.626 E.01688
M73 P3 R61
M73 Q3 S61
G1 X157.598 Y115.374 E.92388
G1 X157.063 Y115.374 E.01685
G1 X136.315 Y94.626 E.9239
G1 X135.78 Y94.626 E.01685
G1 X156.527 Y115.374 E.92388
G1 X155.991 Y115.374 E.01688
G1 X135.244 Y94.626 E.92388
G1 X134.709 Y94.626 E.01685
G1 X155.456 Y115.374 E.92388
G1 X154.92 Y115.374 E.01688
G1 X134.173 Y94.626 E.92388
G1 X133.638 Y94.626 E.01685
G1 X154.385 Y115.374 E.92388
G1 X153.849 Y115.374 E.01688
G1 X133.102 Y94.626 E.92388
G1 X132.567 Y94.626 E.01685
G1 X153.314 Y115.374 E.92388
G1 X152.778 Y115.374 E.01688
G1 X132.031 Y94.626 E.92388
G1 X131.496 Y94.626 E.01685
M73 P3 R60
G1 X152.243 Y115.374 E.92388
G1 X151.707 Y115.374 E.01688
G1 X130.96 Y94.626 E.92388
G1 X130.425 Y94.626 E.01685
G1 X151.172 Y115.374 E.92388
G1 X150.636 Y115.374 E.01688
G1 X129.889 Y94.626 E.92388
G1 X129.354 Y94.626 E.01685
G1 X150.101 Y115.374 E.92388
G1 X149.565 Y115.374 E.01688
G1 X128.818 Y94.626 E.92388
G1 X128.283 Y94.626 E.01685
G1 X149.03 Y115.374 E.92388
G1 X148.494 Y115.374 E.01688
G1 X127.747 Y94.626 E.92388
G1 X127.211 Y94.626 E.01688
G1 X147.959 Y115.374 E.9239
G1 X147.423 Y115.374 E.01688
G1 X126.676 Y94.626 E.92388
G1 X126.14 Y94.626 E.01688
G1 X146.887 Y115.374 E.92388
G1 X146.352 Y115.374 E.01685
G1 X125.605 Y94.626 E.92388
G1 X125.069 Y94.626 E.01688
M73 Q3 S60
G1 X145.816 Y115.374 E.92388
G1 X145.281 Y115.374 E.01685
G1 X124.534 Y94.626 E.92388
G1 X123.998 Y94.626 E.01688
G1 X144.745 Y115.374 E.92388
G1 X144.21 Y115.374 E.01685
M73 P4 R60
M73 Q4 S60
G1 X123.463 Y94.626 E.92388
G1 X122.927 Y94.626 E.01688
G1 X143.674 Y115.374 E.92388
G1 X143.139 Y115.374 E.01685
G1 X122.392 Y94.626 E.92388
G1 X121.856 Y94.626 E.01688
G1 X142.603 Y115.374 E.92388
G1 X142.068 Y115.374 E.01685
G1 X121.321 Y94.626 E.92388
G1 X120.785 Y94.626 E.01688
G1 X141.532 Y115.374 E.92388
G1 X140.997 Y115.374 E.01685
G1 X120.25 Y94.626 E.92388
G1 X119.714 Y94.626 E.01688
G1 X140.461 Y115.374 E.92388
G1 X139.926 Y115.374 E.01685
G1 X119.178 Y94.626 E.9239
G1 X118.643 Y94.626 E.01685
G1 X139.39 Y115.374 E.92388
G1 X138.855 Y115.374 E.01685
G1 X118.107 Y94.626 E.9239
G1 X117.572 Y94.626 E.01685
G1 X138.319 Y115.374 E.92388
G1 X137.783 Y115.374 E.01688
G1 X117.036 Y94.626 E.92388
G1 X116.501 Y94.626 E.01685
G1 X137.248 Y115.374 E.92388
G1 X136.712 Y115.374 E.01688
G1 X115.965 Y94.626 E.92388
G1 X115.43 Y94.626 E.01685
G1 X136.177 Y115.374 E.92388
G1 X135.641 Y115.374 E.01688
G1 X114.894 Y94.626 E.92388
G1 X114.359 Y94.626 E.01685
G1 X135.106 Y115.374 E.92388
G1 X134.57 Y115.374 E.01688
G1 X113.823 Y94.626 E.92388
G1 X113.288 Y94.626 E.01685
G1 X134.035 Y115.374 E.92388
G1 X133.499 Y115.374 E.01688
G1 X112.752 Y94.626 E.92388
G1 X112.217 Y94.626 E.01685
G1 X132.964 Y115.374 E.92388
G1 X132.428 Y115.374 E.01688
G1 X111.681 Y94.626 E.92388
G1 X111.146 Y94.626 E.01685
G1 X131.893 Y115.374 E.92388
G1 X131.357 Y115.374 E.01688
M73 P4 R59
G1 X110.61 Y94.626 E.92388
G1 X110.074 Y94.626 E.01688
G1 X130.822 Y115.374 E.9239
M73 P5 R59
G1 X130.286 Y115.374 E.01688
M73 Q5 S60
G1 X109.539 Y94.626 E.92388
G1 X109.003 Y94.626 E.01688
G1 X129.751 Y115.374 E.9239
G1 X129.215 Y115.374 E.01688
G1 X108.468 Y94.626 E.92388
G1 X107.932 Y94.626 E.01688
G1 X128.679 Y115.374 E.92388
G1 X128.144 Y115.374 E.01685
G1 X107.397 Y94.626 E.92388
G1 X106.861 Y94.626 E.01688
G1 X127.608 Y115.374 E.92388
G1 X127.073 Y115.374 E.01685
G1 X106.326 Y94.626 E.92388
G1 X105.79 Y94.626 E.01688
G1 X126.537 Y115.374 E.92388
G1 X126.002 Y115.374 E.01685
G1 X105.255 Y94.626 E.92388
G1 X104.719 Y94.626 E.01688
G1 X125.466 Y115.374 E.92388
G1 X124.931 Y115.374 E.01685
G1 X104.184 Y94.626 E.92388
G1 X103.648 Y94.626 E.01688
M73 Q5 S59
G1 X124.395 Y115.374 E.92388
G1 X123.86 Y115.374 E.01685
G1 X103.113 Y94.626 E.92388
G1 X102.577 Y94.626 E.01688
G1 X123.324 Y115.374 E.92388
G1 X122.789 Y115.374 E.01685
G1 X102.042 Y94.626 E.92388
G1 X101.506 Y94.626 E.01688
G1 X122.253 Y115.374 E.92388
G1 X121.718 Y115.374 E.01685
G1 X100.97 Y94.626 E.9239
G1 X100.435 Y94.626 E.01685
G1 X121.182 Y115.374 E.92388
G1 X120.647 Y115.374 E.01685
G1 X99.899 Y94.626 E.9239
G1 X99.364 Y94.626 E.01685
G1 X120.111 Y115.374 E.92388
G1 X119.575 Y115.374 E.01688
G1 X98.828 Y94.626 E.92388
G1 X98.293 Y94.626 E.01685
G1 X119.04 Y115.374 E.92388
G1 X118.504 Y115.374 E.01688
G1 X97.757 Y94.626 E.92388
G1 X97.222 Y94.626 E.01685
G1 X117.969 Y115.374 E.92388
G1 X117.433 Y115.374 E.01688
G1 X96.686 Y94.626 E.92388
G1 X96.151 Y94.626 E.01685
M73 P6 R59
M73 Q6 S59
G1 X116.898 Y115.374 E.92388
G1 X116.362 Y115.374 E.01688
G1 X95.615 Y94.626 E.92388
G1 X95.08 Y94.626 E.01685
G1 X115.827 Y115.374 E.92388
G1 X115.291 Y115.374 E.01688
G1 X94.544 Y94.626 E.92388
G1 X94.009 Y94.626 E.01685
G1 X114.756 Y115.374 E.92388
G1 X114.22 Y115.374 E.01688
G1 X93.473 Y94.626 E.92388
G1 X92.938 Y94.626 E.01685
G1 X113.685 Y115.374 E.92388
G1 X113.149 Y115.374 E.01688
G1 X92.402 Y94.626 E.92388
G1 X91.866 Y94.626 E.01688
G1 X112.614 Y115.374 E.9239
G1 X112.078 Y115.374 E.01688
G1 X91.331 Y94.626 E.92388
G1 X90.795 Y94.626 E.01688
G1 X111.542 Y115.374 E.92388
G1 X111.007 Y115.374 E.01685
G1 X90.26 Y94.626 E.92388
G1 X89.724 Y94.626 E.01688
G1 X110.471 Y115.374 E.92388
G1 X109.936 Y115.374 E.01685
M73 P6 R58
G1 X89.189 Y94.626 E.92388
G1 X88.653 Y94.626 E.01688
G1 X109.4 Y115.374 E.92388
G1 X108.865 Y115.374 E.01685
G1 X88.118 Y94.626 E.92388
G1 X87.582 Y94.626 E.01688
G1 X108.329 Y115.374 E.92388
G1 X107.794 Y115.374 E.01685
G1 X87.047 Y94.626 E.92388
G1 X86.511 Y94.626 E.01688
G1 X107.258 Y115.374 E.92388
G1 X106.723 Y115.374 E.01685
G1 X85.976 Y94.626 E.92388
G1 X85.44 Y94.626 E.01688
G1 X106.187 Y115.374 E.92388
G1 X105.652 Y115.374 E.01685
G1 X84.905 Y94.626 E.92388
G1 X84.369 Y94.626 E.01688
G1 X105.116 Y115.374 E.92388
G1 X104.581 Y115.374 E.01685
G1 X83.834 Y94.626 E.92388
G1 X83.298 Y94.626 E.01688
G1 X104.045 Y115.374 E.92388
G1 X103.51 Y115.374 E.01685
M73 P7 R58
M73 Q7 S59
G1 X82.762 Y94.626 E.9239
G1 X82.227 Y94.626 E.01685
M73 Q7 S58
G1 X102.974 Y115.374 E.92388
G1 X102.438 Y115.374 E.01688
G1 X81.691 Y94.626 E.92388
G1 X81.156 Y94.626 E.01685
G1 X101.903 Y115.374 E.92388
G1 X101.367 Y115.374 E.01688
G1 X81.126 Y95.133 E.90132
G1 X81.126 Y95.668 E.01685
G1 X100.832 Y115.374 E.8775
G1 X100.296 Y115.374 E.01688
G1 X81.126 Y96.204 E.85363
G1 X81.126 Y96.739 E.01685
G1 X99.761 Y115.374 E.82981
G1 X99.225 Y115.374 E.01688
G1 X81.126 Y97.275 E.80594
G1 X81.126 Y97.81 E.01685
G1 X98.69 Y115.374 E.78212
G1 X98.154 Y115.374 E.01688
G1 X81.126 Y98.346 E.75825
G1 X81.126 Y98.881 E.01685
G1 X97.619 Y115.374 E.73443
G1 X97.083 Y115.374 E.01688
G1 X81.126 Y99.417 E.71056
G1 X81.126 Y99.952 E.01685
G1 X96.548 Y115.374 E.68673
G1 X96.012 Y115.374 E.01688
G1 X81.126 Y100.488 E.66287
G1 X81.126 Y101.023 E.01685
G1 X95.477 Y115.374 E.63904
G1 X94.941 Y115.374 E.01688
G1 X81.126 Y101.559 E.61518
G1 X81.126 Y102.094 E.01685
G1 X94.406 Y115.374 E.59135
G1 X93.87 Y115.374 E.01688
G1 X81.126 Y102.63 E.56748
G1 X81.126 Y103.166 E.01688
G1 X93.334 Y115.374 E.54362
G1 X92.799 Y115.374 E.01685
G1 X81.126 Y103.701 E.51979
G1 X81.126 Y104.237 E.01688
G1 X92.263 Y115.374 E.49593
G1 X91.728 Y115.374 E.01685
G1 X81.126 Y104.772 E.4721
G1 X81.126 Y105.308 E.01688
G1 X91.192 Y115.374 E.44823
G1 X90.657 Y115.374 E.01685
G1 X81.126 Y105.843 E.42441
G1 X81.126 Y106.379 E.01688
G1 X90.121 Y115.374 E.40054
G1 X89.586 Y115.374 E.01685
G1 X81.126 Y106.914 E.37672
G1 X81.126 Y107.45 E.01688
G1 X89.05 Y115.374 E.35285
G1 X88.515 Y115.374 E.01685
G1 X81.126 Y107.985 E.32903
G1 X81.126 Y108.521 E.01688
G1 X87.979 Y115.374 E.30516
G1 X87.444 Y115.374 E.01685
G1 X81.126 Y109.056 E.28134
G1 X81.126 Y109.592 E.01688
G1 X86.908 Y115.374 E.25747
G1 X86.373 Y115.374 E.01685
G1 X81.126 Y110.127 E.23365
G1 X81.126 Y110.663 E.01688
G1 X85.837 Y115.374 E.20978
G1 X85.302 Y115.374 E.01685
G1 X81.126 Y111.198 E.18596
G1 X81.126 Y111.734 E.01688
G1 X84.766 Y115.374 E.16209
G1 X84.23 Y115.374 E.01688
G1 X81.126 Y112.27 E.13822
G1 X81.126 Y112.805 E.01685
G1 X83.695 Y115.374 E.1144
G1 X83.159 Y115.374 E.01688
G1 X81.126 Y113.341 E.09053
G1 X81.126 Y113.876 E.01685
G1 X82.624 Y115.374 E.06671
G1 X82.088 Y115.374 E.01688
G1 X81.126 Y114.412 E.04284
G1 X81.126 Y114.947 E.01685
G1 X81.722 Y115.543 E.02654
M204 S1000
;LAYER_CHANGE
;Z:0.4
;HEIGHT:0.2
;BEFORE_LAYER_CHANGE
G92 E0.0
;0.4


;WIPE_START
G1 F8640
G1 X81.126 Y114.947 E-.19462
G1 X81.126 Y114.412 E-.12353
G1 X82.088 Y115.374 E-.31414
G1 X82.624 Y115.374 E-.12376
G1 X81.877 Y114.627 E-.24395
;WIPE_END
G1 Z.4 F720
;AFTER_LAYER_CHANGE
;0.4
M140 S90 ; set bed temperature
; stop printing object solar-5v-case.stl id:0 copy 0
G1 Z.6
G1 X81.722 Y118.689 F10800
G1 Z.4 F720
G1 E1 F2100
;TYPE:Skirt/Brim
;WIDTH:0.42
G1 F3000
