; generated by PrusaSlicer 2.9.3 on 2025-11-23 at 14:59:20 UTC


;
;
; 

; external perimeters extrusion width = 0.45mm
; perimeters extrusion width = 0.45mm
; infill extrusion width = 0.45mm
; solid infill extrusion width = 0.45mm
; top infill extrusion width = 0.40mm
; first layer extrusion width = 0.42mm

M73 P0 R52
M73 Q0 S52
M201 X1000 Y1000 Z200 E5000 ; sets maximum accelerations, mm/sec^2
M203 X200 Y200 Z12 E120 ; sets maximum feedrates, mm / sec
M204 S1250 T1250 ; sets acceleration (S) and retract acceleration (R), mm/sec^2
M205 X8.00 Y8.00 Z0.40 E4.50 ; sets the jerk limits, mm/sec
M205 S0 T0 ; sets the minimum extruding and travel feed rate, mm/sec

; printing object rolling-pin-silicon-hanger.stl id:0 copy 0
; stop printing object rolling-pin-silicon-hanger.stl id:0 copy 0

;TYPE:Custom
M862.3 P "MK3S" ; printer model check
M862.1 P0.4 ; nozzle diameter check
M115 U3.14.1 ; tell printer latest fw version
G90 ; use absolute coordinates
M83 ; extruder relative mode
M104 S215 ; set extruder temp
M140 S60 ; set bed temp
M190 S60 ; wait for bed temp
M109 S215 ; wait for extruder temp
G28 W ; home all without mesh bed level
G80 X68.9229 Y82.6229 W112.154 H44.7542 ; mesh bed levelling

G1 Z0.2 F720
G1 Y-3 F1000 ; go outside print area
G92 E0
G1 X60 E9 F1000 ; intro line
G1 X100 E12.5 F1000 ; intro line

G92 E0
M221 S95

; Don't change E values below. Excessive value can damage the printer.

M907 E538 ; set extruder motor current
G21 ; set units to millimeters
G90 ; use absolute coordinates
M83 ; use relative distances for extrusion

M900 K0.05 ; Filament gcode LA 1.5
M900 K30 ; Filament gcode LA 1.0




M107
;LAYER_CHANGE
;Z:0.2
;HEIGHT:0.2
G1 E-.8 F2100
G1 Z.6 F720
G1 X69.502 Y83.752 F10800
G1 Z.2 F720
G1 E.8 F2100
M204 S800
;TYPE:Skirt/Brim
;WIDTH:0.42
G1 F1200
G1 X70.535 Y82.949 E.04102
G1 X71.3 Y82.811 E.02437
G1 X178.7 Y82.811 E3.36745
G1 X179.948 Y83.202 E.04101
M73 P0 R51
G1 X180.751 Y84.235 E.04102
G1 X180.889 Y85 E.02437
G1 X180.889 Y110 E.78386
G1 X180.498 Y111.248 E.04101
G1 X179.207 Y112.129 E.04901
G1 X116.207 Y127.129 E2.03054
G1 X115.7 Y127.189 E.01601
G1 X71.3 Y127.189 E1.39213
G1 X70.052 Y126.798 E.04101
G1 X69.249 Y125.765 E.04102
G1 X69.111 Y125 E.02437
G1 X69.111 Y85 E1.25417
G1 X69.484 Y83.809 E.03913
M204 S1000
;WIPE_START
G1 F8640
G1 X69.502 Y83.752 E-.0138
G1 X70.535 Y82.949 E-.30211
G1 X71.3 Y82.811 E-.17949
G1 X72.619 Y82.811 E-.3046
;WIPE_END
G1 Z.6 F720
; printing object rolling-pin-silicon-hanger.stl id:0 copy 0
G1 X115.103 Y88.366 F10800
G1 Z.2 F720
G1 E.8 F2100
M204 S800
;TYPE:Perimeter
;WIDTH:0.419999
G1 F1200
G1 X115.079 Y88.379 E.00086
G1 X114.959 Y88.554 E.00665
G1 X114.913 Y88.779 E.0072
G1 X114.913 Y124.213 E1.11101
G1 X72.087 Y124.213 E1.34278
G1 X72.087 Y85.787 E1.20482
G1 X74.513 Y85.787 E.07607
G1 X74.513 Y122.221 E1.14236
G1 X74.556 Y122.438 E.00694
G1 X74.739 Y122.674 E.00936
G1 X75.079 Y122.787 E.01123
G1 X111.921 Y122.787 E1.15515
G1 X112.261 Y122.674 E.01123
M73 P1 R51
M73 Q1 S52
G1 X112.444 Y122.438 E.00936
G1 X112.487 Y122.221 E.00694
G1 X112.487 Y85.787 E1.14236
G1 X177.913 Y85.787 E2.05138
G1 X177.913 Y87.07 E.04023
G1 X177.913 Y109.213 E.69428
G1 X176.487 Y109.213 E.04471
G1 X176.487 Y88.779 E.64069
G1 X176.374 Y88.439 E.01123
M73 Q1 S51
G1 X176.138 Y88.256 E.00936
G1 X175.921 Y88.213 E.00694
G1 X115.381 Y88.221 E1.89819
G1 X115.156 Y88.338 E.00795
M204 S1000
G1 X115.378 Y88.632 F10800
M204 S800
;TYPE:External perimeter
G1 F1200
G1 X115.345 Y88.645 E.00111
G1 X115.29 Y88.779 E.00454
G1 X115.29 Y124.59 E1.12283
G1 X71.71 Y124.59 E1.36642
G1 X71.71 Y85.41 E1.22846
G1 X74.89 Y85.41 E.09971
G1 X74.89 Y122.221 E1.15418
G1 X74.965 Y122.372 E.00529
G1 X75.079 Y122.41 E.00377
G1 X111.921 Y122.41 E1.15515
G1 X112.035 Y122.372 E.00377
G1 X112.11 Y122.221 E.00529
G1 X112.11 Y85.41 E1.15418
G1 X178.29 Y85.41 E2.07502
G1 X178.29 Y87.07 E.05205
G1 X178.29 Y109.59 E.7061
G1 X176.11 Y109.59 E.06835
G1 X176.11 Y88.779 E.65251
G1 X176.072 Y88.665 E.00377
G1 X175.921 Y88.59 E.00529
G1 X115.479 Y88.59 E1.89511
G1 X115.433 Y88.609 E.00156
M73 P2 R51
M73 Q2 S51
M204 S1000
;WIPE_START
G1 F8640
G1 X115.378 Y88.632 E-.01377
G1 X115.345 Y88.645 E-.00819
G1 X115.29 Y88.779 E-.03345
G1 X115.29 Y92.004 E-.74459
;WIPE_END
G1 Z.6 F720
G1 X177.743 Y86.72 F10800
G1 Z.2 F720
G1 E.8 F2100
M204 S800
;TYPE:Solid infill
;WIDTH:0.420521
G1 F1200
G1 X177.15 Y86.126 E.02635
G1 X176.616 Y86.126 E.01677
G1 X177.574 Y87.084 E.04254
G1 X177.574 Y87.618 E.01677
G1 X176.082 Y86.126 E.06625
G1 X175.548 Y86.126 E.01677
G1 X177.574 Y88.152 E.08996
G1 X177.574 Y88.686 E.01677
G1 X175.014 Y86.126 E.11367
G1 X174.48 Y86.126 E.01677
G1 X177.574 Y89.22 E.13738
G1 X177.574 Y89.755 E.0168
G1 X176.826 Y89.007 E.03321
G1 X176.826 Y89.541 E.01677
G1 X177.574 Y90.289 E.03321
G1 X177.574 Y90.823 E.01677
G1 X176.826 Y90.075 E.03321
G1 X176.826 Y90.609 E.01677
G1 X177.574 Y91.357 E.03321
G1 X177.574 Y91.891 E.01677
G1 X176.826 Y91.143 E.03321
G1 X176.826 Y91.677 E.01677
G1 X177.574 Y92.425 E.03321
G1 X177.574 Y92.959 E.01677
G1 X176.826 Y92.211 E.03321
G1 X176.826 Y92.745 E.01677
G1 X177.574 Y93.493 E.03321
G1 X177.574 Y94.027 E.01677
G1 X176.826 Y93.279 E.03321
G1 X176.826 Y93.813 E.01677
G1 X177.574 Y94.561 E.03321
G1 X177.574 Y95.095 E.01677
G1 X176.826 Y94.347 E.03321
G1 X176.826 Y94.881 E.01677
G1 X177.574 Y95.629 E.03321
G1 X177.574 Y96.163 E.01677
G1 X176.826 Y95.416 E.03319
G1 X176.826 Y95.95 E.01677
G1 X177.574 Y96.697 E.03319
G1 X177.574 Y97.231 E.01677
G1 X176.826 Y96.484 E.03319
G1 X176.826 Y97.018 E.01677
G1 X177.574 Y97.765 E.03319
G1 X177.574 Y98.299 E.01677
G1 X176.826 Y97.552 E.03319
G1 X176.826 Y98.086 E.01677
G1 X177.574 Y98.833 E.03319
G1 X177.574 Y99.367 E.01677
G1 X176.826 Y98.62 E.03319
G1 X176.826 Y99.154 E.01677
G1 X177.574 Y99.901 E.03319
G1 X177.574 Y100.435 E.01677
G1 X176.826 Y99.688 E.03319
G1 X176.826 Y100.222 E.01677
G1 X177.574 Y100.969 E.03319
G1 X177.574 Y101.503 E.01677
G1 X176.826 Y100.756 E.03319
G1 X176.826 Y101.29 E.01677
G1 X177.574 Y102.037 E.03319
G1 X177.574 Y102.571 E.01677
G1 X176.826 Y101.824 E.03319
G1 X176.826 Y102.358 E.01677
G1 X177.574 Y103.105 E.03319
G1 X177.574 Y103.639 E.01677
G1 X176.826 Y102.892 E.03319
G1 X176.826 Y103.426 E.01677
G1 X177.574 Y104.173 E.03319
G1 X177.574 Y104.707 E.01677
G1 X176.826 Y103.96 E.03319
G1 X176.826 Y104.494 E.01677
G1 X177.574 Y105.241 E.03319
G1 X177.574 Y105.775 E.01677
G1 X176.826 Y105.028 E.03319
G1 X176.826 Y105.562 E.01677
G1 X177.574 Y106.309 E.03319
G1 X177.574 Y106.843 E.01677
G1 X176.826 Y106.096 E.03319
G1 X176.826 Y106.63 E.01677
M73 P2 R50
G1 X177.574 Y107.377 E.03319
G1 X177.574 Y107.911 E.01677
G1 X176.826 Y107.164 E.03319
G1 X176.826 Y107.698 E.01677
G1 X177.574 Y108.445 E.03319
G1 X177.574 Y108.874 E.01347
G1 X177.468 Y108.874 E.00333
G1 X176.826 Y108.232 E.02851
G1 X176.826 Y108.766 E.01677
G1 X177.104 Y109.043 E.01232
M204 S1000
;WIPE_START
G1 F8640
G1 X176.826 Y108.766 E-.09062
G1 X176.826 Y108.232 E-.1233
G1 X177.468 Y108.874 E-.20964
G1 X177.574 Y108.874 E-.02448
G1 X177.574 Y108.445 E-.09906
G1 X176.826 Y107.698 E-.24409
G1 X176.826 Y107.66 E-.00881
;WIPE_END
G1 Z.6 F720
G1 X175.862 Y88.043 F10800
G1 Z.2 F720
G1 E.8 F2100
M204 S800
G1 F1200
G1 X173.945 Y86.126 E.08512
G1 X173.411 Y86.126 E.01677
G1 X175.159 Y87.874 E.07762
G1 X174.625 Y87.874 E.01677
G1 X172.877 Y86.126 E.07762
G1 X172.343 Y86.126 E.01677
G1 X174.091 Y87.874 E.07762
G1 X173.557 Y87.874 E.01677
G1 X171.809 Y86.126 E.07762
G1 X171.275 Y86.126 E.01677
G1 X173.023 Y87.874 E.07762
G1 X172.489 Y87.874 E.01677
G1 X170.741 Y86.126 E.07762
G1 X170.207 Y86.126 E.01677
G1 X171.955 Y87.874 E.07762
G1 X171.421 Y87.874 E.01677
G1 X169.673 Y86.126 E.07762
G1 X169.139 Y86.126 E.01677
G1 X170.887 Y87.874 E.07762
G1 X170.353 Y87.874 E.01677
G1 X168.605 Y86.126 E.07762
G1 X168.071 Y86.126 E.01677
G1 X169.819 Y87.874 E.07762
G1 X169.284 Y87.874 E.0168
G1 X167.537 Y86.126 E.07759
G1 X167.003 Y86.126 E.01677
G1 X168.75 Y87.874 E.07759
G1 X168.216 Y87.874 E.01677
G1 X166.469 Y86.126 E.07759
G1 X165.935 Y86.126 E.01677
G1 X167.682 Y87.874 E.07759
G1 X167.148 Y87.874 E.01677
G1 X165.401 Y86.126 E.07759
G1 X164.867 Y86.126 E.01677
G1 X166.614 Y87.874 E.07759
G1 X166.08 Y87.874 E.01677
G1 X164.333 Y86.126 E.07759
G1 X163.799 Y86.126 E.01677
G1 X165.546 Y87.874 E.07759
G1 X165.012 Y87.874 E.01677
G1 X163.265 Y86.126 E.07759
G1 X162.731 Y86.126 E.01677
G1 X164.478 Y87.874 E.07759
G1 X163.944 Y87.874 E.01677
G1 X162.197 Y86.126 E.07759
G1 X161.663 Y86.126 E.01677
G1 X163.41 Y87.874 E.07759
G1 X162.876 Y87.874 E.01677
G1 X161.129 Y86.126 E.07759
G1 X160.595 Y86.126 E.01677
G1 X162.342 Y87.874 E.07759
G1 X161.808 Y87.874 E.01677
G1 X160.061 Y86.126 E.07759
G1 X159.527 Y86.126 E.01677
G1 X161.274 Y87.874 E.07759
G1 X160.74 Y87.874 E.01677
G1 X158.993 Y86.126 E.07759
G1 X158.459 Y86.126 E.01677
G1 X160.206 Y87.874 E.07759
G1 X159.672 Y87.874 E.01677
G1 X157.925 Y86.126 E.07759
G1 X157.391 Y86.126 E.01677
G1 X159.138 Y87.874 E.07759
G1 X158.604 Y87.874 E.01677
G1 X156.857 Y86.126 E.07759
G1 X156.323 Y86.126 E.01677
G1 X158.07 Y87.874 E.07759
G1 X157.536 Y87.874 E.01677
G1 X155.789 Y86.126 E.07759
G1 X155.255 Y86.126 E.01677
G1 X157.002 Y87.874 E.07759
G1 X156.468 Y87.874 E.01677
G1 X154.721 Y86.126 E.07759
G1 X154.187 Y86.126 E.01677
G1 X155.934 Y87.874 E.07759
G1 X155.4 Y87.874 E.01677
G1 X153.653 Y86.126 E.07759
G1 X153.119 Y86.126 E.01677
G1 X154.866 Y87.874 E.07759
G1 X154.332 Y87.874 E.01677
G1 X152.585 Y86.126 E.07759
G1 X152.051 Y86.126 E.01677
G1 X153.798 Y87.874 E.07759
G1 X153.264 Y87.874 E.01677
G1 X151.517 Y86.126 E.07759
G1 X150.983 Y86.126 E.01677
G1 X152.73 Y87.874 E.07759
G1 X152.196 Y87.874 E.01677
G1 X150.449 Y86.126 E.07759
G1 X149.915 Y86.126 E.01677
G1 X151.662 Y87.874 E.07759
G1 X151.128 Y87.874 E.01677
G1 X149.381 Y86.126 E.07759
G1 X148.847 Y86.126 E.01677
G1 X150.594 Y87.874 E.07759
G1 X150.06 Y87.874 E.01677
G1 X148.313 Y86.126 E.07759
G1 X147.779 Y86.126 E.01677
G1 X149.526 Y87.874 E.07759
G1 X148.992 Y87.874 E.01677
G1 X147.245 Y86.126 E.07759
G1 X146.711 Y86.126 E.01677
G1 X148.458 Y87.874 E.07759
G1 X147.924 Y87.874 E.01677
G1 X146.177 Y86.126 E.07759
G1 X145.643 Y86.126 E.01677
G1 X147.39 Y87.874 E.07759
G1 X146.856 Y87.874 E.01677
G1 X145.109 Y86.126 E.07759
G1 X144.575 Y86.126 E.01677
G1 X146.322 Y87.874 E.07759
G1 X145.788 Y87.874 E.01677
G1 X144.041 Y86.126 E.07759
G1 X143.507 Y86.126 E.01677
G1 X145.254 Y87.874 E.07759
G1 X144.72 Y87.874 E.01677
G1 X142.973 Y86.126 E.07759
G1 X142.439 Y86.126 E.01677
G1 X144.186 Y87.874 E.07759
G1 X143.652 Y87.874 E.01677
G1 X141.905 Y86.126 E.07759
G1 X141.371 Y86.126 E.01677
G1 X143.118 Y87.874 E.07759
G1 X142.584 Y87.874 E.01677
G1 X140.837 Y86.126 E.07759
G1 X140.303 Y86.126 E.01677
G1 X142.05 Y87.874 E.07759
G1 X141.516 Y87.874 E.01677
G1 X139.769 Y86.126 E.07759
G1 X139.235 Y86.126 E.01677
G1 X140.982 Y87.874 E.07759
G1 X140.448 Y87.874 E.01677
G1 X138.701 Y86.126 E.07759
G1 X138.167 Y86.126 E.01677
G1 X139.914 Y87.874 E.07759
G1 X139.38 Y87.874 E.01677
G1 X137.633 Y86.126 E.07759
G1 X137.099 Y86.126 E.01677
G1 X138.846 Y87.874 E.07759
G1 X138.312 Y87.874 E.01677
G1 X136.565 Y86.126 E.07759
G1 X136.031 Y86.126 E.01677
G1 X137.778 Y87.874 E.07759
G1 X137.244 Y87.874 E.01677
G1 X135.497 Y86.126 E.07759
G1 X134.963 Y86.126 E.01677
G1 X136.71 Y87.874 E.07759
G1 X136.176 Y87.874 E.01677
G1 X134.429 Y86.126 E.07759
G1 X133.895 Y86.126 E.01677
G1 X135.642 Y87.874 E.07759
G1 X135.108 Y87.874 E.01677
G1 X133.361 Y86.126 E.07759
G1 X132.827 Y86.126 E.01677
G1 X134.574 Y87.874 E.07759
G1 X134.04 Y87.874 E.01677
G1 X132.293 Y86.126 E.07759
G1 X131.759 Y86.126 E.01677
G1 X133.506 Y87.874 E.07759
G1 X132.972 Y87.874 E.01677
G1 X131.225 Y86.126 E.07759
G1 X130.691 Y86.126 E.01677
G1 X132.438 Y87.874 E.07759
G1 X131.904 Y87.874 E.01677
G1 X130.157 Y86.126 E.07759
G1 X129.623 Y86.126 E.01677
G1 X131.37 Y87.874 E.07759
G1 X130.836 Y87.874 E.01677
G1 X129.089 Y86.126 E.07759
G1 X128.555 Y86.126 E.01677
G1 X130.302 Y87.874 E.07759
G1 X129.768 Y87.874 E.01677
G1 X128.021 Y86.126 E.07759
G1 X127.487 Y86.126 E.01677
G1 X129.234 Y87.874 E.07759
G1 X128.7 Y87.874 E.01677
G1 X126.953 Y86.126 E.07759
G1 X126.419 Y86.126 E.01677
G1 X128.166 Y87.874 E.07759
G1 X127.632 Y87.874 E.01677
G1 X125.885 Y86.126 E.07759
G1 X125.351 Y86.126 E.01677
G1 X127.098 Y87.874 E.07759
G1 X126.564 Y87.874 E.01677
G1 X124.817 Y86.126 E.07759
G1 X124.283 Y86.126 E.01677
G1 X126.03 Y87.874 E.07759
G1 X125.496 Y87.874 E.01677
G1 X123.749 Y86.126 E.07759
G1 X123.215 Y86.126 E.01677
G1 X124.962 Y87.874 E.07759
G1 X124.428 Y87.874 E.01677
G1 X122.681 Y86.126 E.07759
G1 X122.147 Y86.126 E.01677
G1 X123.894 Y87.874 E.07759
G1 X123.36 Y87.874 E.01677
G1 X121.613 Y86.126 E.07759
G1 X121.079 Y86.126 E.01677
G1 X122.826 Y87.874 E.07759
G1 X122.292 Y87.874 E.01677
G1 X120.545 Y86.126 E.07759
G1 X120.011 Y86.126 E.01677
G1 X121.758 Y87.874 E.07759
G1 X121.224 Y87.874 E.01677
G1 X119.477 Y86.126 E.07759
G1 X118.943 Y86.126 E.01677
G1 X120.69 Y87.874 E.07759
G1 X120.156 Y87.874 E.01677
G1 X118.409 Y86.126 E.07759
G1 X117.875 Y86.126 E.01677
G1 X119.622 Y87.874 E.07759
G1 X119.088 Y87.874 E.01677
G1 X117.341 Y86.126 E.07759
G1 X116.807 Y86.126 E.01677
G1 X118.554 Y87.874 E.07759
G1 X118.02 Y87.874 E.01677
G1 X116.273 Y86.126 E.07759
G1 X115.739 Y86.126 E.01677
G1 X117.486 Y87.874 E.07759
G1 X116.952 Y87.874 E.01677
G1 X115.205 Y86.126 E.07759
G1 X114.671 Y86.126 E.01677
G1 X116.418 Y87.874 E.07759
G1 X115.884 Y87.874 E.01677
G1 X114.137 Y86.126 E.07759
G1 X113.603 Y86.126 E.01677
G1 X115.359 Y87.883 E.07799
G1 X115.113 Y87.949 E.008
G1 X114.981 Y88.039 E.00502
G1 X113.069 Y86.126 E.08492
G1 X112.826 Y86.126 E.00763
G1 X112.826 Y86.418 E.00917
G1 X114.719 Y88.31 E.08403
G1 X114.645 Y88.419 E.00414
G1 X114.584 Y88.71 E.00934
G1 X112.826 Y86.952 E.07806
G1 X112.826 Y87.486 E.01677
G1 X114.574 Y89.233 E.07759
G1 X114.574 Y89.768 E.0168
G1 X112.826 Y88.02 E.07762
G1 X112.826 Y88.554 E.01677
G1 X114.574 Y90.302 E.07762
G1 X114.574 Y90.836 E.01677
G1 X112.826 Y89.088 E.07762
G1 X112.826 Y89.622 E.01677
G1 X114.574 Y91.37 E.07762
G1 X114.574 Y91.904 E.01677
G1 X112.826 Y90.156 E.07762
G1 X112.826 Y90.69 E.01677
G1 X114.574 Y92.438 E.07762
G1 X114.574 Y92.972 E.01677
G1 X112.826 Y91.224 E.07762
G1 X112.826 Y91.758 E.01677
G1 X114.574 Y93.506 E.07762
G1 X114.574 Y94.04 E.01677
G1 X112.826 Y92.292 E.07762
G1 X112.826 Y92.826 E.01677
G1 X114.574 Y94.574 E.07762
G1 X114.574 Y95.108 E.01677
G1 X112.826 Y93.36 E.07762
G1 X112.826 Y93.894 E.01677
G1 X114.574 Y95.642 E.07762
G1 X114.574 Y96.176 E.01677
G1 X112.826 Y94.429 E.07759
G1 X112.826 Y94.963 E.01677
G1 X114.574 Y96.71 E.07759
G1 X114.574 Y97.244 E.01677
G1 X112.826 Y95.497 E.07759
G1 X112.826 Y96.031 E.01677
G1 X114.574 Y97.778 E.07759
G1 X114.574 Y98.312 E.01677
G1 X112.826 Y96.565 E.07759
G1 X112.826 Y97.099 E.01677
G1 X114.574 Y98.846 E.07759
G1 X114.574 Y99.38 E.01677
G1 X112.826 Y97.633 E.07759
G1 X112.826 Y98.167 E.01677
G1 X114.574 Y99.914 E.07759
G1 X114.574 Y100.448 E.01677
G1 X112.826 Y98.701 E.07759
G1 X112.826 Y99.235 E.01677
G1 X114.574 Y100.982 E.07759
G1 X114.574 Y101.516 E.01677
G1 X112.826 Y99.769 E.07759
G1 X112.826 Y100.303 E.01677
G1 X114.574 Y102.05 E.07759
G1 X114.574 Y102.584 E.01677
G1 X112.826 Y100.837 E.07759
G1 X112.826 Y101.371 E.01677
G1 X114.574 Y103.118 E.07759
G1 X114.574 Y103.652 E.01677
G1 X112.826 Y101.905 E.07759
G1 X112.826 Y102.439 E.01677
G1 X114.574 Y104.186 E.07759
G1 X114.574 Y104.72 E.01677
G1 X112.826 Y102.973 E.07759
G1 X112.826 Y103.507 E.01677
G1 X114.574 Y105.254 E.07759
G1 X114.574 Y105.788 E.01677
G1 X112.826 Y104.041 E.07759
G1 X112.826 Y104.575 E.01677
G1 X114.574 Y106.322 E.07759
G1 X114.574 Y106.856 E.01677
M73 P3 R50
G1 X112.826 Y105.109 E.07759
G1 X112.826 Y105.643 E.01677
G1 X114.574 Y107.39 E.07759
G1 X114.574 Y107.924 E.01677
M73 Q3 S51
G1 X112.826 Y106.177 E.07759
G1 X112.826 Y106.711 E.01677
G1 X114.574 Y108.458 E.07759
G1 X114.574 Y108.992 E.01677
G1 X112.826 Y107.245 E.07759
G1 X112.826 Y107.779 E.01677
G1 X114.574 Y109.526 E.07759
