; generated by PrusaSlicer 2.9.3 on 2026-03-31 at 21:58:41 UTC


;
;
; 

; external perimeters extrusion width = 0.45mm
; perimeters extrusion width = 0.45mm
; infill extrusion width = 0.45mm
; solid infill extrusion width = 0.45mm
; top infill extrusion width = 0.40mm
; first layer extrusion width = 0.42mm

M73 P0 R74
M73 Q0 S74
M201 X1000 Y1000 Z200 E5000 ; sets maximum accelerations, mm/sec^2
M203 X200 Y200 Z12 E120 ; sets maximum feedrates, mm / sec
M204 S1250 T1250 ; sets acceleration (S) and retract acceleration (R), mm/sec^2
M205 X8.00 Y8.00 Z0.40 E4.50 ; sets the jerk limits, mm/sec
M205 S0 T0 ; sets the minimum extruding and travel feed rate, mm/sec

; printing object schrank-blende-ecke-preview.stl id:0 copy 0
; stop printing object schrank-blende-ecke-preview.stl id:0 copy 0

;TYPE:Custom
M862.3 P "MK3S" ; printer model check
M862.1 P0.4 ; nozzle diameter check
M115 U3.14.1 ; tell printer latest fw version
G90 ; use absolute coordinates
M83 ; extruder relative mode
M104 S215 ; set extruder temp
M140 S60 ; set bed temp
M190 S60 ; wait for bed temp
M109 S215 ; wait for extruder temp
G28 W ; home all without mesh bed level
G80 X87.6352 Y71.8852 W74.7295 H66.2295 ; mesh bed levelling

G1 Z0.2 F720
G1 Y-3 F1000 ; go outside print area
G92 E0
G1 X60 E9 F1000 ; intro line
G1 X100 E12.5 F1000 ; intro line

G92 E0
M221 S95

; Don't change E values below. Excessive value can damage the printer.

M907 E538 ; set extruder motor current
G21 ; set units to millimeters
G90 ; use absolute coordinates
M83 ; use relative distances for extrusion

M900 K0.05 ; Filament gcode LA 1.5
M900 K30 ; Filament gcode LA 1.0




M107
;LAYER_CHANGE
;Z:0.2
;HEIGHT:0.2
G1 E-.8 F2100
G1 Z.6 F720
G1 X88.866 Y80.309 F10800
G1 Z.2 F720
G1 E.8 F2100
M204 S800
;TYPE:Skirt/Brim
;WIDTH:0.42
G1 F1200
G1 X89.414 Y79.909 E.02127
G1 X90.116 Y79.6 E.02405
G1 X117.658 Y72.101 E.895
G1 X159.342 Y72.101 E1.30697
G1 X160.574 Y72.501 E.04061
G1 X161.347 Y73.122 E.03109
G1 X161.889 Y73.951 E.03106
G1 X162.101 Y74.602 E.02147
G1 X162.176 Y75.25 E.02045
G1 X162.176 Y134.75 E1.86558
G1 X162.101 Y135.398 E.02045
G1 X161.889 Y136.049 E.02147
G1 X161.131 Y137.093 E.04045
G1 X160.308 Y137.635 E.0309
G1 X159.648 Y137.851 E.02177
G1 X159 Y137.926 E.02045
G1 X91 Y137.926 E2.13209
G1 X90.352 Y137.851 E.02045
G1 X89.701 Y137.639 E.02147
G1 X88.653 Y136.878 E.04061
G1 X88.111 Y136.049 E.03106
G1 X87.899 Y135.398 E.02147
G1 X87.824 Y134.75 E.02045
G1 X87.824 Y82.65 E1.63356
G1 X87.898 Y82.007 E.02029
M73 P0 R73
G1 X88.105 Y81.365 E.02115
G1 X88.831 Y80.358 E.03892
M204 S1000
;WIPE_START
G1 F8640
G1 X88.866 Y80.309 E-.0139
G1 X89.414 Y79.909 E-.15666
G1 X90.116 Y79.6 E-.1771
G1 X92.006 Y79.085 E-.45234
;WIPE_END
G1 Z.6 F720
; printing object schrank-blende-ecke-preview.stl id:0 copy 0
G1 X125 Y80.194 F10800
G1 Z.2 F720
G1 E.8 F2100
M204 S800
;TYPE:Perimeter
;WIDTH:0.419999
G1 F1200
G1 X125.146 Y80.194 E.00458
G1 X125.901 Y80.397 E.02451
G1 X126.155 Y80.543 E.00919
G1 X126.707 Y81.095 E.02448
G1 X126.853 Y81.349 E.00919
G1 X127.056 Y82.104 E.02451
G1 X127.056 Y82.396 E.00916
G1 X126.853 Y83.151 E.02451
G1 X126.707 Y83.405 E.00919
G1 X126.155 Y83.957 E.02448
G1 X125.901 Y84.103 E.00919
G1 X125.146 Y84.306 E.02451
G1 X124.854 Y84.306 E.00916
G1 X124.099 Y84.103 E.02451
G1 X123.845 Y83.957 E.00919
G1 X123.293 Y83.405 E.02448
G1 X123.147 Y83.151 E.00919
G1 X122.927 Y82.294 E.02774
G1 X122.944 Y82.104 E.00598
G1 X123.147 Y81.349 E.02451
G1 X123.293 Y81.095 E.00919
G1 X123.845 Y80.543 E.02448
G1 X124.099 Y80.397 E.00919
G1 X124.854 Y80.194 E.02451
G1 X124.94 Y80.194 E.0027
M204 S1000
G1 X125.002 Y80.571 F10800
M204 S800
;TYPE:External perimeter
G1 F1200
G1 X125.803 Y80.761 E.02581
G1 X126.44 Y81.362 E.02746
G1 X126.691 Y82.201 E.02746
G1 X126.489 Y83.053 E.02745
G1 X125.888 Y83.69 E.02746
G1 X125.049 Y83.941 E.02746
G1 X124.197 Y83.739 E.02745
G1 X123.56 Y83.138 E.02746
G1 X123.303 Y82.265 E.02853
G1 X123.511 Y81.447 E.02646
G1 X124.112 Y80.81 E.02746
G1 X124.944 Y80.561 E.02723
M204 S1000
;WIPE_START
G1 F8640
G1 X125.002 Y80.571 E-.01359
G1 X125.803 Y80.761 E-.19009
G1 X126.44 Y81.362 E-.20222
G1 X126.691 Y82.201 E-.20221
G1 X126.499 Y83.01 E-.19189
;WIPE_END
G1 Z.6 F720
G1 X149.972 Y80.47 F10800
G1 Z.2 F720
G1 E.8 F2100
M204 S800
;TYPE:Perimeter
G1 F1200
G1 X150.099 Y80.397 E.00459
G1 X150.854 Y80.194 E.02451
G1 X151.146 Y80.194 E.00916
G1 X151.901 Y80.397 E.02451
G1 X152.155 Y80.543 E.00919
G1 X152.707 Y81.095 E.02448
G1 X152.853 Y81.349 E.00919
G1 X153.056 Y82.104 E.02451
G1 X153.056 Y82.396 E.00916
G1 X152.853 Y83.151 E.02451
G1 X152.707 Y83.405 E.00919
G1 X152.155 Y83.957 E.02448
G1 X152.042 Y84.044 E.00447
G1 X151.146 Y84.306 E.02927
G1 X150.854 Y84.306 E.00916
G1 X150.099 Y84.103 E.02451
G1 X149.845 Y83.957 E.00919
G1 X149.293 Y83.405 E.02448
G1 X149.147 Y83.151 E.00919
G1 X148.944 Y82.396 E.02451
G1 X148.944 Y82.104 E.00916
G1 X149.147 Y81.349 E.02451
G1 X149.293 Y81.095 E.00919
G1 X149.845 Y80.543 E.02448
G1 X149.92 Y80.5 E.00271
M204 S1000
G1 X150.162 Y80.795 F10800
M204 S800
;TYPE:External perimeter
G1 F1200
G1 X150.951 Y80.559 E.02582
G1 X151.803 Y80.761 E.02745
G1 X152.44 Y81.362 E.02746
G1 X152.691 Y82.201 E.02746
G1 X152.489 Y83.053 E.02745
G1 X151.85 Y83.719 E.02894
G1 X151.049 Y83.941 E.02606
G1 X150.197 Y83.739 E.02745
G1 X149.56 Y83.138 E.02746
G1 X149.309 Y82.299 E.02746
G1 X149.511 Y81.447 E.02745
G1 X150.107 Y80.815 E.02724
M204 S1000
;WIPE_START
G1 F8640
G1 X150.162 Y80.795 E-.01351
G1 X150.951 Y80.559 E-.19016
G1 X151.803 Y80.761 E-.20218
G1 X152.44 Y81.362 E-.20222
G1 X152.679 Y82.159 E-.19193
;WIPE_END
G1 Z.6 F720
G1 X155.599 Y128.875 F10800
G1 Z.2 F720
G1 E.8 F2100
M204 S800
;TYPE:Perimeter
G1 F1200
G1 X155.372 Y129.017 E.0084
G1 X155.221 Y129.037 E.00478
G1 X94.779 Y129.037 E1.89511
G1 X94.491 Y128.958 E.00936
G1 X94.356 Y128.847 E.00548
G1 X94.221 Y128.569 E.00969
G1 X94.213 Y128.471 E.00308
G1 X94.213 Y88.029 E1.26803
G1 X94.242 Y87.851 E.00565
G1 X94.427 Y87.585 E.01016
G1 X94.681 Y87.471 E.00873
G1 X94.779 Y87.463 E.00308
G1 X151.562 Y87.463 E1.78039
G1 X155.221 Y87.463 E.11473
G1 X155.441 Y87.507 E.00703
G1 X155.675 Y87.69 E.00931
G1 X155.757 Y87.846 E.00553
G1 X155.787 Y88.029 E.00581
G1 X155.787 Y128.471 E1.26803
G1 X155.748 Y128.679 E.00664
G1 X155.648 Y128.841 E.00597
M204 S1000
G1 X155.323 Y128.614 F10800
M204 S800
;TYPE:External perimeter
G1 F1200
G1 X155.221 Y128.66 E.00351
G1 X94.779 Y128.66 E1.89511
G1 X94.638 Y128.597 E.00484
G1 X94.59 Y128.471 E.00423
G1 X94.59 Y88.029 E1.26803
G1 X94.661 Y87.881 E.00515
G1 X94.779 Y87.84 E.00392
G1 X151.562 Y87.84 E1.78039
G1 X155.221 Y87.84 E.11473
G1 X155.335 Y87.878 E.00377
G1 X155.41 Y88.029 E.00529
G1 X155.41 Y128.471 E1.26803
G1 X155.368 Y128.581 E.00369
M73 P1 R73
M73 Q1 S74
M204 S1000
;WIPE_START
G1 F8640
G1 X155.323 Y128.614 E-.01289
G1 X155.221 Y128.66 E-.02584
G1 X151.924 Y128.66 E-.76127
;WIPE_END
G1 Z.6 F720
G1 X117.633 Y82.266 F10800
G1 Z.2 F720
G1 E.8 F2100
M204 S800
;TYPE:Perimeter
G1 F1200
G1 X117.759 Y82.093 E.00671
G1 X117.799 Y81.884 E.00667
G1 X117.799 Y75.312 E.20606
G1 X117.867 Y75.117 E.00648
G1 X118.062 Y75.049 E.00648
G1 X158.916 Y75.049 E1.28095
G1 X159.029 Y75.064 E.00357
G1 X159.154 Y75.138 E.00455
G1 X159.201 Y75.334 E.00632
G1 X159.201 Y134.688 E1.861
G1 X159.133 Y134.883 E.00648
M73 Q1 S73
G1 X158.938 Y134.951 E.00648
G1 X91.062 Y134.951 E2.1282
G1 X90.867 Y134.883 E.00648
G1 X90.799 Y134.688 E.00648
G1 X90.799 Y82.712 E1.62967
G1 X90.867 Y82.517 E.00648
G1 X91.062 Y82.449 E.00648
G1 X117.332 Y82.441 E.82368
G1 X117.591 Y82.322 E.00894
G1 X117.597 Y82.314 E.00031
M204 S1000
G1 X117.374 Y81.986 F10800
M204 S800
;TYPE:External perimeter
G1 F1200
G1 X117.422 Y81.884 E.00353
G1 X117.422 Y75.334 E.20537
G1 X117.441 Y75.162 E.00543
G1 X117.537 Y74.913 E.00837
G1 X117.743 Y74.746 E.00831
G1 X118.032 Y74.672 E.00935
G1 X158.916 Y74.672 E1.28189
G1 X159.177 Y74.705 E.00825
G1 X159.4 Y74.85 E.00834
G1 X159.545 Y75.073 E.00834
G1 X159.578 Y75.334 E.00825
G1 X159.578 Y134.666 E1.86031
G1 X159.559 Y134.838 E.00543
G1 X159.463 Y135.087 E.00837
G1 X159.257 Y135.254 E.00831
G1 X158.968 Y135.328 E.00935
G1 X91.084 Y135.328 E2.12845
G1 X90.912 Y135.309 E.00543
G1 X90.663 Y135.213 E.00837
G1 X90.496 Y135.007 E.00831
G1 X90.422 Y134.718 E.00935
G1 X90.422 Y82.734 E1.62992
G1 X90.441 Y82.562 E.00543
G1 X90.537 Y82.313 E.00837
G1 X90.743 Y82.146 E.00831
G1 X91.032 Y82.072 E.00935
G1 X117.234 Y82.072 E.82154
G1 X117.342 Y82.034 E.00359
M204 S1000
;WIPE_START
G1 F8640
G1 X117.374 Y81.986 E-.01332
G1 X117.422 Y81.884 E-.02603
G1 X117.422 Y78.59 E-.76065
;WIPE_END
G1 Z.6 F720
G1 X159.019 Y75.995 F10800
G1 Z.2 F720
G1 E.8 F2100
M204 S800
;TYPE:Solid infill
;WIDTH:0.420587
G1 F1200
G1 X158.425 Y75.401 E.02638
G1 X157.89 Y75.401 E.0168
G1 X158.849 Y76.359 E.04257
G1 X158.849 Y76.893 E.01677
G1 X157.356 Y75.4 E.06631
G1 X156.822 Y75.4 E.01677
G1 X158.849 Y77.427 E.09002
G1 X158.849 Y77.961 E.01677
G1 X156.288 Y75.4 E.11374
G1 X155.753 Y75.4 E.0168
G1 X158.849 Y78.496 E.1375
G1 X158.849 Y79.03 E.01677
G1 X155.219 Y75.4 E.16121
G1 X154.685 Y75.399 E.01677
G1 X158.849 Y79.564 E.18495
G1 X158.849 Y80.098 E.01677
G1 X154.15 Y75.399 E.20869
G1 X153.616 Y75.399 E.01677
G1 X158.849 Y80.632 E.2324
G1 X158.849 Y81.166 E.01677
G1 X153.082 Y75.399 E.25612
G1 X152.548 Y75.399 E.01677
G1 X158.849 Y81.7 E.27983
G1 X158.849 Y82.234 E.01677
G1 X152.013 Y75.399 E.30357
G1 X151.479 Y75.398 E.01677
G1 X158.849 Y82.768 E.32731
G1 X158.849 Y83.302 E.01677
G1 X150.945 Y75.398 E.35102
G1 X150.41 Y75.398 E.0168
G1 X158.849 Y83.837 E.37478
G1 X158.849 Y84.371 E.01677
G1 X149.876 Y75.398 E.3985
G1 X149.342 Y75.398 E.01677
M73 P1 R72
G1 X158.849 Y84.905 E.42221
G1 X158.849 Y85.439 E.01677
G1 X148.808 Y75.397 E.44595
G1 X148.273 Y75.397 E.0168
G1 X158.849 Y85.973 E.46969
G1 X158.849 Y86.507 E.01677
G1 X147.739 Y75.397 E.4934
G1 X147.205 Y75.397 E.01677
G1 X151.836 Y80.028 E.20567
G1 X151.999 Y80.071 E.00529
G1 X152.214 Y80.162 E.00733
G1 X152.388 Y80.296 E.0069
G1 X152.955 Y80.863 E.02518
G1 X153.104 Y81.065 E.00788
G1 X153.222 Y81.414 E.01157
G1 X158.849 Y87.041 E.2499
G1 X158.849 Y87.575 E.01677
G1 X153.399 Y82.125 E.24204
G1 X153.416 Y82.25 E.00396
G1 X153.349 Y82.61 E.0115
G1 X158.849 Y88.109 E.24424
G1 X158.849 Y88.644 E.0168
G1 X153.236 Y83.03 E.2493
G1 X153.162 Y83.303 E.00888
G1 X153.103 Y83.432 E.00445
G1 X158.849 Y89.178 E.25518
G1 X158.849 Y89.712 E.01677
G1 X152.864 Y83.727 E.2658
G1 X152.597 Y83.994 E.01186
G1 X158.849 Y90.246 E.27766
G1 X158.849 Y90.78 E.01677
G1 X156.126 Y88.057 E.12093
G1 X156.08 Y87.736 E.01018
G1 X155.949 Y87.488 E.00881
G1 X155.769 Y87.306 E.00804
G1 X155.575 Y87.194 E.00703
G1 X155.39 Y87.139 E.00606
G1 X155.193 Y87.124 E.0062
G1 X152.323 Y84.254 E.12746
G1 X152.214 Y84.338 E.00432
G1 X151.971 Y84.436 E.00823
G1 X154.659 Y87.124 E.11938
G1 X154.125 Y87.124 E.01677
G1 X151.55 Y84.549 E.11436
G1 X151.117 Y84.65 E.01396
G1 X153.76 Y87.293 E.11738
M204 S1000
;WIPE_START
G1 F8640
G1 X151.31 Y84.843 E-.8
;WIPE_END
G1 Z.6 F720
G1 X155.957 Y88.422 F10800
G1 Z.2 F720
G1 E.8 F2100
M204 S800
G1 F1200
G1 X158.849 Y91.314 E.12844
G1 X158.849 Y91.848 E.01677
G1 X156.126 Y89.125 E.12093
G1 X156.126 Y89.66 E.0168
G1 X158.849 Y92.382 E.12091
G1 X158.849 Y92.916 E.01677
G1 X156.126 Y90.194 E.12091
G1 X156.126 Y90.728 E.01677
G1 X158.849 Y93.45 E.12091
G1 X158.849 Y93.985 E.0168
G1 X156.126 Y91.262 E.12093
G1 X156.126 Y91.796 E.01677
G1 X158.849 Y94.519 E.12093
G1 X158.849 Y95.053 E.01677
G1 X156.126 Y92.33 E.12093
G1 X156.126 Y92.864 E.01677
G1 X158.849 Y95.587 E.12093
M73 Q2 S73
G1 X158.849 Y96.121 E.01677
M73 P2 R72
G1 X156.126 Y93.398 E.12093
G1 X156.126 Y93.932 E.01677
G1 X158.849 Y96.655 E.12093
G1 X158.849 Y97.189 E.01677
G1 X156.126 Y94.467 E.12091
G1 X156.126 Y95.001 E.01677
G1 X158.849 Y97.723 E.12091
G1 X158.849 Y98.257 E.01677
G1 X156.126 Y95.535 E.12091
G1 X156.126 Y96.069 E.01677
G1 X158.849 Y98.791 E.12091
G1 X158.849 Y99.326 E.0168
G1 X156.126 Y96.603 E.12093
G1 X156.126 Y97.137 E.01677
G1 X158.849 Y99.86 E.12093
G1 X158.849 Y100.394 E.01677
G1 X156.126 Y97.671 E.12093
G1 X156.126 Y98.205 E.01677
G1 X158.849 Y100.928 E.12093
G1 X158.849 Y101.462 E.01677
G1 X156.126 Y98.739 E.12093
G1 X156.126 Y99.273 E.01677
G1 X158.849 Y101.996 E.12093
G1 X158.849 Y102.53 E.01677
G1 X156.126 Y99.808 E.12091
G1 X156.126 Y100.342 E.01677
G1 X158.849 Y103.064 E.12091
G1 X158.849 Y103.598 E.01677
G1 X156.126 Y100.876 E.12091
G1 X156.126 Y101.41 E.01677
G1 X158.849 Y104.132 E.12091
G1 X158.849 Y104.667 E.0168
G1 X156.126 Y101.944 E.12093
G1 X156.126 Y102.478 E.01677
G1 X158.849 Y105.201 E.12093
G1 X158.849 Y105.735 E.01677
G1 X156.126 Y103.012 E.12093
G1 X156.126 Y103.546 E.01677
G1 X158.849 Y106.269 E.12093
G1 X158.849 Y106.803 E.01677
G1 X156.126 Y104.08 E.12093
G1 X156.126 Y104.614 E.01677
G1 X158.849 Y107.337 E.12093
G1 X158.849 Y107.871 E.01677
G1 X156.126 Y105.149 E.12091
G1 X156.126 Y105.683 E.01677
G1 X158.849 Y108.405 E.12091
G1 X158.849 Y108.939 E.01677
G1 X156.126 Y106.217 E.12091
G1 X156.126 Y106.751 E.01677
G1 X158.849 Y109.473 E.12091
G1 X158.849 Y110.008 E.0168
G1 X156.126 Y107.285 E.12093
G1 X156.126 Y107.819 E.01677
G1 X158.849 Y110.542 E.12093
G1 X158.849 Y111.076 E.01677
G1 X156.126 Y108.353 E.12093
G1 X156.126 Y108.887 E.01677
G1 X158.849 Y111.61 E.12093
G1 X158.849 Y112.144 E.01677
G1 X156.126 Y109.421 E.12093
G1 X156.126 Y109.955 E.01677
G1 X158.849 Y112.678 E.12093
G1 X158.849 Y113.212 E.01677
G1 X156.126 Y110.49 E.12091
G1 X156.126 Y111.024 E.01677
G1 X158.849 Y113.746 E.12091
G1 X158.849 Y114.28 E.01677
G1 X156.126 Y111.558 E.12091
G1 X156.126 Y112.092 E.01677
G1 X158.849 Y114.815 E.12093
G1 X158.849 Y115.349 E.01677
G1 X156.126 Y112.626 E.12093
G1 X156.126 Y113.16 E.01677
G1 X158.849 Y115.883 E.12093
G1 X158.849 Y116.417 E.01677
G1 X156.126 Y113.694 E.12093
G1 X156.126 Y114.228 E.01677
G1 X158.849 Y116.951 E.12093
G1 X158.849 Y117.485 E.01677
G1 X156.126 Y114.762 E.12093
G1 X156.126 Y115.296 E.01677
G1 X158.849 Y118.019 E.12093
G1 X158.849 Y118.553 E.01677
G1 X156.126 Y115.831 E.12091
G1 X156.126 Y116.365 E.01677
G1 X158.849 Y119.087 E.12091
G1 X158.849 Y119.621 E.01677
G1 X156.126 Y116.899 E.12091
G1 X156.126 Y117.433 E.01677
G1 X158.849 Y120.156 E.12093
G1 X158.849 Y120.69 E.01677
G1 X156.126 Y117.967 E.12093
G1 X156.126 Y118.501 E.01677
G1 X158.849 Y121.224 E.12093
G1 X158.849 Y121.758 E.01677
G1 X156.126 Y119.035 E.12093
G1 X156.126 Y119.569 E.01677
G1 X158.849 Y122.292 E.12093
G1 X158.849 Y122.826 E.01677
G1 X156.126 Y120.103 E.12093
G1 X156.126 Y120.637 E.01677
G1 X158.849 Y123.36 E.12093
G1 X158.849 Y123.894 E.01677
G1 X156.126 Y121.172 E.12091
G1 X156.126 Y121.706 E.01677
G1 X158.849 Y124.428 E.12091
G1 X158.849 Y124.962 E.01677
G1 X156.126 Y122.24 E.12091
G1 X156.126 Y122.774 E.01677
G1 X158.849 Y125.497 E.12093
G1 X158.849 Y126.031 E.01677
G1 X156.126 Y123.308 E.12093
G1 X156.126 Y123.842 E.01677
G1 X158.849 Y126.565 E.12093
G1 X158.849 Y127.099 E.01677
G1 X156.126 Y124.376 E.12093
G1 X156.126 Y124.91 E.01677
G1 X158.849 Y127.633 E.12093
G1 X158.849 Y128.167 E.01677
G1 X156.126 Y125.444 E.12093
G1 X156.126 Y125.979 E.0168
G1 X158.849 Y128.701 E.12091
G1 X158.849 Y129.235 E.01677
G1 X156.126 Y126.513 E.12091
G1 X156.126 Y127.047 E.01677
G1 X158.849 Y129.769 E.12091
G1 X158.849 Y130.303 E.01677
G1 X156.126 Y127.581 E.12091
G1 X156.126 Y128.115 E.01677
G1 X158.849 Y130.838 E.12093
G1 X158.849 Y131.372 E.01677
G1 X156.112 Y128.634 E.12157
G1 X156.062 Y128.809 E.00572
G1 X155.945 Y129.001 E.00706
G1 X158.849 Y131.906 E.12899
G1 X158.849 Y132.44 E.01677
G1 X155.667 Y129.258 E.14131
G1 X155.463 Y129.345 E.00696
G1 X155.249 Y129.374 E.00678
G1 X158.849 Y132.974 E.15988
G1 X158.849 Y133.508 E.01677
G1 X154.717 Y129.376 E.18351
G1 X154.183 Y129.376 E.01677
G1 X158.849 Y134.042 E.20722
G1 X158.849 Y134.576 E.01677
G1 X153.649 Y129.376 E.23094
G1 X153.115 Y129.376 E.01677
G1 X158.338 Y134.599 E.23196
G1 X157.804 Y134.599 E.01677
G1 X152.581 Y129.376 E.23196
G1 X152.047 Y129.376 E.01677
G1 X157.27 Y134.599 E.23196
G1 X156.736 Y134.599 E.01677
